;FLAVOR:Marlin
;TIME:284
;Filament used: 0.136811m
;Layer height: 0.1
;MINX:137.603
;MINY:136.912
;MINZ:0.25
;MAXX:162.382
;MAXY:163.074
;MAXZ:2.55
;Generated with Cura_SteamEngine 5.4.0
M140 S100
M105
M190 S100
M104 S230
M105
M109 S230
M82 ;absolute extrusion mode
M400
G28; HOME GERAL
M400
G29; AUTO NIVELAMENTO
G1 Z10 F12000
M400
G1 X150 Y150
M400
G1 Z0.0
M400
G1 Z10
M400
G27
M400
G92 E0; RESETA EXTRUSOR
G1 E20 F500;
G1 Z2.0 F10000 ; Move Z Axis up little to prevent scratching of Heat Bed
G1 X0.5 Y20 Z0.3 F8000.0 ; Move to start position
G1 X0.5 Y280.0 Z0.3 F1500.0 E30 ; Draw the first line
G1 X1.5 Y280.0 Z0.3 F5000.0 ; Move to side a little
G1 X1.5 Y20 Z0.3 F1500.0 E60 ; Draw the second line
G92 E0; RESETA EXTRUSOR
M117 Imprimindo...
M400
G92 E0
G92 E0
G1 F2700 E-4
;LAYER_COUNT:24
;LAYER:0
M107
G0 F6000 X139.164 Y140.764 Z0.25
;TYPE:SKIRT
G1 F2700 E0
G1 F1200 X139.7 Y140.237 E0.03125
G1 X140.344 Y139.71 E0.06585
G1 X141.471 Y139.155 E0.11808
G1 X143.745 Y138.336 E0.21856
G1 X146.083 Y137.438 E0.32269
G1 X147.178 Y137.124 E0.37005
G1 X148.655 Y136.94 E0.43193
G1 X149.272 Y136.912 E0.45761
G1 X150.319 Y137.066 E0.50161
G1 X151.326 Y137.417 E0.54594
G1 X152.386 Y138.071 E0.59773
G1 X153.166 Y138.603 E0.63698
G1 X154.586 Y139.621 E0.70962
G1 X156.809 Y141.122 E0.82114
G1 X159.569 Y142.888 E0.95736
G1 X160.37 Y143.548 E1.00051
G1 X160.962 Y144.216 E1.03762
G1 X161.554 Y145.031 E1.0795
G1 X161.994 Y145.995 E1.12356
G1 X162.242 Y146.877 E1.16165
G1 X162.382 Y147.605 E1.19247
G1 X162.372 Y148.625 E1.23488
G1 X162.295 Y149.344 E1.26494
G1 X162.108 Y150.049 E1.29527
G1 X161.789 Y150.818 E1.32988
G1 X160.47 Y153.25 E1.4449
G1 X159.281 Y155.596 E1.55425
G1 X158.078 Y158.109 E1.67008
G1 X156.78 Y160.517 E1.78381
G1 X156.403 Y161.093 E1.81243
G1 X155.69 Y161.871 E1.85631
G1 X155.129 Y162.294 E1.88552
G1 X154.495 Y162.638 E1.91551
G1 X153.634 Y162.94 E1.95344
G1 X152.81 Y163.074 E1.98815
G1 X152.026 Y163.064 E2.02075
G1 X150.973 Y162.891 E2.06511
G1 X148.213 Y162.477 E2.18114
G1 X145.538 Y162.151 E2.29318
G1 X143.159 Y161.923 E2.39254
G1 X142.601 Y161.819 E2.41614
G1 X141.825 Y161.546 E2.45034
G1 X141.321 Y161.27 E2.47423
G1 X140.513 Y160.645 E2.5167
G1 X139.907 Y159.956 E2.55485
G1 X139.392 Y159.025 E2.59908
G1 X139.056 Y158.109 E2.63965
G1 X138.861 Y157.338 E2.67271
G1 X137.837 Y153.577 E2.83477
G1 X137.714 Y152.865 E2.86481
G1 X137.661 Y149.834 E2.99084
G1 X137.603 Y148.229 E3.05761
G1 X137.672 Y144.561 E3.21014
G1 X137.775 Y143.64 E3.24867
G1 X138.005 Y142.678 E3.28979
G1 X138.546 Y141.57 E3.34105
G1 X139.164 Y140.764 E3.38328
G0 F6000 X139.445 Y141.049
G1 F1200 X139.953 Y140.547 E3.41297
G1 X140.563 Y140.048 E3.44574
G1 X141.607 Y139.531 E3.49417
G1 X143.881 Y138.712 E3.59466
G1 X146.193 Y137.823 E3.69764
G1 X147.288 Y137.509 E3.745
G1 X148.673 Y137.34 E3.80301
G1 X149.253 Y137.314 E3.82715
G1 X150.224 Y137.457 E3.86795
G1 X151.155 Y137.781 E3.90894
G1 X152.161 Y138.402 E3.95809
G1 X152.933 Y138.928 E3.99692
G1 X154.353 Y139.946 E4.06957
G1 X156.593 Y141.459 E4.18195
G1 X159.353 Y143.225 E4.31817
G1 X160.071 Y143.814 E4.35678
G1 X160.638 Y144.451 E4.39224
G1 X161.207 Y145.235 E4.43251
G1 X161.609 Y146.104 E4.47232
G1 X161.849 Y146.953 E4.509
G1 X161.982 Y147.643 E4.53822
G1 X161.974 Y148.585 E4.57738
G1 X161.908 Y149.243 E4.60488
G1 X161.738 Y149.897 E4.63297
G1 X161.437 Y150.627 E4.6658
G1 X160.118 Y153.059 E4.78082
G1 X158.924 Y155.415 E4.89063
G1 X157.726 Y157.919 E5.00604
G1 X156.445 Y160.298 E5.11837
G1 X156.068 Y160.874 E5.14699
G1 X155.447 Y161.553 E5.18525
G1 X154.938 Y161.942 E5.21188
G1 X154.304 Y162.286 E5.24187
G1 X153.567 Y162.546 E5.27436
G1 X152.813 Y162.674 E5.30616
G1 X152.091 Y162.669 E5.33618
G1 X151.032 Y162.495 E5.3808
G1 X148.272 Y162.081 E5.49683
G1 X145.586 Y161.754 E5.60932
G1 X143.229 Y161.529 E5.70776
G1 X142.731 Y161.441 E5.72879
G1 X142.017 Y161.195 E5.76018
G1 X141.513 Y160.919 E5.78407
G1 X140.788 Y160.352 E5.82234
G1 X140.236 Y159.725 E5.85707
G1 X139.767 Y158.887 E5.897
G1 X139.444 Y158.011 E5.93581
G1 X139.249 Y157.24 E5.96888
G1 X138.231 Y153.506 E6.12978
G1 X138.114 Y152.858 E6.15716
G1 X138.061 Y149.827 E6.28319
G1 X138.003 Y148.236 E6.34938
G1 X138.07 Y144.605 E6.50037
G1 X138.173 Y143.684 E6.5389
G1 X138.384 Y142.812 E6.5762
G1 X138.888 Y141.781 E6.62391
G1 X139.445 Y141.049 E6.66215
G0 F6000 X140.206 Y140.857
G1 F1200 X140.781 Y140.387 E6.69303
G1 X141.743 Y139.907 E6.73772
G1 X144.017 Y139.088 E6.83821
G1 X146.305 Y138.207 E6.94014
G1 X147.337 Y137.906 E6.98484
G1 X148.691 Y137.74 E7.04155
G1 X149.233 Y137.716 E7.06411
G1 X150.129 Y137.848 E7.10176
G1 X150.984 Y138.145 E7.13939
G1 X151.936 Y138.732 E7.18589
G1 X152.7 Y139.253 E7.22433
G1 X154.12 Y140.271 E7.29698
G1 X156.378 Y141.796 E7.41026
G1 X159.101 Y143.535 E7.54458
G1 X159.773 Y144.081 E7.58058
G1 X160.314 Y144.686 E7.61432
G1 X160.861 Y145.44 E7.65305
G1 X161.224 Y146.214 E7.68859
G1 X161.456 Y147.029 E7.72382
G1 X161.582 Y147.681 E7.75143
G1 X161.576 Y148.548 E7.78748
G1 X161.52 Y149.145 E7.81241
G1 X161.368 Y149.745 E7.83814
G1 X161.085 Y150.436 E7.86919
G1 X159.766 Y152.868 E7.98421
G1 X158.567 Y155.234 E8.09449
G1 X157.365 Y157.746 E8.21026
G1 X156.11 Y160.079 E8.3204
G1 X155.733 Y160.655 E8.34902
G1 X155.201 Y161.237 E8.3818
G1 X154.747 Y161.59 E8.40571
G1 X154.113 Y161.934 E8.4357
G1 X153.436 Y162.168 E8.46548
G1 X152.813 Y162.274 E8.49176
G1 X152.156 Y162.274 E8.51907
G1 X151.091 Y162.099 E8.56394
G1 X148.331 Y161.685 E8.67997
G1 X145.632 Y161.357 E8.79301
G1 X143.299 Y161.135 E8.89044
G1 X142.801 Y161.047 E8.91147
G1 X142.205 Y160.842 E8.93767
G1 X141.759 Y160.604 E8.95869
G1 X141.063 Y160.06 E8.99542
G1 X140.565 Y159.494 E9.02676
G1 X140.142 Y158.748 E9.06241
G1 X139.832 Y157.913 E9.09944
G1 X139.637 Y157.142 E9.13251
G1 X138.625 Y153.435 E9.29227
G1 X138.508 Y152.787 E9.31964
G1 X138.461 Y149.821 E9.44297
G1 X138.403 Y148.243 E9.50862
G1 X138.468 Y144.648 E9.65811
G1 X138.562 Y143.778 E9.69449
G1 X138.763 Y142.947 E9.73003
G1 X139.23 Y141.992 E9.77423
G1 X139.727 Y141.333 E9.80855
G1 X140.206 Y140.857 E9.83662
G0 F6000 X140.488 Y141.141
G1 F1200 X140.997 Y140.727 E9.8639
G1 X141.922 Y140.265 E9.90689
G1 X144.161 Y139.461 E10.00579
G1 X146.419 Y138.59 E10.10641
G1 X147.386 Y138.303 E10.14835
G1 X148.708 Y138.14 E10.20373
G1 X149.213 Y138.118 E10.22474
G1 X150.034 Y138.239 E10.25925
G1 X150.813 Y138.509 E10.29352
G1 X151.711 Y139.063 E10.33739
G1 X152.467 Y139.578 E10.37542
G1 X153.887 Y140.596 E10.44806
G1 X156.163 Y142.133 E10.56224
G1 X158.851 Y143.847 E10.69478
G1 X159.475 Y144.348 E10.72805
G1 X160.016 Y144.953 E10.7618
G1 X160.514 Y145.643 E10.79717
G1 X160.862 Y146.384 E10.83121
G1 X161.063 Y147.105 E10.86233
G1 X161.182 Y147.719 E10.88833
G1 X161.176 Y148.545 E10.92267
G1 X161.132 Y149.049 E10.94371
G1 X160.998 Y149.594 E10.96704
G1 X160.733 Y150.245 E10.99626
G1 X159.414 Y152.677 E11.11128
G1 X158.21 Y155.053 E11.22203
G1 X157.004 Y157.573 E11.33818
G1 X155.775 Y159.86 E11.44612
G1 X155.398 Y160.436 E11.47474
G1 X154.952 Y160.924 E11.50222
G1 X154.556 Y161.238 E11.52323
G1 X153.922 Y161.582 E11.55322
G1 X153.308 Y161.789 E11.58016
G1 X152.81 Y161.874 E11.60117
G1 X152.221 Y161.879 E11.62565
G1 X151.15 Y161.703 E11.67078
G1 X148.39 Y161.289 E11.78681
G1 X145.678 Y160.96 E11.90039
G1 X143.369 Y160.741 E11.99682
G1 X142.871 Y160.653 E12.01784
G1 X142.393 Y160.489 E12.03885
G1 X141.947 Y160.251 E12.05987
G1 X141.339 Y159.769 E12.09213
G1 X140.895 Y159.264 E12.12008
G1 X140.517 Y158.608 E12.15156
G1 X140.22 Y157.815 E12.18677
G1 X140.025 Y157.044 E12.21983
G1 X139.018 Y153.36 E12.37861
G1 X138.908 Y152.781 E12.40311
G1 X138.861 Y149.815 E12.52644
G1 X138.803 Y148.25 E12.59155
G1 X138.866 Y144.689 E12.73962
G1 X138.951 Y143.872 E12.77377
G1 X139.142 Y143.082 E12.80756
G1 X139.571 Y142.204 E12.84819
G1 X140.009 Y141.617 E12.87864
G1 X140.488 Y141.141 E12.90672
G1 F2700 E8.90672
;MESH:Pig_v1-hole.STL
G0 F6000 X142.154 Y143.043
G0 X142.919 Y143.811
G0 X152.927 Y153.465
;TYPE:WALL-INNER
G1 F2700 E12.90672
G1 F1200 X153.06 Y152.89 E12.93125
G1 X153.225 Y152.615 E12.94459
G1 X153.614 Y152.179 E12.96888
G1 X153.911 Y151.754 E12.99044
G1 X154.124 Y151.299 E13.01132
G1 X154.386 Y150.557 E13.04404
G1 X154.696 Y149.751 E13.07994
G1 X155.078 Y149.163 E13.10909
G1 X155.447 Y148.765 E13.13166
G1 X155.687 Y148.575 E13.14438
G1 X156.144 Y148.305 E13.16645
G1 X156.578 Y148.112 E13.1862
G1 X156.509 Y147.922 E13.1946
G1 X156.232 Y147.622 E13.21158
G1 X155.652 Y147.264 E13.23992
G1 X155.124 Y147.006 E13.26435
G1 X154.246 Y146.645 E13.30382
G1 X153.519 Y146.447 E13.33514
G1 X153.01 Y146.357 E13.35663
G1 X152.127 Y146.277 E13.39349
G1 X151.814 Y146.167 E13.40729
G1 X151.555 Y146.012 E13.41984
G1 X151.241 Y145.68 E13.43884
G1 X151.078 Y145.355 E13.45395
G1 X150.839 Y144.667 E13.48423
G1 X150.667 Y144.338 E13.49967
G1 X150.37 Y143.929 E13.52068
G1 X149.757 Y143.312 E13.55684
G1 X149.022 Y142.799 E13.59411
G1 X148.599 Y142.977 E13.61319
G1 X148.123 Y142.985 E13.63298
G1 X148.081 Y143.789 E13.66645
G1 X147.935 Y144.171 E13.68345
G1 X147.663 Y144.531 E13.70221
G1 X147.47 Y144.69 E13.71261
G1 X146.168 Y145.406 E13.77438
G1 X145.792 Y145.487 E13.79037
G1 X145.459 Y145.482 E13.80422
G1 X144.885 Y145.293 E13.82934
G1 X144.565 Y145.041 E13.84628
G1 X144.391 Y144.799 E13.85867
G1 X144.1 Y144.85 E13.87095
G1 X143.796 Y144.827 E13.88363
G1 X143.472 Y144.721 E13.8978
G1 X143.467 Y145.133 E13.91493
G1 X143.592 Y146.246 E13.9615
G1 X143.578 Y146.82 E13.98537
G1 X143.388 Y148.039 E14.03666
G1 X143.44 Y148.891 E14.07215
G1 X143.712 Y149.597 E14.1036
G1 X144.028 Y150.081 E14.12763
G1 X144.403 Y150.4 E14.1481
G1 X144.97 Y150.562 E14.17262
G1 X145.234 Y150.718 E14.18537
G1 X145.559 Y151.063 E14.20507
G1 X145.731 Y151.425 E14.22174
G1 X145.791 Y151.775 E14.2365
G1 X145.71 Y152.348 E14.26056
G1 X145.368 Y152.977 E14.29033
G1 X145.06 Y153.626 E14.32019
G1 X144.987 Y153.96 E14.33441
G1 X144.948 Y155.363 E14.39276
G1 X145.474 Y155.238 E14.41524
G1 X146.589 Y155.025 E14.46243
G1 X147.269 Y154.868 E14.49145
G1 X147.606 Y154.697 E14.50716
G1 X147.772 Y154.521 E14.51721
G1 X148.075 Y153.922 E14.54512
G1 X148.244 Y153.7 E14.55672
G1 X148.623 Y153.413 E14.57649
G1 X149.007 Y153.268 E14.59355
G1 X149.495 Y153.229 E14.61391
G1 X150.184 Y153.353 E14.64301
G1 X150.632 Y153.539 E14.66318
G1 X150.919 Y153.74 E14.67775
G1 X151.216 Y154.122 E14.69786
G1 X151.857 Y153.948 E14.72548
G1 X152.161 Y153.923 E14.73816
G1 X152.838 Y154.036 E14.7667
G1 X153.068 Y154.14 E14.77719
G1 X152.976 Y153.906 E14.78764
G1 X152.927 Y153.465 E14.80609
G1 F2700 E10.80609
G0 F6000 X150.991 Y154.588
G0 X150.962 Y154.578
G1 F2700 E14.80609
G1 F1200 X150.966 Y154.756 E14.81349
G1 X151.344 Y154.499 E14.8325
G1 X151.935 Y154.341 E14.85793
G1 X152.152 Y154.323 E14.86698
G1 X152.778 Y154.427 E14.89337
G1 X153.348 Y154.773 E14.92109
G1 X153.553 Y155 E14.9338
G1 X153.59 Y154.662 E14.94794
G1 X153.53 Y154.152 E14.96929
G1 X153.361 Y153.799 E14.98556
G1 X153.327 Y153.484 E14.99873
G1 X153.425 Y153.054 E15.01707
G1 X153.597 Y152.792 E15.0301
G1 X153.927 Y152.429 E15.0505
G1 X154.259 Y151.955 E15.07456
G1 X154.495 Y151.451 E15.09769
G1 X154.773 Y150.665 E15.13235
G1 X155.056 Y149.928 E15.16518
G1 X155.408 Y149.39 E15.19191
G1 X155.728 Y149.05 E15.21132
G1 X156.314 Y148.667 E15.24042
G1 X156.988 Y148.368 E15.27108
G1 X156.991 Y148.108 E15.28189
G1 X156.913 Y147.822 E15.29421
G1 X156.833 Y147.684 E15.30085
G1 X156.489 Y147.311 E15.32194
G1 X155.845 Y146.913 E15.35342
G1 X155.288 Y146.641 E15.37919
G1 X154.376 Y146.266 E15.42018
G1 X153.606 Y146.056 E15.45337
G1 X153.062 Y145.961 E15.47632
G1 X152.205 Y145.882 E15.51211
G1 X151.982 Y145.804 E15.52193
G1 X151.734 Y145.642 E15.53424
G1 X151.513 Y145.388 E15.54824
G1 X151.207 Y144.508 E15.58698
G1 X151.008 Y144.127 E15.60485
G1 X150.681 Y143.677 E15.62797
G1 X150.014 Y143.005 E15.66734
G1 X149.611 Y142.698 E15.6884
G1 X149.041 Y142.337 E15.71645
G1 X148.508 Y142.587 E15.74093
G1 X148.084 Y142.595 E15.75856
G1 X147.874 Y142.527 E15.76774
G1 X147.831 Y142.546 E15.76969
G1 X147.729 Y142.842 E15.78271
G1 X147.69 Y143.633 E15.81563
G1 X147.581 Y143.984 E15.83091
G1 X147.275 Y144.334 E15.85024
G1 X146.019 Y145.031 E15.90996
G1 X145.751 Y145.089 E15.92136
G1 X145.512 Y145.086 E15.9313
G1 X145.196 Y145.002 E15.94489
G1 X144.855 Y144.766 E15.96213
G1 X144.585 Y144.277 E15.98536
G1 X144.458 Y144.365 E15.99178
G1 X144.224 Y144.436 E16.00195
G1 X143.869 Y144.434 E16.01671
G1 X143.573 Y144.329 E16.02976
G1 X143.404 Y144.214 E16.03826
G1 X143.269 Y144.286 E16.04462
G1 X143.097 Y144.506 E16.05623
G1 X143.042 Y144.933 E16.07413
G1 X143.191 Y146.264 E16.12982
G1 X143.184 Y146.721 E16.14882
G1 X142.986 Y148.02 E16.20345
G1 X143.036 Y148.827 E16.23706
G1 X143.094 Y149.101 E16.24871
G1 X143.364 Y149.794 E16.27963
G1 X143.73 Y150.361 E16.30769
G1 X143.786 Y150.398 E16.31048
G1 X144.219 Y150.771 E16.33424
G1 X144.805 Y150.927 E16.35945
G1 X144.994 Y151.038 E16.36856
G1 X145.226 Y151.284 E16.38262
G1 X145.349 Y151.543 E16.39454
G1 X145.392 Y151.793 E16.40509
G1 X145.342 Y152.186 E16.42156
G1 X145.011 Y152.796 E16.45041
G1 X144.678 Y153.496 E16.48264
G1 X144.588 Y153.911 E16.50029
G1 X144.551 Y155.233 E16.55528
G1 X144.38 Y155.946 E16.58576
G1 X144.648 Y155.847 E16.59764
G1 X145.503 Y155.641 E16.6342
G1 X146.678 Y155.415 E16.68395
G1 X147.406 Y155.247 E16.71501
G1 X147.832 Y155.032 E16.73485
G1 X148.116 Y154.729 E16.75212
G1 X148.416 Y154.131 E16.77993
G1 X148.537 Y153.973 E16.7882
G1 X148.807 Y153.768 E16.8023
G1 X149.105 Y153.656 E16.81553
G1 X149.416 Y153.627 E16.82852
G1 X150.091 Y153.742 E16.85699
G1 X150.515 Y153.933 E16.87632
G1 X150.785 Y154.183 E16.89162
G1 X150.962 Y154.578 E16.90962
G0 F6000 X151.014 Y155.24
G1 F1200 X151.503 Y154.866 E16.93521
G1 X152.083 Y154.716 E16.96012
G1 X152.586 Y154.795 E16.98129
G1 X153.092 Y155.081 E17.00545
G1 X153.356 Y155.394 E17.02248
G1 X153.564 Y155.924 E17.04615
G1 X153.881 Y155.321 E17.07447
G1 X153.945 Y155.101 E17.08399
G1 X153.992 Y154.667 E17.10214
G1 X153.903 Y153.999 E17.13016
G1 X153.747 Y153.692 E17.14448
G1 X153.726 Y153.502 E17.15243
G1 X153.758 Y153.308 E17.1606
G1 X153.861 Y153.1 E17.17025
G1 X154.24 Y152.679 E17.1938
G1 X154.606 Y152.157 E17.22031
G1 X154.865 Y151.603 E17.24573
G1 X155.146 Y150.808 E17.28079
G1 X155.429 Y150.087 E17.31299
G1 X155.737 Y149.617 E17.33635
G1 X156.008 Y149.335 E17.35261
G1 X156.497 Y149.023 E17.37673
G1 X156.991 Y148.804 E17.39919
G1 X157.31 Y148.594 E17.41507
G1 X157.386 Y148.436 E17.42236
G1 X157.392 Y148.056 E17.43816
G1 X157.285 Y147.666 E17.45498
G1 X157.157 Y147.445 E17.46559
G1 X156.746 Y147 E17.49078
G1 X156.039 Y146.562 E17.52536
G1 X155.452 Y146.275 E17.55252
G1 X154.505 Y145.887 E17.59507
G1 X153.693 Y145.665 E17.63007
G1 X153.115 Y145.564 E17.65446
G1 X152.273 Y145.482 E17.68963
G1 X152.09 Y145.409 E17.69783
G1 X151.868 Y145.172 E17.71133
G1 X151.575 Y144.349 E17.74765
G1 X151.349 Y143.915 E17.76799
G1 X150.992 Y143.424 E17.79323
G1 X150.656 Y143.052 E17.81407
G1 X150.271 Y142.698 E17.83581
G1 X149.84 Y142.369 E17.85836
G1 X149.123 Y141.915 E17.89364
G1 X148.839 Y141.968 E17.90565
G1 X148.416 Y142.198 E17.92567
G1 X148.161 Y142.202 E17.93627
G1 X147.915 Y142.087 E17.94756
G1 X147.585 Y142.216 E17.96229
G1 X147.502 Y142.305 E17.96735
G1 X147.331 Y142.781 E17.98838
G1 X147.292 Y143.587 E18.02193
G1 X147.227 Y143.798 E18.03111
G1 X147.043 Y144.008 E18.04272
G1 X145.87 Y144.656 E18.09843
G1 X145.565 Y144.689 E18.11118
G1 X145.283 Y144.599 E18.12349
G1 X145.146 Y144.491 E18.13074
G1 X145.023 Y144.298 E18.14026
G1 X144.856 Y143.874 E18.1592
G1 X144.767 Y143.761 E18.16519
G1 X144.589 Y143.764 E18.17259
G1 X144.296 Y143.999 E18.1882
G1 X144.156 Y144.042 E18.19429
G1 X143.943 Y144.04 E18.20315
G1 X143.719 Y143.95 E18.21318
G1 X143.506 Y143.787 E18.22433
G1 X143.334 Y143.799 E18.2315
G1 X143.03 Y143.959 E18.24579
G1 X142.865 Y144.122 E18.25543
G1 X142.706 Y144.41 E18.2691
G1 X142.64 Y144.922 E18.29057
G1 X142.79 Y146.315 E18.34882
G1 X142.782 Y146.738 E18.36641
G1 X142.584 Y148.001 E18.41956
G1 X142.648 Y149.032 E18.4625
G1 X142.931 Y149.862 E18.49896
