( Created by GrblGru )
( 28.11.2023 13:49:25 )



( Additional commands from settings )
G1 F200 Z25
G4 P2

( Job: Solder Tracks  -> None 3.175mm )
( ------------------------------- )

( Job mode = 0, CUT )
( Type of tool = 0, SPINDLE )

( TransformationTyp = NONE )
( Plano de segurança = 5 )
( Soma da profundidade = 0.3 )
( Profundidade por passo = 0.3 )
( Rampa de Mergulho = 0 )
( Tamanho de partição = 2 )
( Avanço de corte = 500 )
( Avanço rápido = 2000 )
( Avanço de mergulho = 500 )
( Tool = V-carve 45° x 3.175 )
( Tool diameter = 3.175 )



G1 G90 F100

( Percurso da ferramenta )
( ------------------------- )

( Spindle on )
M3
S500

( Current depth = -0.300 )

( MoveToStartpoint2 )
F2000 G90 z5.000
F2000 x5.678 y-18.989 z5.000
F2000 x5.678 y-18.989 z0.000

( Loop )
G90 F500
x5.678 y-18.989 z-0.300
F500
x5.720 y-18.984 z-0.300
x5.761 y-18.977 z-0.300
x5.803 y-18.968 z-0.300
x5.844 y-18.957 z-0.300
x5.884 y-18.944 z-0.300
x5.924 y-18.929 z-0.300
x5.963 y-18.913 z-0.300
x6.001 y-18.894 z-0.300
x6.039 y-18.874 z-0.300
x6.075 y-18.852 z-0.300
x6.110 y-18.829 z-0.300
x6.144 y-18.804 z-0.300
x6.177 y-18.777 z-0.300
x6.209 y-18.748 z-0.300
x6.345 y-18.612 z-0.300
x13.339 y-18.612 z-0.300
x13.381 y-18.611 z-0.300
x13.424 y-18.608 z-0.300
x13.466 y-18.603 z-0.300
x13.508 y-18.596 z-0.300
x13.549 y-18.587 z-0.300
x13.590 y-18.576 z-0.300
x13.631 y-18.563 z-0.300
x13.670 y-18.549 z-0.300
x13.709 y-18.532 z-0.300
x13.748 y-18.514 z-0.300
x13.785 y-18.494 z-0.300
x13.821 y-18.472 z-0.300
x13.857 y-18.448 z-0.300
x13.891 y-18.423 z-0.300
x13.924 y-18.396 z-0.300
x13.955 y-18.368 z-0.300
x13.986 y-18.338 z-0.300
x14.014 y-18.307 z-0.300
x14.042 y-18.274 z-0.300
x14.067 y-18.241 z-0.300
x14.091 y-18.206 z-0.300
x14.114 y-18.170 z-0.300
x14.135 y-18.133 z-0.300
x14.154 y-18.095 z-0.300
x14.171 y-18.056 z-0.300
x14.186 y-18.016 z-0.300
x14.199 y-17.976 z-0.300
x14.211 y-17.935 z-0.300
x14.220 y-17.894 z-0.300
x14.228 y-17.852 z-0.300
x14.234 y-17.810 z-0.300
x14.237 y-17.768 z-0.300
x14.239 y-17.712 z-0.300
x14.239 y-17.135 z-0.300
x14.238 y-17.093 z-0.300
x14.235 y-17.050 z-0.300
x14.230 y-17.008 z-0.300
x14.223 y-16.966 z-0.300
x14.214 y-16.925 z-0.300
x14.203 y-16.884 z-0.300
x14.190 y-16.843 z-0.300
x14.176 y-16.804 z-0.300
x14.159 y-16.765 z-0.300
x14.141 y-16.726 z-0.300
x14.121 y-16.689 z-0.300
x14.099 y-16.653 z-0.300
x14.075 y-16.617 z-0.300
x14.050 y-16.583 z-0.300
x14.023 y-16.550 z-0.300
x13.995 y-16.519 z-0.300
x10.841 y-13.365 z-0.300
x23.401 y-13.365 z-0.300
x23.443 y-13.364 z-0.300
x23.486 y-13.361 z-0.300
x23.528 y-13.356 z-0.300
x23.570 y-13.349 z-0.300
x23.611 y-13.340 z-0.300
x23.652 y-13.329 z-0.300
x23.693 y-13.316 z-0.300
x23.732 y-13.302 z-0.300
x23.771 y-13.285 z-0.300
x23.810 y-13.267 z-0.300
x23.847 y-13.247 z-0.300
x23.883 y-13.225 z-0.300
x23.919 y-13.201 z-0.300
x23.953 y-13.176 z-0.300
x23.986 y-13.149 z-0.300
x24.017 y-13.121 z-0.300
x31.814 y-5.324 z-0.300
x31.841 y-5.292 z-0.300
x31.868 y-5.258 z-0.300
x31.892 y-5.224 z-0.300
x31.915 y-5.188 z-0.300
x31.937 y-5.151 z-0.300
x31.956 y-5.114 z-0.300
x31.974 y-5.075 z-0.300
x31.990 y-5.036 z-0.300
x32.004 y-4.996 z-0.300
x32.016 y-4.955 z-0.300
x32.026 y-4.914 z-0.300
x32.035 y-4.873 z-0.300
x32.041 y-4.831 z-0.300
x32.045 y-4.788 z-0.300
x32.048 y-4.746 z-0.300
x32.048 y-4.704 z-0.300
x32.046 y-4.661 z-0.300
x32.043 y-4.619 z-0.300
x32.037 y-4.577 z-0.300
x32.029 y-4.535 z-0.300
x32.020 y-4.494 z-0.300
x32.008 y-4.453 z-0.300
x31.995 y-4.413 z-0.300
x31.979 y-4.373 z-0.300
x31.962 y-4.334 z-0.300
x31.943 y-4.296 z-0.300
x31.922 y-4.259 z-0.300
x31.900 y-4.223 z-0.300
x31.876 y-4.189 z-0.300
x31.850 y-4.155 z-0.300
x31.823 y-4.122 z-0.300
x31.794 y-4.091 z-0.300
x31.764 y-4.062 z-0.300
x31.732 y-4.033 z-0.300
x31.699 y-4.007 z-0.300
x31.665 y-3.981 z-0.300
x31.630 y-3.958 z-0.300
x31.593 y-3.936 z-0.300
x31.556 y-3.916 z-0.300
x31.518 y-3.897 z-0.300
x31.479 y-3.881 z-0.300
x31.439 y-3.866 z-0.300
x31.398 y-3.854 z-0.300
x31.357 y-3.843 z-0.300
x31.316 y-3.834 z-0.300
x31.274 y-3.827 z-0.300
x31.232 y-3.822 z-0.300
x31.190 y-3.819 z-0.300
x31.147 y-3.818 z-0.300
x31.105 y-3.819 z-0.300
x31.062 y-3.822 z-0.300
x31.020 y-3.827 z-0.300
x30.979 y-3.834 z-0.300
x30.937 y-3.843 z-0.300
x30.896 y-3.854 z-0.300
x30.856 y-3.867 z-0.300
x30.816 y-3.882 z-0.300
x30.777 y-3.898 z-0.300
x30.739 y-3.917 z-0.300
x30.701 y-3.937 z-0.300
x30.665 y-3.959 z-0.300
x30.630 y-3.982 z-0.300
x30.596 y-4.007 z-0.300
x30.563 y-4.034 z-0.300
x30.531 y-4.063 z-0.300
x23.029 y-11.565 z-0.300
x8.669 y-11.565 z-0.300
x8.627 y-11.566 z-0.300
x8.584 y-11.569 z-0.300
x8.542 y-11.574 z-0.300
x8.500 y-11.581 z-0.300
x8.459 y-11.590 z-0.300
x8.418 y-11.601 z-0.300
x8.377 y-11.614 z-0.300
x8.338 y-11.628 z-0.300
x8.299 y-11.645 z-0.300
x8.260 y-11.663 z-0.300
x8.223 y-11.683 z-0.300
x8.187 y-11.705 z-0.300
x8.151 y-11.729 z-0.300
x8.117 y-11.754 z-0.300
x8.084 y-11.781 z-0.300
x8.053 y-11.809 z-0.300
x8.022 y-11.839 z-0.300
x7.994 y-11.870 z-0.300
x7.966 y-11.903 z-0.300
x7.941 y-11.936 z-0.300
x7.917 y-11.971 z-0.300
x7.894 y-12.007 z-0.300
x7.873 y-12.044 z-0.300
x7.854 y-12.082 z-0.300
x7.837 y-12.121 z-0.300
x7.822 y-12.161 z-0.300
x7.809 y-12.201 z-0.300
x7.797 y-12.242 z-0.300
x7.788 y-12.283 z-0.300
x7.780 y-12.325 z-0.300
x7.774 y-12.367 z-0.300
x7.771 y-12.409 z-0.300
x7.769 y-12.451 z-0.300
x7.769 y-12.494 z-0.300
x7.772 y-12.536 z-0.300
x7.776 y-12.578 z-0.300
x7.783 y-12.620 z-0.300
x7.791 y-12.662 z-0.300
x7.801 y-12.703 z-0.300
x7.813 y-12.744 z-0.300
x7.827 y-12.784 z-0.300
x7.843 y-12.823 z-0.300
x7.861 y-12.862 z-0.300
x7.881 y-12.899 z-0.300
x7.902 y-12.936 z-0.300
x7.925 y-12.971 z-0.300
x7.950 y-13.006 z-0.300
x7.976 y-13.039 z-0.300
x8.004 y-13.071 z-0.300
x8.033 y-13.101 z-0.300
x11.744 y-16.812 z-0.300
x5.973 y-16.812 z-0.300
x5.931 y-16.813 z-0.300
x5.888 y-16.816 z-0.300
x5.846 y-16.821 z-0.300
x5.804 y-16.828 z-0.300
x5.763 y-16.837 z-0.300
x5.722 y-16.848 z-0.300
x5.681 y-16.861 z-0.300
x5.642 y-16.875 z-0.300
x5.603 y-16.892 z-0.300
x5.564 y-16.910 z-0.300
x5.527 y-16.930 z-0.300
x5.491 y-16.952 z-0.300
x5.455 y-16.976 z-0.300
x5.421 y-17.001 z-0.300
x5.388 y-17.028 z-0.300
x5.357 y-17.056 z-0.300
x4.926 y-17.487 z-0.300
x4.899 y-17.519 z-0.300
x4.872 y-17.553 z-0.300
x4.848 y-17.587 z-0.300
x4.825 y-17.623 z-0.300
x4.803 y-17.660 z-0.300
x4.784 y-17.697 z-0.300
x4.766 y-17.736 z-0.300
x4.750 y-17.775 z-0.300
x4.736 y-17.815 z-0.300
x4.724 y-17.856 z-0.300
x4.714 y-17.897 z-0.300
x4.705 y-17.938 z-0.300
x4.699 y-17.980 z-0.300
x4.695 y-18.023 z-0.300
x4.692 y-18.065 z-0.300
x4.692 y-18.107 z-0.300
x4.694 y-18.150 z-0.300
x4.697 y-18.192 z-0.300
x4.703 y-18.234 z-0.300
x4.711 y-18.276 z-0.300
x4.720 y-18.317 z-0.300
x4.732 y-18.358 z-0.300
x4.745 y-18.398 z-0.300
x4.761 y-18.438 z-0.300
x4.778 y-18.477 z-0.300
x4.797 y-18.515 z-0.300
x4.818 y-18.552 z-0.300
x4.840 y-18.588 z-0.300
x4.864 y-18.622 z-0.300
x4.890 y-18.656 z-0.300
x4.917 y-18.689 z-0.300
x4.946 y-18.720 z-0.300
x4.976 y-18.749 z-0.300
x5.008 y-18.778 z-0.300
x5.041 y-18.804 z-0.300
x5.075 y-18.830 z-0.300
x5.110 y-18.853 z-0.300
x5.147 y-18.875 z-0.300
x5.184 y-18.895 z-0.300
x5.222 y-18.914 z-0.300
x5.261 y-18.930 z-0.300
x5.301 y-18.945 z-0.300
x5.342 y-18.957 z-0.300
x5.383 y-18.968 z-0.300
x5.424 y-18.977 z-0.300
x5.466 y-18.984 z-0.300
x5.508 y-18.989 z-0.300
x5.550 y-18.992 z-0.300
x5.593 y-18.993 z-0.300
x5.635 y-18.992 z-0.300
x5.678 y-18.989 z-0.300

( Lift to 5.000 )
F2000 z5.000

( Percurso da ferramenta 2 )
( ------------------------- )

( Spindle on )
M3
S500

( Current depth = -0.300 )

( MoveToStartpoint2 )
F2000 G90 z5.000
F2000 x27.676 y-23.010 z5.000
F2000 x27.676 y-23.010 z0.000

( Loop )
G90 F500
x27.676 y-23.010 z-0.300
F500
x27.718 y-23.003 z-0.300
x27.760 y-22.995 z-0.300
x27.801 y-22.985 z-0.300
x27.842 y-22.973 z-0.300
x27.882 y-22.959 z-0.300
x27.921 y-22.943 z-0.300
x27.960 y-22.925 z-0.300
x27.997 y-22.905 z-0.300
x28.034 y-22.884 z-0.300
x28.069 y-22.861 z-0.300
x28.104 y-22.836 z-0.300
x28.137 y-22.810 z-0.300
x28.169 y-22.782 z-0.300
x28.200 y-22.753 z-0.300
x28.229 y-22.722 z-0.300
x28.257 y-22.690 z-0.300
x28.283 y-22.657 z-0.300
x28.308 y-22.622 z-0.300
x28.331 y-22.587 z-0.300
x28.352 y-22.550 z-0.300
x28.372 y-22.512 z-0.300
x28.389 y-22.474 z-0.300
x28.405 y-22.434 z-0.300
x28.419 y-22.394 z-0.300
x28.431 y-22.354 z-0.300
x28.442 y-22.312 z-0.300
x28.450 y-22.271 z-0.300
x28.456 y-22.229 z-0.300
x28.460 y-22.187 z-0.300
x28.463 y-22.144 z-0.300
x28.463 y-13.443 z-0.300
x28.541 y-13.365 z-0.300
x40.431 y-13.365 z-0.300
x40.473 y-13.364 z-0.300
x40.516 y-13.361 z-0.300
x40.558 y-13.356 z-0.300
x40.600 y-13.349 z-0.300
x40.641 y-13.340 z-0.300
x40.682 y-13.329 z-0.300
x40.723 y-13.316 z-0.300
x40.762 y-13.302 z-0.300
x40.801 y-13.285 z-0.300
x40.840 y-13.267 z-0.300
x40.877 y-13.247 z-0.300
x40.913 y-13.225 z-0.300
x40.949 y-13.201 z-0.300
x40.983 y-13.176 z-0.300
x41.016 y-13.149 z-0.300
x41.047 y-13.121 z-0.300
x41.478 y-12.690 z-0.300
x41.505 y-12.658 z-0.300
x41.532 y-12.624 z-0.300
x41.556 y-12.590 z-0.300
x41.579 y-12.554 z-0.300
x41.601 y-12.517 z-0.300
x41.620 y-12.480 z-0.300
x41.638 y-12.441 z-0.300
x41.654 y-12.402 z-0.300
x41.668 y-12.362 z-0.300
x41.680 y-12.321 z-0.300
x41.690 y-12.280 z-0.300
x41.699 y-12.239 z-0.300
x41.705 y-12.197 z-0.300
x41.709 y-12.154 z-0.300
x41.712 y-12.112 z-0.300
x41.712 y-12.070 z-0.300
x41.710 y-12.027 z-0.300
x41.707 y-11.985 z-0.300
x41.701 y-11.943 z-0.300
x41.693 y-11.901 z-0.300
x41.684 y-11.860 z-0.300
x41.672 y-11.819 z-0.300
x41.659 y-11.779 z-0.300
x41.643 y-11.739 z-0.300
x41.626 y-11.700 z-0.300
x41.607 y-11.662 z-0.300
x41.586 y-11.625 z-0.300
x41.564 y-11.589 z-0.300
x41.540 y-11.555 z-0.300
x41.514 y-11.521 z-0.300
x41.487 y-11.488 z-0.300
x41.458 y-11.457 z-0.300
x41.428 y-11.428 z-0.300
x41.396 y-11.399 z-0.300
x41.363 y-11.373 z-0.300
x41.329 y-11.347 z-0.300
x41.294 y-11.324 z-0.300
x41.257 y-11.302 z-0.300
x41.220 y-11.282 z-0.300
x41.182 y-11.263 z-0.300
x41.143 y-11.247 z-0.300
x41.103 y-11.232 z-0.300
x41.062 y-11.220 z-0.300
x41.021 y-11.209 z-0.300
x40.980 y-11.200 z-0.300
x40.938 y-11.193 z-0.300
x40.896 y-11.188 z-0.300
x40.854 y-11.185 z-0.300
x40.811 y-11.184 z-0.300
x40.769 y-11.185 z-0.300
x40.726 y-11.188 z-0.300
x40.684 y-11.193 z-0.300
x40.643 y-11.200 z-0.300
x40.601 y-11.209 z-0.300
x40.560 y-11.220 z-0.300
x40.520 y-11.233 z-0.300
x40.480 y-11.248 z-0.300
x40.441 y-11.264 z-0.300
x40.403 y-11.283 z-0.300
x40.365 y-11.303 z-0.300
x40.329 y-11.325 z-0.300
x40.294 y-11.348 z-0.300
x40.260 y-11.373 z-0.300
x40.227 y-11.400 z-0.300
x40.195 y-11.429 z-0.300
x40.059 y-11.565 z-0.300
x28.169 y-11.565 z-0.300
x28.127 y-11.566 z-0.300
x28.084 y-11.569 z-0.300
x28.042 y-11.574 z-0.300
x28.000 y-11.581 z-0.300
x27.959 y-11.590 z-0.300
x27.918 y-11.601 z-0.300
x27.877 y-11.614 z-0.300
x27.838 y-11.628 z-0.300
x27.799 y-11.645 z-0.300
x27.760 y-11.663 z-0.300
x27.723 y-11.683 z-0.300
x27.687 y-11.705 z-0.300
x27.651 y-11.729 z-0.300
x27.617 y-11.754 z-0.300
x27.584 y-11.781 z-0.300
x27.553 y-11.809 z-0.300
x26.897 y-12.465 z-0.300
x26.870 y-12.497 z-0.300
x26.843 y-12.531 z-0.300
x26.819 y-12.565 z-0.300
x26.796 y-12.601 z-0.300
x26.774 y-12.638 z-0.300
x26.755 y-12.675 z-0.300
x26.737 y-12.714 z-0.300
x26.721 y-12.753 z-0.300
x26.707 y-12.793 z-0.300
x26.695 y-12.834 z-0.300
x26.685 y-12.875 z-0.300
x26.676 y-12.916 z-0.300
x26.670 y-12.958 z-0.300
x26.666 y-13.001 z-0.300
x26.663 y-13.043 z-0.300
x26.663 y-22.117 z-0.300
x26.664 y-22.159 z-0.300
x26.667 y-22.202 z-0.300
x26.672 y-22.244 z-0.300
x26.679 y-22.286 z-0.300
x26.688 y-22.327 z-0.300
x26.699 y-22.368 z-0.300
x26.712 y-22.409 z-0.300
x26.726 y-22.448 z-0.300
x26.743 y-22.487 z-0.300
x26.761 y-22.526 z-0.300
x26.781 y-22.563 z-0.300
x26.803 y-22.599 z-0.300
x26.827 y-22.635 z-0.300
x26.852 y-22.669 z-0.300
x26.879 y-22.702 z-0.300
x26.907 y-22.733 z-0.300
x26.937 y-22.764 z-0.300
x26.968 y-22.792 z-0.300
x27.001 y-22.820 z-0.300
x27.034 y-22.845 z-0.300
x27.069 y-22.869 z-0.300
x27.105 y-22.892 z-0.300
x27.142 y-22.913 z-0.300
x27.180 y-22.932 z-0.300
x27.219 y-22.949 z-0.300
x27.259 y-22.964 z-0.300
x27.299 y-22.977 z-0.300
x27.340 y-22.989 z-0.300
x27.381 y-22.998 z-0.300
x27.423 y-23.006 z-0.300
x27.465 y-23.012 z-0.300
x27.507 y-23.015 z-0.300
x27.549 y-23.017 z-0.300
x27.592 y-23.017 z-0.300
x27.634 y-23.014 z-0.300
x27.676 y-23.010 z-0.300

( Lift to 5.000 )
F2000 z5.000

( Percurso da ferramenta 3 )
( ------------------------- )

( Spindle on )
M3
S500

( Current depth = -0.300 )

( MoveToStartpoint2 )
F2000 G90 z5.000
F2000 x42.950 y-23.013 z5.000
F2000 x42.950 y-23.013 z0.000

( Loop )
G90 F500
x42.950 y-23.013 z-0.300
F500
x42.992 y-23.008 z-0.300
x43.034 y-23.001 z-0.300
x43.075 y-22.992 z-0.300
x43.116 y-22.981 z-0.300
x43.157 y-22.968 z-0.300
x43.196 y-22.954 z-0.300
x43.235 y-22.937 z-0.300
x43.274 y-22.919 z-0.300
x43.311 y-22.899 z-0.300
x43.347 y-22.877 z-0.300
x43.383 y-22.853 z-0.300
x43.417 y-22.828 z-0.300
x43.450 y-22.801 z-0.300
x43.481 y-22.773 z-0.300
x46.507 y-19.747 z-0.300
x46.514 y-19.744 z-0.300
x46.551 y-19.724 z-0.300
x46.587 y-19.702 z-0.300
x46.623 y-19.678 z-0.300
x46.657 y-19.653 z-0.300
x46.690 y-19.626 z-0.300
x46.721 y-19.598 z-0.300
x46.752 y-19.568 z-0.300
x46.780 y-19.537 z-0.300
x46.808 y-19.504 z-0.300
x46.833 y-19.471 z-0.300
x46.857 y-19.436 z-0.300
x46.880 y-19.400 z-0.300
x46.901 y-19.363 z-0.300
x46.920 y-19.325 z-0.300
x46.937 y-19.286 z-0.300
x46.952 y-19.246 z-0.300
x46.965 y-19.206 z-0.300
x46.977 y-19.165 z-0.300
x46.986 y-19.124 z-0.300
x46.994 y-19.082 z-0.300
x47.000 y-19.040 z-0.300
x47.003 y-18.998 z-0.300
x47.005 y-18.956 z-0.300
x47.005 y-18.913 z-0.300
x47.002 y-18.871 z-0.300
x46.998 y-18.829 z-0.300
x46.991 y-18.787 z-0.300
x46.983 y-18.745 z-0.300
x46.973 y-18.704 z-0.300
x46.961 y-18.663 z-0.300
x46.947 y-18.623 z-0.300
x46.940 y-18.606 z-0.300
x46.940 y-12.313 z-0.300
x46.939 y-12.271 z-0.300
x46.936 y-12.228 z-0.300
x46.931 y-12.186 z-0.300
x46.924 y-12.144 z-0.300
x46.915 y-12.103 z-0.300
x46.904 y-12.062 z-0.300
x46.891 y-12.021 z-0.300
x46.877 y-11.982 z-0.300
x46.860 y-11.943 z-0.300
x46.842 y-11.904 z-0.300
x46.822 y-11.867 z-0.300
x46.800 y-11.831 z-0.300
x46.776 y-11.795 z-0.300
x46.751 y-11.761 z-0.300
x46.724 y-11.728 z-0.300
x46.696 y-11.697 z-0.300
x46.678 y-11.678 z-0.300
x46.450 y-11.449 z-0.300
x46.419 y-11.420 z-0.300
x46.387 y-11.392 z-0.300
x46.354 y-11.365 z-0.300
x46.319 y-11.341 z-0.300
x46.284 y-11.318 z-0.300
x46.247 y-11.296 z-0.300
x46.210 y-11.277 z-0.300
x46.171 y-11.259 z-0.300
x46.132 y-11.243 z-0.300
x46.092 y-11.229 z-0.300
x46.051 y-11.216 z-0.300
x46.010 y-11.206 z-0.300
x45.968 y-11.198 z-0.300
x45.927 y-11.191 z-0.300
x45.884 y-11.187 z-0.300
x45.842 y-11.184 z-0.300
x45.800 y-11.184 z-0.300
x45.757 y-11.186 z-0.300
x45.715 y-11.189 z-0.300
x45.673 y-11.195 z-0.300
x45.631 y-11.202 z-0.300
x45.590 y-11.212 z-0.300
x45.549 y-11.223 z-0.300
x45.509 y-11.237 z-0.300
x45.469 y-11.252 z-0.300
x45.430 y-11.269 z-0.300
x45.392 y-11.288 z-0.300
x45.355 y-11.309 z-0.300
x45.319 y-11.331 z-0.300
x45.284 y-11.355 z-0.300
x45.250 y-11.381 z-0.300
x45.218 y-11.408 z-0.300
x45.187 y-11.437 z-0.300
x45.157 y-11.467 z-0.300
x45.129 y-11.498 z-0.300
x45.102 y-11.531 z-0.300
x45.076 y-11.565 z-0.300
x45.053 y-11.601 z-0.300
x45.031 y-11.637 z-0.300
x45.011 y-11.674 z-0.300
x44.992 y-11.712 z-0.300
x44.976 y-11.751 z-0.300
x44.961 y-11.791 z-0.300
x44.948 y-11.832 z-0.300
x44.937 y-11.873 z-0.300
x44.928 y-11.914 z-0.300
x44.921 y-11.956 z-0.300
x44.916 y-11.998 z-0.300
x44.913 y-12.040 z-0.300
x44.912 y-12.083 z-0.300
x44.913 y-12.125 z-0.300
x44.916 y-12.168 z-0.300
x44.921 y-12.210 z-0.300
x44.928 y-12.252 z-0.300
x44.937 y-12.293 z-0.300
x44.947 y-12.334 z-0.300
x44.960 y-12.375 z-0.300
x44.975 y-12.414 z-0.300
x44.991 y-12.453 z-0.300
x45.010 y-12.492 z-0.300
x45.030 y-12.529 z-0.300
x45.052 y-12.565 z-0.300
x45.075 y-12.601 z-0.300
x45.100 y-12.635 z-0.300
x45.127 y-12.668 z-0.300
x45.140 y-12.682 z-0.300
x45.140 y-18.570 z-0.300
x42.493 y-21.217 z-0.300
x30.103 y-21.217 z-0.300
x30.061 y-21.218 z-0.300
x30.018 y-21.221 z-0.300
x29.976 y-21.226 z-0.300
x29.934 y-21.233 z-0.300
x29.893 y-21.242 z-0.300
x29.852 y-21.253 z-0.300
x29.811 y-21.266 z-0.300
x29.772 y-21.280 z-0.300
x29.733 y-21.297 z-0.300
x29.694 y-21.315 z-0.300
x29.657 y-21.335 z-0.300
x29.621 y-21.357 z-0.300
x29.585 y-21.381 z-0.300
x29.551 y-21.406 z-0.300
x29.518 y-21.433 z-0.300
x29.487 y-21.461 z-0.300
x29.456 y-21.491 z-0.300
x29.428 y-21.522 z-0.300
x29.400 y-21.555 z-0.300
x29.375 y-21.588 z-0.300
x29.351 y-21.623 z-0.300
x29.328 y-21.659 z-0.300
x29.307 y-21.696 z-0.300
x29.288 y-21.734 z-0.300
x29.271 y-21.773 z-0.300
x29.256 y-21.813 z-0.300
x29.243 y-21.853 z-0.300
x29.231 y-21.894 z-0.300
x29.222 y-21.935 z-0.300
x29.214 y-21.977 z-0.300
x29.208 y-22.019 z-0.300
x29.205 y-22.061 z-0.300
x29.203 y-22.103 z-0.300
x29.203 y-22.146 z-0.300
x29.206 y-22.188 z-0.300
x29.210 y-22.230 z-0.300
x29.217 y-22.272 z-0.300
x29.225 y-22.314 z-0.300
x29.235 y-22.355 z-0.300
x29.247 y-22.396 z-0.300
x29.261 y-22.436 z-0.300
x29.277 y-22.475 z-0.300
x29.295 y-22.514 z-0.300
x29.315 y-22.551 z-0.300
x29.336 y-22.588 z-0.300
x29.359 y-22.623 z-0.300
x29.384 y-22.658 z-0.300
x29.410 y-22.691 z-0.300
x29.438 y-22.723 z-0.300
x29.467 y-22.754 z-0.300
x29.498 y-22.783 z-0.300
x29.530 y-22.811 z-0.300
x29.563 y-22.837 z-0.300
x29.598 y-22.862 z-0.300
x29.633 y-22.885 z-0.300
x29.670 y-22.906 z-0.300
x29.708 y-22.926 z-0.300
x29.746 y-22.943 z-0.300
x29.786 y-22.959 z-0.300
x29.826 y-22.973 z-0.300
x29.866 y-22.985 z-0.300
x29.908 y-22.996 z-0.300
x29.949 y-23.004 z-0.300
x29.991 y-23.010 z-0.300
x30.033 y-23.014 z-0.300
x30.076 y-23.017 z-0.300
x42.865 y-23.017 z-0.300
x42.907 y-23.016 z-0.300
x42.950 y-23.013 z-0.300

( Lift to 5.000 )
F2000 z5.000

( Percurso da ferramenta 0 )
( ------------------------- )

( Spindle on )
M3
S500

( Current depth = -0.300 )

( MoveToStartpoint2 )
F2000 G90 z5.000
F2000 x51.284 y-19.837 z5.000
F2000 x51.284 y-19.837 z0.000

( Loop )
G90 F500
x51.284 y-19.837 z-0.300
F500
x51.326 y-19.831 z-0.300
x51.368 y-19.823 z-0.300
x51.409 y-19.814 z-0.300
x51.450 y-19.802 z-0.300
x51.490 y-19.789 z-0.300
x51.530 y-19.773 z-0.300
x51.569 y-19.756 z-0.300
x51.607 y-19.737 z-0.300
x51.644 y-19.716 z-0.300
x51.680 y-19.694 z-0.300
x51.714 y-19.670 z-0.300
x51.748 y-19.644 z-0.300
x51.781 y-19.617 z-0.300
x51.812 y-19.588 z-0.300
x51.841 y-19.558 z-0.300
x51.870 y-19.526 z-0.300
x51.896 y-19.493 z-0.300
x51.922 y-19.459 z-0.300
x51.945 y-19.424 z-0.300
x51.967 y-19.387 z-0.300
x51.987 y-19.350 z-0.300
x52.006 y-19.312 z-0.300
x52.022 y-19.273 z-0.300
x52.037 y-19.233 z-0.300
x52.049 y-19.192 z-0.300
x52.060 y-19.151 z-0.300
x52.069 y-19.110 z-0.300
x52.076 y-19.068 z-0.300
x52.081 y-19.026 z-0.300
x52.084 y-18.984 z-0.300
x52.085 y-18.941 z-0.300
x52.084 y-18.899 z-0.300
x52.081 y-18.856 z-0.300
x52.076 y-18.814 z-0.300
x52.069 y-18.773 z-0.300
x52.060 y-18.731 z-0.300
x52.049 y-18.690 z-0.300
x52.036 y-18.650 z-0.300
x52.021 y-18.610 z-0.300
x52.005 y-18.571 z-0.300
x51.986 y-18.533 z-0.300
x51.966 y-18.495 z-0.300
x51.944 y-18.459 z-0.300
x51.921 y-18.424 z-0.300
x51.896 y-18.390 z-0.300
x51.869 y-18.357 z-0.300
x51.840 y-18.325 z-0.300
x51.548 y-18.033 z-0.300
x51.548 y-4.718 z-0.300
x51.547 y-4.676 z-0.300
x51.544 y-4.633 z-0.300
x51.539 y-4.591 z-0.300
x51.532 y-4.549 z-0.300
x51.523 y-4.508 z-0.300
x51.512 y-4.467 z-0.300
x51.499 y-4.426 z-0.300
x51.485 y-4.387 z-0.300
x51.468 y-4.348 z-0.300
x51.450 y-4.309 z-0.300
x51.430 y-4.272 z-0.300
x51.408 y-4.236 z-0.300
x51.384 y-4.200 z-0.300
x51.359 y-4.166 z-0.300
x51.332 y-4.133 z-0.300
x51.304 y-4.102 z-0.300
x51.274 y-4.071 z-0.300
x51.243 y-4.043 z-0.300
x51.210 y-4.015 z-0.300
x51.177 y-3.990 z-0.300
x51.142 y-3.966 z-0.300
x51.106 y-3.943 z-0.300
x51.069 y-3.922 z-0.300
x51.031 y-3.903 z-0.300
x50.992 y-3.886 z-0.300
x50.952 y-3.871 z-0.300
x50.912 y-3.858 z-0.300
x50.871 y-3.846 z-0.300
x50.830 y-3.837 z-0.300
x50.788 y-3.829 z-0.300
x50.746 y-3.823 z-0.300
x50.704 y-3.820 z-0.300
x50.662 y-3.818 z-0.300
x50.619 y-3.818 z-0.300
x50.577 y-3.821 z-0.300
x50.535 y-3.825 z-0.300
x50.493 y-3.832 z-0.300
x50.451 y-3.840 z-0.300
x50.410 y-3.850 z-0.300
x50.369 y-3.862 z-0.300
x50.329 y-3.876 z-0.300
x50.290 y-3.892 z-0.300
x50.251 y-3.910 z-0.300
x50.214 y-3.930 z-0.300
x50.177 y-3.951 z-0.300
x50.142 y-3.974 z-0.300
x50.107 y-3.999 z-0.300
x50.074 y-4.025 z-0.300
x50.042 y-4.053 z-0.300
x50.011 y-4.082 z-0.300
x49.982 y-4.113 z-0.300
x49.954 y-4.145 z-0.300
x49.928 y-4.178 z-0.300
x49.903 y-4.213 z-0.300
x49.880 y-4.248 z-0.300
x49.859 y-4.285 z-0.300
x49.839 y-4.323 z-0.300
x49.822 y-4.361 z-0.300
x49.806 y-4.401 z-0.300
x49.792 y-4.441 z-0.300
x49.780 y-4.481 z-0.300
x49.769 y-4.523 z-0.300
x49.761 y-4.564 z-0.300
x49.755 y-4.606 z-0.300
x49.751 y-4.648 z-0.300
x49.748 y-4.691 z-0.300
x49.748 y-18.405 z-0.300
x49.749 y-18.447 z-0.300
x49.752 y-18.490 z-0.300
x49.757 y-18.532 z-0.300
x49.764 y-18.574 z-0.300
x49.773 y-18.615 z-0.300
x49.784 y-18.656 z-0.300
x49.797 y-18.697 z-0.300
x49.811 y-18.736 z-0.300
x49.828 y-18.775 z-0.300
x49.846 y-18.814 z-0.300
x49.866 y-18.851 z-0.300
x49.888 y-18.887 z-0.300
x49.912 y-18.923 z-0.300
x49.937 y-18.957 z-0.300
x49.964 y-18.990 z-0.300
x49.992 y-19.021 z-0.300
x50.579 y-19.608 z-0.300
x50.611 y-19.635 z-0.300
x50.645 y-19.662 z-0.300
x50.679 y-19.686 z-0.300
x50.715 y-19.709 z-0.300
x50.752 y-19.731 z-0.300
x50.789 y-19.750 z-0.300
x50.828 y-19.768 z-0.300
x50.867 y-19.784 z-0.300
x50.907 y-19.798 z-0.300
x50.948 y-19.810 z-0.300
x50.989 y-19.820 z-0.300
x51.030 y-19.829 z-0.300
x51.072 y-19.835 z-0.300
x51.115 y-19.839 z-0.300
x51.157 y-19.842 z-0.300
x51.199 y-19.842 z-0.300
x51.242 y-19.840 z-0.300
x51.284 y-19.837 z-0.300

( Lift to 5.000 )
F2000 z5.000

( Percurso da ferramenta 5 )
( ------------------------- )

( Spindle on )
M3
S500

( Current depth = -0.300 )

( MoveToStartpoint2 )
F2000 G90 z5.000
F2000 x55.461 y-50.826 z5.000
F2000 x55.461 y-50.826 z0.000

( Loop )
G90 F500
x55.461 y-50.826 z-0.300
F500
x55.503 y-50.821 z-0.300
x55.545 y-50.814 z-0.300
x55.586 y-50.805 z-0.300
x55.627 y-50.794 z-0.300
x55.668 y-50.781 z-0.300
x55.707 y-50.767 z-0.300
x55.746 y-50.750 z-0.300
x55.785 y-50.732 z-0.300
x55.822 y-50.712 z-0.300
x55.858 y-50.690 z-0.300
x55.894 y-50.666 z-0.300
x55.928 y-50.641 z-0.300
x55.961 y-50.614 z-0.300
x55.992 y-50.586 z-0.300
x56.023 y-50.556 z-0.300
x56.051 y-50.525 z-0.300
x56.079 y-50.492 z-0.300
x56.104 y-50.459 z-0.300
x56.128 y-50.424 z-0.300
x56.151 y-50.388 z-0.300
x56.172 y-50.351 z-0.300
x56.191 y-50.313 z-0.300
x56.208 y-50.274 z-0.300
x56.223 y-50.234 z-0.300
x56.236 y-50.194 z-0.300
x56.248 y-50.153 z-0.300
x56.257 y-50.112 z-0.300
x56.265 y-50.070 z-0.300
x56.271 y-50.028 z-0.300
x56.274 y-49.986 z-0.300
x56.276 y-49.944 z-0.300
x56.276 y-49.901 z-0.300
x56.273 y-49.859 z-0.300
x56.269 y-49.817 z-0.300
x56.262 y-49.775 z-0.300
x56.254 y-49.733 z-0.300
x56.244 y-49.692 z-0.300
x56.232 y-49.651 z-0.300
x56.218 y-49.611 z-0.300
x56.202 y-49.572 z-0.300
x56.184 y-49.533 z-0.300
x56.164 y-49.496 z-0.300
x56.143 y-49.459 z-0.300
x56.120 y-49.424 z-0.300
x56.095 y-49.389 z-0.300
x56.069 y-49.356 z-0.300
x56.041 y-49.324 z-0.300
x56.012 y-49.293 z-0.300
x55.981 y-49.264 z-0.300
x55.949 y-49.236 z-0.300
x55.916 y-49.210 z-0.300
x55.881 y-49.185 z-0.300
x55.846 y-49.162 z-0.300
x55.809 y-49.141 z-0.300
x55.771 y-49.121 z-0.300
x55.733 y-49.104 z-0.300
x55.693 y-49.088 z-0.300
x55.653 y-49.074 z-0.300
x55.613 y-49.062 z-0.300
x55.571 y-49.051 z-0.300
x55.530 y-49.043 z-0.300
x55.488 y-49.037 z-0.300
x55.446 y-49.033 z-0.300
x55.403 y-49.030 z-0.300
x52.417 y-49.030 z-0.300
x41.925 y-38.538 z-0.300
x41.925 y-34.182 z-0.300
x41.924 y-34.140 z-0.300
x41.921 y-34.097 z-0.300
x41.916 y-34.055 z-0.300
x41.909 y-34.013 z-0.300
x41.900 y-33.972 z-0.300
x41.889 y-33.931 z-0.300
x41.876 y-33.890 z-0.300
x41.862 y-33.851 z-0.300
x41.845 y-33.812 z-0.300
x41.827 y-33.773 z-0.300
x41.807 y-33.736 z-0.300
x41.785 y-33.700 z-0.300
x41.761 y-33.664 z-0.300
x41.736 y-33.630 z-0.300
x41.709 y-33.597 z-0.300
x41.681 y-33.566 z-0.300
x41.651 y-33.535 z-0.300
x41.620 y-33.507 z-0.300
x41.587 y-33.479 z-0.300
x41.554 y-33.454 z-0.300
x41.519 y-33.430 z-0.300
x41.483 y-33.407 z-0.300
x41.446 y-33.386 z-0.300
x41.408 y-33.367 z-0.300
x41.369 y-33.350 z-0.300
x41.329 y-33.335 z-0.300
x41.289 y-33.322 z-0.300
x41.248 y-33.310 z-0.300
x41.207 y-33.301 z-0.300
x41.165 y-33.293 z-0.300
x41.123 y-33.287 z-0.300
x41.081 y-33.284 z-0.300
x41.039 y-33.282 z-0.300
x40.996 y-33.282 z-0.300
x40.954 y-33.285 z-0.300
x40.912 y-33.289 z-0.300
x40.870 y-33.296 z-0.300
x40.828 y-33.304 z-0.300
x40.787 y-33.314 z-0.300
x40.746 y-33.326 z-0.300
x40.706 y-33.340 z-0.300
x40.667 y-33.356 z-0.300
x40.628 y-33.374 z-0.300
x40.591 y-33.394 z-0.300
x40.554 y-33.415 z-0.300
x40.519 y-33.438 z-0.300
x40.484 y-33.463 z-0.300
x40.451 y-33.489 z-0.300
x40.419 y-33.517 z-0.300
x40.388 y-33.546 z-0.300
x40.359 y-33.577 z-0.300
x40.331 y-33.609 z-0.300
x40.305 y-33.642 z-0.300
x40.280 y-33.677 z-0.300
x40.257 y-33.712 z-0.300
x40.236 y-33.749 z-0.300
x40.216 y-33.787 z-0.300
x40.199 y-33.825 z-0.300
x40.183 y-33.865 z-0.300
x40.169 y-33.905 z-0.300
x40.157 y-33.945 z-0.300
x40.146 y-33.987 z-0.300
x40.138 y-34.028 z-0.300
x40.132 y-34.070 z-0.300
x40.128 y-34.112 z-0.300
x40.125 y-34.155 z-0.300
x40.125 y-38.910 z-0.300
x40.126 y-38.952 z-0.300
x40.129 y-38.995 z-0.300
x40.134 y-39.037 z-0.300
x40.141 y-39.079 z-0.300
x40.150 y-39.120 z-0.300
x40.161 y-39.161 z-0.300
x40.174 y-39.202 z-0.300
x40.188 y-39.241 z-0.300
x40.205 y-39.280 z-0.300
x40.223 y-39.319 z-0.300
x40.243 y-39.356 z-0.300
x40.265 y-39.392 z-0.300
x40.289 y-39.428 z-0.300
x40.314 y-39.462 z-0.300
x40.341 y-39.495 z-0.300
x40.369 y-39.526 z-0.300
x51.439 y-50.596 z-0.300
x51.471 y-50.623 z-0.300
x51.505 y-50.650 z-0.300
x51.539 y-50.674 z-0.300
x51.575 y-50.697 z-0.300
x51.612 y-50.719 z-0.300
x51.649 y-50.738 z-0.300
x51.688 y-50.756 z-0.300
x51.727 y-50.772 z-0.300
x51.767 y-50.786 z-0.300
x51.808 y-50.798 z-0.300
x51.849 y-50.808 z-0.300
x51.890 y-50.817 z-0.300
x51.932 y-50.823 z-0.300
x51.975 y-50.827 z-0.300
x52.017 y-50.830 z-0.300
x55.376 y-50.830 z-0.300
x55.418 y-50.829 z-0.300
x55.461 y-50.826 z-0.300

( Lift to 5.000 )
F2000 z5.000

( Percurso da ferramenta 4 )
( ------------------------- )

( Spindle on )
M3
S500

( Current depth = -0.300 )

( MoveToStartpoint2 )
F2000 G90 z5.000
F2000 x58.029 y-50.823 z5.000
F2000 x58.029 y-50.823 z0.000

( Loop )
G90 F500
x58.029 y-50.823 z-0.300
F500
x58.071 y-50.816 z-0.300
x58.113 y-50.808 z-0.300
x58.154 y-50.798 z-0.300
x58.194 y-50.786 z-0.300
x58.235 y-50.772 z-0.300
x58.274 y-50.756 z-0.300
x58.313 y-50.738 z-0.300
x58.349 y-50.718 z-0.300
x58.387 y-50.697 z-0.300
x58.422 y-50.674 z-0.300
x58.456 y-50.649 z-0.300
x58.489 y-50.623 z-0.300
x58.522 y-50.595 z-0.300
x58.553 y-50.566 z-0.300
x58.582 y-50.535 z-0.300
x58.610 y-50.503 z-0.300
x58.636 y-50.470 z-0.300
x58.661 y-50.435 z-0.300
x58.684 y-50.400 z-0.300
x58.705 y-50.363 z-0.300
x58.725 y-50.325 z-0.300
x58.742 y-50.287 z-0.300
x58.758 y-50.247 z-0.300
x58.772 y-50.207 z-0.300
x58.784 y-50.167 z-0.300
x58.795 y-50.125 z-0.300
x58.803 y-50.084 z-0.300
x58.809 y-50.042 z-0.300
x58.813 y-50.000 z-0.300
x58.816 y-49.957 z-0.300
x58.816 y-45.993 z-0.300
x58.815 y-45.951 z-0.300
x58.812 y-45.908 z-0.300
x58.807 y-45.866 z-0.300
x58.800 y-45.824 z-0.300
x58.791 y-45.783 z-0.300
x58.780 y-45.742 z-0.300
x58.767 y-45.701 z-0.300
x58.753 y-45.662 z-0.300
x58.736 y-45.623 z-0.300
x58.718 y-45.584 z-0.300
x58.698 y-45.547 z-0.300
x58.676 y-45.511 z-0.300
x58.652 y-45.475 z-0.300
x58.627 y-45.441 z-0.300
x58.600 y-45.408 z-0.300
x58.572 y-45.377 z-0.300
x44.552 y-31.357 z-0.300
x44.520 y-31.330 z-0.300
x44.486 y-31.303 z-0.300
x44.452 y-31.279 z-0.300
x44.416 y-31.256 z-0.300
x44.379 y-31.234 z-0.300
x44.342 y-31.215 z-0.300
x44.303 y-31.197 z-0.300
x44.264 y-31.181 z-0.300
x44.224 y-31.167 z-0.300
x44.183 y-31.155 z-0.300
x44.142 y-31.145 z-0.300
x44.101 y-31.136 z-0.300
x44.059 y-31.130 z-0.300
x44.016 y-31.126 z-0.300
x43.974 y-31.123 z-0.300
x23.998 y-31.123 z-0.300
x23.383 y-30.508 z-0.300
x23.383 y-29.737 z-0.300
x23.382 y-29.695 z-0.300
x23.379 y-29.652 z-0.300
x23.374 y-29.610 z-0.300
x23.367 y-29.568 z-0.300
x23.358 y-29.527 z-0.300
x23.347 y-29.486 z-0.300
x23.334 y-29.445 z-0.300
x23.320 y-29.406 z-0.300
x23.303 y-29.367 z-0.300
x23.285 y-29.328 z-0.300
x23.265 y-29.291 z-0.300
x23.243 y-29.255 z-0.300
x23.219 y-29.219 z-0.300
x23.194 y-29.185 z-0.300
x23.171 y-29.157 z-0.300
x24.417 y-30.403 z-0.300
x24.449 y-30.430 z-0.300
x24.483 y-30.457 z-0.300
x24.517 y-30.481 z-0.300
x24.553 y-30.504 z-0.300
x24.590 y-30.526 z-0.300
x24.627 y-30.545 z-0.300
x24.666 y-30.563 z-0.300
x24.705 y-30.579 z-0.300
x24.745 y-30.593 z-0.300
x24.786 y-30.605 z-0.300
x24.827 y-30.615 z-0.300
x24.868 y-30.624 z-0.300
x24.910 y-30.630 z-0.300
x24.953 y-30.634 z-0.300
x24.995 y-30.637 z-0.300
x27.563 y-30.637 z-0.300
x27.605 y-30.636 z-0.300
x27.648 y-30.633 z-0.300
x27.690 y-30.628 z-0.300
x27.732 y-30.621 z-0.300
x27.773 y-30.612 z-0.300
x27.814 y-30.601 z-0.300
x27.855 y-30.588 z-0.300
x27.894 y-30.574 z-0.300
x27.933 y-30.557 z-0.300
x27.972 y-30.539 z-0.300
x28.009 y-30.519 z-0.300
x28.045 y-30.497 z-0.300
x28.081 y-30.473 z-0.300
x28.115 y-30.448 z-0.300
x28.148 y-30.421 z-0.300
x28.179 y-30.393 z-0.300
x28.210 y-30.363 z-0.300
x28.238 y-30.332 z-0.300
x28.266 y-30.299 z-0.300
x28.291 y-30.266 z-0.300
x28.315 y-30.231 z-0.300
x28.338 y-30.195 z-0.300
x28.359 y-30.158 z-0.300
x28.378 y-30.120 z-0.300
x28.395 y-30.081 z-0.300
x28.410 y-30.041 z-0.300
x28.423 y-30.001 z-0.300
x28.435 y-29.960 z-0.300
x28.444 y-29.919 z-0.300
x28.452 y-29.877 z-0.300
x28.458 y-29.835 z-0.300
x28.461 y-29.793 z-0.300
x28.463 y-29.751 z-0.300
x28.463 y-29.708 z-0.300
x28.460 y-29.666 z-0.300
x28.456 y-29.624 z-0.300
x28.449 y-29.582 z-0.300
x28.441 y-29.540 z-0.300
x28.431 y-29.499 z-0.300
x28.419 y-29.458 z-0.300
x28.405 y-29.418 z-0.300
x28.389 y-29.379 z-0.300
x28.371 y-29.340 z-0.300
x28.351 y-29.303 z-0.300
x28.330 y-29.266 z-0.300
x28.307 y-29.231 z-0.300
x28.282 y-29.196 z-0.300
x28.256 y-29.163 z-0.300
x28.249 y-29.155 z-0.300
x29.497 y-30.403 z-0.300
x29.529 y-30.430 z-0.300
x29.563 y-30.457 z-0.300
x29.597 y-30.481 z-0.300
x29.633 y-30.504 z-0.300
x29.670 y-30.526 z-0.300
x29.707 y-30.545 z-0.300
x29.746 y-30.563 z-0.300
x29.785 y-30.579 z-0.300
x29.825 y-30.593 z-0.300
x29.866 y-30.605 z-0.300
x29.907 y-30.615 z-0.300
x29.948 y-30.624 z-0.300
x29.990 y-30.630 z-0.300
x30.033 y-30.634 z-0.300
x30.075 y-30.637 z-0.300
x30.117 y-30.637 z-0.300
x30.160 y-30.635 z-0.300
x30.202 y-30.632 z-0.300
x30.244 y-30.626 z-0.300
x30.286 y-30.618 z-0.300
x30.327 y-30.609 z-0.300
x30.368 y-30.597 z-0.300
x30.408 y-30.584 z-0.300
x30.448 y-30.568 z-0.300
x30.487 y-30.551 z-0.300
x30.525 y-30.532 z-0.300
x30.562 y-30.511 z-0.300
x30.598 y-30.489 z-0.300
x30.632 y-30.465 z-0.300
x30.666 y-30.439 z-0.300
x30.699 y-30.412 z-0.300
x30.730 y-30.383 z-0.300
x30.759 y-30.353 z-0.300
x30.788 y-30.321 z-0.300
x30.814 y-30.288 z-0.300
x30.840 y-30.254 z-0.300
x30.863 y-30.219 z-0.300
x30.885 y-30.182 z-0.300
x30.905 y-30.145 z-0.300
x30.924 y-30.107 z-0.300
x30.940 y-30.068 z-0.300
x30.955 y-30.028 z-0.300
x30.967 y-29.987 z-0.300
x30.978 y-29.946 z-0.300
x30.987 y-29.905 z-0.300
x30.994 y-29.863 z-0.300
x30.999 y-29.821 z-0.300
x31.002 y-29.779 z-0.300
x31.003 y-29.736 z-0.300
x31.002 y-29.694 z-0.300
x30.999 y-29.651 z-0.300
x30.994 y-29.609 z-0.300
x30.987 y-29.568 z-0.300
x30.978 y-29.526 z-0.300
x30.967 y-29.485 z-0.300
x30.954 y-29.445 z-0.300
x30.939 y-29.405 z-0.300
x30.923 y-29.366 z-0.300
x30.904 y-29.328 z-0.300
x30.884 y-29.290 z-0.300
x30.862 y-29.254 z-0.300
x30.839 y-29.219 z-0.300
x30.814 y-29.185 z-0.300
x30.787 y-29.152 z-0.300
x30.758 y-29.120 z-0.300
x25.923 y-24.285 z-0.300
x25.923 y-22.117 z-0.300
x25.922 y-22.075 z-0.300
x25.919 y-22.032 z-0.300
x25.914 y-21.990 z-0.300
x25.907 y-21.948 z-0.300
x25.898 y-21.907 z-0.300
x25.887 y-21.866 z-0.300
x25.874 y-21.825 z-0.300
x25.860 y-21.786 z-0.300
x25.843 y-21.747 z-0.300
x25.825 y-21.708 z-0.300
x25.805 y-21.671 z-0.300
x25.783 y-21.635 z-0.300
x25.759 y-21.599 z-0.300
x25.734 y-21.565 z-0.300
x25.707 y-21.532 z-0.300
x25.679 y-21.501 z-0.300
x25.649 y-21.470 z-0.300
x25.618 y-21.442 z-0.300
x25.585 y-21.414 z-0.300
x25.552 y-21.389 z-0.300
x25.517 y-21.365 z-0.300
x25.481 y-21.342 z-0.300
x25.444 y-21.321 z-0.300
x25.406 y-21.302 z-0.300
x25.366 y-21.285 z-0.300
x25.327 y-21.270 z-0.300
x25.287 y-21.257 z-0.300
x25.246 y-21.245 z-0.300
x25.205 y-21.236 z-0.300
x25.162 y-21.228 z-0.300
x25.121 y-21.222 z-0.300
x25.079 y-21.219 z-0.300
x25.023 y-21.217 z-0.300
x13.934 y-21.217 z-0.300
x13.892 y-21.218 z-0.300
x13.849 y-21.221 z-0.300
x13.807 y-21.226 z-0.300
x13.765 y-21.233 z-0.300
x13.724 y-21.242 z-0.300
x13.683 y-21.253 z-0.300
x13.642 y-21.266 z-0.300
x13.603 y-21.280 z-0.300
x13.564 y-21.297 z-0.300
x13.525 y-21.315 z-0.300
x13.488 y-21.335 z-0.300
x13.452 y-21.357 z-0.300
x13.416 y-21.381 z-0.300
x13.382 y-21.406 z-0.300
x13.349 y-21.433 z-0.300
x13.318 y-21.461 z-0.300
x12.967 y-21.812 z-0.300
x5.973 y-21.812 z-0.300
x5.931 y-21.813 z-0.300
x5.888 y-21.816 z-0.300
x5.846 y-21.821 z-0.300
x5.804 y-21.828 z-0.300
x5.763 y-21.837 z-0.300
x5.722 y-21.848 z-0.300
x5.681 y-21.861 z-0.300
x5.642 y-21.875 z-0.300
x5.603 y-21.892 z-0.300
x5.564 y-21.910 z-0.300
x5.527 y-21.930 z-0.300
x5.491 y-21.952 z-0.300
x5.455 y-21.976 z-0.300
x5.421 y-22.001 z-0.300
x5.388 y-22.028 z-0.300
x5.357 y-22.056 z-0.300
x4.926 y-22.487 z-0.300
x4.899 y-22.519 z-0.300
x4.872 y-22.553 z-0.300
x4.848 y-22.587 z-0.300
x4.825 y-22.623 z-0.300
x4.803 y-22.660 z-0.300
x4.784 y-22.697 z-0.300
x4.766 y-22.736 z-0.300
x4.750 y-22.775 z-0.300
x4.736 y-22.815 z-0.300
x4.724 y-22.856 z-0.300
x4.714 y-22.897 z-0.300
x4.705 y-22.938 z-0.300
x4.699 y-22.980 z-0.300
x4.695 y-23.023 z-0.300
x4.692 y-23.065 z-0.300
x4.692 y-23.107 z-0.300
x4.694 y-23.150 z-0.300
x4.697 y-23.192 z-0.300
x4.703 y-23.234 z-0.300
x4.711 y-23.276 z-0.300
x4.720 y-23.317 z-0.300
x4.732 y-23.358 z-0.300
x4.745 y-23.398 z-0.300
x4.761 y-23.438 z-0.300
x4.778 y-23.477 z-0.300
x4.797 y-23.515 z-0.300
x4.818 y-23.552 z-0.300
x4.840 y-23.588 z-0.300
x4.864 y-23.622 z-0.300
x4.890 y-23.656 z-0.300
x4.917 y-23.689 z-0.300
x4.946 y-23.720 z-0.300
x4.976 y-23.749 z-0.300
x5.008 y-23.778 z-0.300
x5.041 y-23.804 z-0.300
x5.075 y-23.830 z-0.300
x5.110 y-23.853 z-0.300
x5.147 y-23.875 z-0.300
x5.184 y-23.895 z-0.300
x5.222 y-23.914 z-0.300
x5.261 y-23.930 z-0.300
x5.301 y-23.945 z-0.300
x5.342 y-23.957 z-0.300
x5.383 y-23.968 z-0.300
x5.424 y-23.977 z-0.300
x5.466 y-23.984 z-0.300
x5.508 y-23.989 z-0.300
x5.550 y-23.992 z-0.300
x5.593 y-23.993 z-0.300
x5.635 y-23.992 z-0.300
x5.678 y-23.989 z-0.300
x5.720 y-23.984 z-0.300
x5.761 y-23.977 z-0.300
x5.803 y-23.968 z-0.300
x5.844 y-23.957 z-0.300
x5.884 y-23.944 z-0.300
x5.924 y-23.929 z-0.300
x5.963 y-23.913 z-0.300
x6.001 y-23.894 z-0.300
x6.039 y-23.874 z-0.300
x6.075 y-23.852 z-0.300
x6.110 y-23.829 z-0.300
x6.144 y-23.804 z-0.300
x6.177 y-23.777 z-0.300
x6.209 y-23.748 z-0.300
x6.345 y-23.612 z-0.300
x13.339 y-23.612 z-0.300
x13.381 y-23.611 z-0.300
x13.424 y-23.608 z-0.300
x13.466 y-23.603 z-0.300
x13.508 y-23.596 z-0.300
x13.549 y-23.587 z-0.300
x13.590 y-23.576 z-0.300
x13.631 y-23.563 z-0.300
x13.670 y-23.549 z-0.300
x13.709 y-23.532 z-0.300
x13.748 y-23.514 z-0.300
x13.785 y-23.494 z-0.300
x13.821 y-23.472 z-0.300
x13.857 y-23.448 z-0.300
x13.891 y-23.423 z-0.300
x13.924 y-23.396 z-0.300
x13.955 y-23.368 z-0.300
x14.306 y-23.017 z-0.300
x24.123 y-23.017 z-0.300
x24.123 y-24.657 z-0.300
x24.124 y-24.699 z-0.300
x24.127 y-24.742 z-0.300
x24.132 y-24.784 z-0.300
x24.139 y-24.826 z-0.300
x24.148 y-24.867 z-0.300
x24.159 y-24.908 z-0.300
x24.172 y-24.949 z-0.300
x24.186 y-24.988 z-0.300
x24.203 y-25.027 z-0.300
x24.221 y-25.066 z-0.300
x24.241 y-25.103 z-0.300
x24.263 y-25.139 z-0.300
x24.287 y-25.175 z-0.300
x24.312 y-25.209 z-0.300
x24.339 y-25.242 z-0.300
x24.367 y-25.273 z-0.300
x28.144 y-29.050 z-0.300
x28.136 y-29.043 z-0.300
x28.103 y-29.017 z-0.300
x28.068 y-28.992 z-0.300
x28.033 y-28.969 z-0.300
x27.996 y-28.948 z-0.300
x27.958 y-28.928 z-0.300
x27.920 y-28.911 z-0.300
x27.880 y-28.895 z-0.300
x27.840 y-28.881 z-0.300
x27.800 y-28.869 z-0.300
x27.758 y-28.858 z-0.300
x27.717 y-28.850 z-0.300
x27.675 y-28.844 z-0.300
x27.633 y-28.840 z-0.300
x27.590 y-28.837 z-0.300
x25.395 y-28.837 z-0.300
x23.773 y-27.215 z-0.300
x23.741 y-27.188 z-0.300
x23.707 y-27.161 z-0.300
x23.673 y-27.137 z-0.300
x23.637 y-27.114 z-0.300
x23.600 y-27.092 z-0.300
x23.563 y-27.073 z-0.300
x23.524 y-27.055 z-0.300
x23.485 y-27.039 z-0.300
x23.445 y-27.025 z-0.300
x23.404 y-27.013 z-0.300
x23.363 y-27.003 z-0.300
x23.322 y-26.994 z-0.300
x23.280 y-26.988 z-0.300
x23.237 y-26.984 z-0.300
x23.195 y-26.981 z-0.300
x20.178 y-26.981 z-0.300
x20.136 y-26.982 z-0.300
x20.093 y-26.985 z-0.300
x20.051 y-26.990 z-0.300
x20.009 y-26.997 z-0.300
x19.968 y-27.006 z-0.300
x19.927 y-27.017 z-0.300
x19.886 y-27.030 z-0.300
x19.847 y-27.044 z-0.300
x19.808 y-27.061 z-0.300
x19.769 y-27.079 z-0.300
x19.732 y-27.099 z-0.300
x19.696 y-27.121 z-0.300
x19.660 y-27.145 z-0.300
x19.626 y-27.170 z-0.300
x19.593 y-27.197 z-0.300
x19.562 y-27.225 z-0.300
x19.542 y-27.245 z-0.300
x1.683 y-45.103 z-0.300
x1.653 y-45.133 z-0.300
x1.626 y-45.165 z-0.300
x1.599 y-45.199 z-0.300
x1.575 y-45.233 z-0.300
x1.552 y-45.269 z-0.300
x1.530 y-45.305 z-0.300
x1.511 y-45.343 z-0.300
x1.493 y-45.382 z-0.300
x1.477 y-45.421 z-0.300
x1.463 y-45.461 z-0.300
x1.451 y-45.502 z-0.300
x1.441 y-45.543 z-0.300
x1.432 y-45.584 z-0.300
x1.426 y-45.626 z-0.300
x1.422 y-45.669 z-0.300
x1.419 y-45.711 z-0.300
x1.419 y-45.753 z-0.300
x1.421 y-45.796 z-0.300
x1.424 y-45.838 z-0.300
x1.430 y-45.880 z-0.300
x1.438 y-45.922 z-0.300
x1.447 y-45.963 z-0.300
x1.459 y-46.004 z-0.300
x1.472 y-46.044 z-0.300
x1.488 y-46.084 z-0.300
x1.505 y-46.123 z-0.300
x1.524 y-46.160 z-0.300
x1.545 y-46.197 z-0.300
x1.567 y-46.233 z-0.300
x1.591 y-46.268 z-0.300
x1.617 y-46.302 z-0.300
x1.644 y-46.335 z-0.300
x1.673 y-46.366 z-0.300
x1.703 y-46.395 z-0.300
x1.735 y-46.424 z-0.300
x1.768 y-46.450 z-0.300
x1.802 y-46.476 z-0.300
x1.837 y-46.499 z-0.300
x1.874 y-46.521 z-0.300
x1.911 y-46.541 z-0.300
x1.949 y-46.560 z-0.300
x1.988 y-46.576 z-0.300
x2.028 y-46.591 z-0.300
x2.069 y-46.603 z-0.300
x2.110 y-46.614 z-0.300
x2.151 y-46.623 z-0.300
x2.193 y-46.630 z-0.300
x2.235 y-46.635 z-0.300
x2.277 y-46.638 z-0.300
x2.320 y-46.639 z-0.300
x2.362 y-46.638 z-0.300
x2.404 y-46.635 z-0.300
x2.447 y-46.630 z-0.300
x2.488 y-46.623 z-0.300
x2.530 y-46.614 z-0.300
x2.571 y-46.603 z-0.300
x2.611 y-46.590 z-0.300
x2.651 y-46.575 z-0.300
x2.690 y-46.559 z-0.300
x2.728 y-46.540 z-0.300
x2.766 y-46.520 z-0.300
x2.802 y-46.498 z-0.300
x2.837 y-46.475 z-0.300
x2.871 y-46.450 z-0.300
x2.904 y-46.423 z-0.300
x2.936 y-46.394 z-0.300
x2.955 y-46.375 z-0.300
x20.550 y-28.781 z-0.300
x22.795 y-28.781 z-0.300
x23.065 y-29.051 z-0.300
x23.045 y-29.034 z-0.300
x23.012 y-29.009 z-0.300
x22.977 y-28.985 z-0.300
x22.941 y-28.962 z-0.300
x22.904 y-28.941 z-0.300
x22.866 y-28.922 z-0.300
x22.827 y-28.905 z-0.300
x22.787 y-28.890 z-0.300
x22.747 y-28.877 z-0.300
x22.706 y-28.865 z-0.300
x22.665 y-28.856 z-0.300
x22.623 y-28.848 z-0.300
x22.581 y-28.842 z-0.300
x22.539 y-28.839 z-0.300
x22.497 y-28.837 z-0.300
x22.454 y-28.837 z-0.300
x22.412 y-28.840 z-0.300
x22.370 y-28.844 z-0.300
x22.328 y-28.851 z-0.300
x22.286 y-28.859 z-0.300
x22.245 y-28.869 z-0.300
x22.204 y-28.881 z-0.300
x22.164 y-28.895 z-0.300
x22.125 y-28.911 z-0.300
x22.086 y-28.929 z-0.300
x22.049 y-28.949 z-0.300
x22.012 y-28.970 z-0.300
x21.977 y-28.993 z-0.300
x21.942 y-29.018 z-0.300
x21.909 y-29.044 z-0.300
x21.877 y-29.072 z-0.300
x21.846 y-29.101 z-0.300
x21.817 y-29.132 z-0.300
x21.789 y-29.164 z-0.300
x21.763 y-29.197 z-0.300
x21.738 y-29.232 z-0.300
x21.715 y-29.267 z-0.300
x21.694 y-29.304 z-0.300
x21.674 y-29.342 z-0.300
x21.657 y-29.380 z-0.300
x21.641 y-29.420 z-0.300
x21.627 y-29.460 z-0.300
x21.615 y-29.500 z-0.300
x21.604 y-29.542 z-0.300
x21.596 y-29.583 z-0.300
x21.590 y-29.625 z-0.300
x21.586 y-29.667 z-0.300
x21.583 y-29.710 z-0.300
x21.583 y-30.880 z-0.300
x21.584 y-30.922 z-0.300
x21.587 y-30.965 z-0.300
x21.592 y-31.007 z-0.300
x21.599 y-31.049 z-0.300
x21.608 y-31.090 z-0.300
x21.619 y-31.131 z-0.300
x21.632 y-31.172 z-0.300
x21.646 y-31.211 z-0.300
x21.663 y-31.250 z-0.300
x21.681 y-31.289 z-0.300
x21.701 y-31.326 z-0.300
x21.723 y-31.362 z-0.300
x21.747 y-31.398 z-0.300
x21.772 y-31.432 z-0.300
x21.799 y-31.465 z-0.300
x21.827 y-31.496 z-0.300
x23.020 y-32.689 z-0.300
x23.052 y-32.716 z-0.300
x23.086 y-32.743 z-0.300
x23.120 y-32.767 z-0.300
x23.156 y-32.790 z-0.300
x23.193 y-32.812 z-0.300
x23.230 y-32.831 z-0.300
x23.269 y-32.849 z-0.300
x23.308 y-32.865 z-0.300
x23.348 y-32.879 z-0.300
x23.389 y-32.891 z-0.300
x23.430 y-32.901 z-0.300
x23.471 y-32.910 z-0.300
x23.513 y-32.916 z-0.300
x23.556 y-32.920 z-0.300
x23.598 y-32.923 z-0.300
x43.574 y-32.923 z-0.300
x57.016 y-46.365 z-0.300
x57.016 y-49.972 z-0.300
x57.019 y-50.015 z-0.300
x57.025 y-50.057 z-0.300
x57.032 y-50.099 z-0.300
x57.041 y-50.140 z-0.300
x57.052 y-50.181 z-0.300
x57.065 y-50.222 z-0.300
x57.078 y-50.261 z-0.300
x57.114 y-50.339 z-0.300
x57.134 y-50.376 z-0.300
x57.156 y-50.412 z-0.300
x57.180 y-50.448 z-0.300
x57.205 y-50.482 z-0.300
x57.232 y-50.515 z-0.300
x57.260 y-50.546 z-0.300
x57.290 y-50.577 z-0.300
x57.321 y-50.605 z-0.300
x57.354 y-50.633 z-0.300
x57.387 y-50.658 z-0.300
x57.422 y-50.682 z-0.300
x57.458 y-50.705 z-0.300
x57.495 y-50.726 z-0.300
x57.533 y-50.745 z-0.300
x57.572 y-50.762 z-0.300
x57.611 y-50.777 z-0.300
x57.652 y-50.790 z-0.300
x57.693 y-50.802 z-0.300
x57.733 y-50.811 z-0.300
x57.775 y-50.819 z-0.300
x57.818 y-50.825 z-0.300
x57.860 y-50.828 z-0.300
x57.902 y-50.830 z-0.300
x57.944 y-50.830 z-0.300
x57.986 y-50.827 z-0.300
x58.029 y-50.823 z-0.300

( Lift to 5.000 )
F2000 z5.000

( Percurso da ferramenta 6 )
( ------------------------- )

( Spindle on )
M3
S500

( Current depth = -0.300 )

( MoveToStartpoint2 )
F2000 G90 z5.000
F2000 x64.252 y-50.823 z5.000
F2000 x64.252 y-50.823 z0.000

( Loop )
G90 F500
x64.252 y-50.823 z-0.300
F500
x64.294 y-50.816 z-0.300
x64.336 y-50.808 z-0.300
x64.377 y-50.798 z-0.300
x64.418 y-50.786 z-0.300
x64.458 y-50.772 z-0.300
x64.497 y-50.756 z-0.300
x64.536 y-50.738 z-0.300
x64.573 y-50.718 z-0.300
x64.610 y-50.697 z-0.300
x64.645 y-50.674 z-0.300
x64.680 y-50.649 z-0.300
x64.713 y-50.623 z-0.300
x64.745 y-50.595 z-0.300
x64.776 y-50.566 z-0.300
x64.805 y-50.535 z-0.300
x64.833 y-50.503 z-0.300
x64.859 y-50.470 z-0.300
x64.884 y-50.435 z-0.300
x64.907 y-50.400 z-0.300
x64.928 y-50.363 z-0.300
x64.948 y-50.325 z-0.300
x64.965 y-50.287 z-0.300
x64.981 y-50.247 z-0.300
x64.995 y-50.207 z-0.300
x65.007 y-50.167 z-0.300
x65.018 y-50.125 z-0.300
x65.026 y-50.084 z-0.300
x65.032 y-50.042 z-0.300
x65.036 y-50.000 z-0.300
x65.039 y-49.957 z-0.300
x65.039 y-34.182 z-0.300
x65.038 y-34.140 z-0.300
x65.035 y-34.097 z-0.300
x65.030 y-34.055 z-0.300
x65.023 y-34.013 z-0.300
x65.014 y-33.972 z-0.300
x65.003 y-33.931 z-0.300
x64.990 y-33.890 z-0.300
x64.976 y-33.851 z-0.300
x64.959 y-33.812 z-0.300
x64.941 y-33.773 z-0.300
x64.921 y-33.736 z-0.300
x64.899 y-33.700 z-0.300
x64.875 y-33.664 z-0.300
x64.850 y-33.630 z-0.300
x64.823 y-33.597 z-0.300
x64.795 y-33.566 z-0.300
x64.765 y-33.535 z-0.300
x64.734 y-33.507 z-0.300
x64.701 y-33.479 z-0.300
x64.668 y-33.454 z-0.300
x64.633 y-33.430 z-0.300
x64.597 y-33.407 z-0.300
x64.560 y-33.386 z-0.300
x64.522 y-33.367 z-0.300
x64.483 y-33.350 z-0.300
x64.443 y-33.335 z-0.300
x64.403 y-33.322 z-0.300
x64.362 y-33.310 z-0.300
x64.321 y-33.301 z-0.300
x64.279 y-33.293 z-0.300
x64.237 y-33.287 z-0.300
x64.195 y-33.284 z-0.300
x64.139 y-33.282 z-0.300
x63.885 y-33.282 z-0.300
x63.843 y-33.283 z-0.300
x63.800 y-33.286 z-0.300
x63.758 y-33.291 z-0.300
x63.716 y-33.298 z-0.300
x63.675 y-33.307 z-0.300
x63.634 y-33.318 z-0.300
x63.593 y-33.331 z-0.300
x63.554 y-33.345 z-0.300
x63.515 y-33.362 z-0.300
x63.476 y-33.380 z-0.300
x63.439 y-33.400 z-0.300
x63.403 y-33.422 z-0.300
x63.367 y-33.446 z-0.300
x63.333 y-33.471 z-0.300
x63.300 y-33.498 z-0.300
x63.269 y-33.526 z-0.300
x63.238 y-33.556 z-0.300
x63.210 y-33.587 z-0.300
x63.182 y-33.620 z-0.300
x63.157 y-33.653 z-0.300
x63.133 y-33.688 z-0.300
x63.110 y-33.724 z-0.300
x63.089 y-33.761 z-0.300
x63.070 y-33.799 z-0.300
x63.053 y-33.838 z-0.300
x63.038 y-33.878 z-0.300
x63.025 y-33.918 z-0.300
x63.013 y-33.959 z-0.300
x63.004 y-34.000 z-0.300
x62.996 y-34.042 z-0.300
x62.990 y-34.084 z-0.300
x62.987 y-34.126 z-0.300
x62.985 y-34.168 z-0.300
x62.985 y-34.211 z-0.300
x62.988 y-34.253 z-0.300
x62.992 y-34.295 z-0.300
x62.999 y-34.337 z-0.300
x63.007 y-34.379 z-0.300
x63.017 y-34.420 z-0.300
x63.029 y-34.461 z-0.300
x63.043 y-34.501 z-0.300
x63.059 y-34.540 z-0.300
x63.077 y-34.579 z-0.300
x63.097 y-34.616 z-0.300
x63.118 y-34.653 z-0.300
x63.141 y-34.688 z-0.300
x63.166 y-34.723 z-0.300
x63.192 y-34.756 z-0.300
x63.220 y-34.788 z-0.300
x63.239 y-34.808 z-0.300
x63.239 y-49.930 z-0.300
x63.240 y-49.972 z-0.300
x63.243 y-50.015 z-0.300
x63.248 y-50.057 z-0.300
x63.255 y-50.099 z-0.300
x63.264 y-50.140 z-0.300
x63.275 y-50.181 z-0.300
x63.288 y-50.222 z-0.300
x63.302 y-50.261 z-0.300
x63.319 y-50.300 z-0.300
x63.337 y-50.339 z-0.300
x63.357 y-50.376 z-0.300
x63.379 y-50.412 z-0.300
x63.403 y-50.448 z-0.300
x63.428 y-50.482 z-0.300
x63.455 y-50.515 z-0.300
x63.483 y-50.546 z-0.300
x63.513 y-50.577 z-0.300
x63.544 y-50.605 z-0.300
x63.577 y-50.633 z-0.300
x63.610 y-50.658 z-0.300
x63.645 y-50.682 z-0.300
x63.681 y-50.705 z-0.300
x63.718 y-50.726 z-0.300
x63.756 y-50.745 z-0.300
x63.795 y-50.762 z-0.300
x63.835 y-50.777 z-0.300
x63.875 y-50.790 z-0.300
x63.916 y-50.802 z-0.300
x63.957 y-50.811 z-0.300
x63.999 y-50.819 z-0.300
x64.041 y-50.825 z-0.300
x64.083 y-50.828 z-0.300
x64.125 y-50.830 z-0.300
x64.168 y-50.830 z-0.300
x64.210 y-50.827 z-0.300
x64.252 y-50.823 z-0.300

( Lift to 5.000 )
F2000 z5.000

( Percurso da ferramenta 7 )
( ------------------------- )

( Spindle on )
M3
S500

( Current depth = -0.300 )

( MoveToStartpoint2 )
F2000 G90 z5.000
F2000 x66.792 y-50.823 z5.000
F2000 x66.792 y-50.823 z0.000

( Loop )
G90 F500
x66.792 y-50.823 z-0.300
F500
x66.834 y-50.816 z-0.300
x66.876 y-50.808 z-0.300
x66.917 y-50.798 z-0.300
x66.958 y-50.786 z-0.300
x66.998 y-50.772 z-0.300
x67.037 y-50.756 z-0.300
x67.076 y-50.738 z-0.300
x67.113 y-50.718 z-0.300
x67.150 y-50.697 z-0.300
x67.185 y-50.674 z-0.300
x67.220 y-50.649 z-0.300
x67.253 y-50.623 z-0.300
x67.285 y-50.595 z-0.300
x67.316 y-50.566 z-0.300
x67.345 y-50.535 z-0.300
x67.373 y-50.503 z-0.300
x67.399 y-50.470 z-0.300
x67.424 y-50.435 z-0.300
x67.447 y-50.400 z-0.300
x67.468 y-50.363 z-0.300
x67.488 y-50.325 z-0.300
x67.505 y-50.287 z-0.300
x67.521 y-50.247 z-0.300
x67.535 y-50.207 z-0.300
x67.547 y-50.167 z-0.300
x67.558 y-50.125 z-0.300
x67.566 y-50.084 z-0.300
x67.572 y-50.042 z-0.300
x67.576 y-50.000 z-0.300
x67.579 y-49.957 z-0.300
x67.579 y-34.436 z-0.300
x67.578 y-34.394 z-0.300
x67.575 y-34.351 z-0.300
x67.570 y-34.309 z-0.300
x67.563 y-34.267 z-0.300
x67.554 y-34.226 z-0.300
x67.543 y-34.185 z-0.300
x67.530 y-34.144 z-0.300
x67.516 y-34.105 z-0.300
x67.499 y-34.066 z-0.300
x67.481 y-34.027 z-0.300
x67.461 y-33.990 z-0.300
x67.439 y-33.954 z-0.300
x67.415 y-33.918 z-0.300
x67.390 y-33.884 z-0.300
x67.363 y-33.851 z-0.300
x67.335 y-33.820 z-0.300
x67.031 y-33.516 z-0.300
x66.999 y-33.489 z-0.300
x66.965 y-33.462 z-0.300
x66.931 y-33.438 z-0.300
x66.895 y-33.415 z-0.300
x66.858 y-33.393 z-0.300
x66.821 y-33.374 z-0.300
x66.782 y-33.356 z-0.300
x66.743 y-33.340 z-0.300
x66.703 y-33.326 z-0.300
x66.662 y-33.314 z-0.300
x66.621 y-33.304 z-0.300
x66.580 y-33.295 z-0.300
x66.538 y-33.289 z-0.300
x66.495 y-33.285 z-0.300
x66.453 y-33.282 z-0.300
x66.411 y-33.282 z-0.300
x66.368 y-33.284 z-0.300
x66.326 y-33.287 z-0.300
x66.284 y-33.293 z-0.300
x66.242 y-33.301 z-0.300
x66.201 y-33.310 z-0.300
x66.160 y-33.322 z-0.300
x66.120 y-33.335 z-0.300
x66.080 y-33.351 z-0.300
x66.041 y-33.368 z-0.300
x66.003 y-33.387 z-0.300
x65.966 y-33.408 z-0.300
x65.930 y-33.430 z-0.300
x65.896 y-33.454 z-0.300
x65.862 y-33.480 z-0.300
x65.829 y-33.507 z-0.300
x65.798 y-33.536 z-0.300
x65.769 y-33.566 z-0.300
x65.740 y-33.598 z-0.300
x65.714 y-33.631 z-0.300
x65.688 y-33.665 z-0.300
x65.665 y-33.700 z-0.300
x65.643 y-33.737 z-0.300
x65.623 y-33.774 z-0.300
x65.604 y-33.812 z-0.300
x65.588 y-33.851 z-0.300
x65.573 y-33.891 z-0.300
x65.561 y-33.932 z-0.300
x65.550 y-33.973 z-0.300
x65.541 y-34.014 z-0.300
x65.534 y-34.056 z-0.300
x65.529 y-34.098 z-0.300
x65.526 y-34.140 z-0.300
x65.525 y-34.183 z-0.300
x65.526 y-34.225 z-0.300
x65.529 y-34.268 z-0.300
x65.534 y-34.310 z-0.300
x65.541 y-34.351 z-0.300
x65.550 y-34.393 z-0.300
x65.561 y-34.434 z-0.300
x65.574 y-34.474 z-0.300
x65.589 y-34.514 z-0.300
x65.605 y-34.553 z-0.300
x65.624 y-34.591 z-0.300
x65.644 y-34.629 z-0.300
x65.666 y-34.665 z-0.300
x65.689 y-34.700 z-0.300
x65.714 y-34.734 z-0.300
x65.741 y-34.767 z-0.300
x65.770 y-34.799 z-0.300
x65.779 y-34.808 z-0.300
x65.779 y-49.930 z-0.300
x65.780 y-49.972 z-0.300
x65.783 y-50.015 z-0.300
x65.788 y-50.057 z-0.300
x65.795 y-50.099 z-0.300
x65.804 y-50.140 z-0.300
x65.815 y-50.181 z-0.300
x65.828 y-50.222 z-0.300
x65.842 y-50.261 z-0.300
x65.859 y-50.300 z-0.300
x65.877 y-50.339 z-0.300
x65.897 y-50.376 z-0.300
x65.919 y-50.412 z-0.300
x65.943 y-50.448 z-0.300
x65.968 y-50.482 z-0.300
x65.995 y-50.515 z-0.300
x66.023 y-50.546 z-0.300
x66.053 y-50.577 z-0.300
x66.084 y-50.605 z-0.300
x66.117 y-50.633 z-0.300
x66.150 y-50.658 z-0.300
x66.185 y-50.682 z-0.300
x66.221 y-50.705 z-0.300
x66.258 y-50.726 z-0.300
x66.296 y-50.745 z-0.300
x66.335 y-50.762 z-0.300
x66.375 y-50.777 z-0.300
x66.415 y-50.790 z-0.300
x66.456 y-50.802 z-0.300
x66.497 y-50.811 z-0.300
x66.539 y-50.819 z-0.300
x66.581 y-50.825 z-0.300
x66.623 y-50.828 z-0.300
x66.665 y-50.830 z-0.300
x66.708 y-50.830 z-0.300
x66.750 y-50.827 z-0.300
x66.792 y-50.823 z-0.300

( Lift to 5.000 )
F2000 z5.000

( Percurso da ferramenta 8 )
( ------------------------- )

( Spindle on )
M3
S500

( Current depth = -0.300 )

( MoveToStartpoint2 )
F2000 G90 z5.000
F2000 x28.439 y-46.635 z5.000
F2000 x28.439 y-46.635 z0.000

( Loop )
G90 F500
x28.439 y-46.635 z-0.300
F500
x28.481 y-46.630 z-0.300
x28.523 y-46.623 z-0.300
x28.564 y-46.614 z-0.300
x28.605 y-46.603 z-0.300
x28.646 y-46.590 z-0.300
x28.685 y-46.576 z-0.300
x28.724 y-46.559 z-0.300
x28.763 y-46.541 z-0.300
x28.800 y-46.521 z-0.300
x28.836 y-46.499 z-0.300
x28.872 y-46.475 z-0.300
x28.906 y-46.450 z-0.300
x28.939 y-46.423 z-0.300
x28.970 y-46.395 z-0.300
x29.001 y-46.365 z-0.300
x29.029 y-46.334 z-0.300
x29.057 y-46.301 z-0.300
x29.082 y-46.268 z-0.300
x29.106 y-46.233 z-0.300
x29.129 y-46.197 z-0.300
x29.150 y-46.160 z-0.300
x29.169 y-46.122 z-0.300
x29.186 y-46.083 z-0.300
x29.201 y-46.043 z-0.300
x29.214 y-46.003 z-0.300
x29.226 y-45.962 z-0.300
x29.235 y-45.921 z-0.300
x29.243 y-45.879 z-0.300
x29.249 y-45.837 z-0.300
x29.252 y-45.795 z-0.300
x29.254 y-45.753 z-0.300
x29.254 y-45.710 z-0.300
x29.251 y-45.668 z-0.300
x29.247 y-45.626 z-0.300
x29.240 y-45.584 z-0.300
x29.232 y-45.542 z-0.300
x29.222 y-45.501 z-0.300
x29.210 y-45.460 z-0.300
x29.196 y-45.420 z-0.300
x29.180 y-45.381 z-0.300
x29.162 y-45.342 z-0.300
x29.142 y-45.305 z-0.300
x29.121 y-45.268 z-0.300
x29.098 y-45.233 z-0.300
x29.073 y-45.198 z-0.300
x29.047 y-45.165 z-0.300
x29.019 y-45.133 z-0.300
x28.990 y-45.102 z-0.300
x28.959 y-45.073 z-0.300
x28.927 y-45.045 z-0.300
x28.894 y-45.019 z-0.300
x28.859 y-44.994 z-0.300
x28.824 y-44.971 z-0.300
x28.787 y-44.950 z-0.300
x28.749 y-44.930 z-0.300
x28.711 y-44.913 z-0.300
x28.671 y-44.897 z-0.300
x28.631 y-44.883 z-0.300
x28.591 y-44.871 z-0.300
x28.549 y-44.860 z-0.300
x28.508 y-44.852 z-0.300
x28.466 y-44.846 z-0.300
x28.424 y-44.842 z-0.300
x28.381 y-44.839 z-0.300
x21.819 y-44.839 z-0.300
x21.777 y-44.840 z-0.300
x21.734 y-44.843 z-0.300
x21.692 y-44.848 z-0.300
x21.650 y-44.855 z-0.300
x21.609 y-44.864 z-0.300
x21.568 y-44.875 z-0.300
x21.527 y-44.888 z-0.300
x21.488 y-44.902 z-0.300
x21.449 y-44.919 z-0.300
x21.410 y-44.937 z-0.300
x21.373 y-44.957 z-0.300
x21.337 y-44.979 z-0.300
x21.301 y-45.003 z-0.300
x21.267 y-45.028 z-0.300
x21.234 y-45.055 z-0.300
x21.203 y-45.083 z-0.300
x21.172 y-45.113 z-0.300
x21.144 y-45.144 z-0.300
x21.116 y-45.177 z-0.300
x21.091 y-45.210 z-0.300
x21.067 y-45.245 z-0.300
x21.044 y-45.281 z-0.300
x21.023 y-45.318 z-0.300
x21.004 y-45.356 z-0.300
x20.987 y-45.395 z-0.300
x20.972 y-45.435 z-0.300
x20.959 y-45.475 z-0.300
x20.947 y-45.516 z-0.300
x20.938 y-45.557 z-0.300
x20.930 y-45.599 z-0.300
x20.924 y-45.641 z-0.300
x20.921 y-45.683 z-0.300
x20.919 y-45.725 z-0.300
x20.919 y-45.768 z-0.300
x20.922 y-45.810 z-0.300
x20.926 y-45.852 z-0.300
x20.933 y-45.894 z-0.300
x20.941 y-45.936 z-0.300
x20.951 y-45.977 z-0.300
x20.963 y-46.018 z-0.300
x20.977 y-46.058 z-0.300
x20.993 y-46.097 z-0.300
x21.011 y-46.136 z-0.300
x21.031 y-46.173 z-0.300
x21.052 y-46.210 z-0.300
x21.075 y-46.245 z-0.300
x21.100 y-46.280 z-0.300
x21.126 y-46.313 z-0.300
x21.154 y-46.345 z-0.300
x21.183 y-46.376 z-0.300
x21.214 y-46.405 z-0.300
x21.246 y-46.433 z-0.300
x21.279 y-46.459 z-0.300
x21.314 y-46.484 z-0.300
x21.349 y-46.507 z-0.300
x21.386 y-46.528 z-0.300
x21.424 y-46.548 z-0.300
x21.462 y-46.565 z-0.300
x21.502 y-46.581 z-0.300
x21.542 y-46.595 z-0.300
x21.582 y-46.607 z-0.300
x21.624 y-46.618 z-0.300
x21.665 y-46.626 z-0.300
x21.707 y-46.632 z-0.300
x21.749 y-46.636 z-0.300
x21.792 y-46.639 z-0.300
x28.354 y-46.639 z-0.300
x28.396 y-46.638 z-0.300
x28.439 y-46.635 z-0.300

( Lift to 5.000 )
F2000 z5.000

( Program end, back to origin )
G90 F2000 z5.000

( Spindle off )
M5
F2000 x0.000 y0.000 z5.000
