( Created by GrblGru )
( 20.03.2024 09:58:17 )



( Additional commands from settings )
G1 F200 Z25
G4 P2

( Job: Solder Tracks  -> None 3.175mm )
( ------------------------------- )

( Job mode = 0, CUT )
( Type of tool = 0, SPINDLE )

( TransformationTyp = NONE )
( Plano de segurança = 5 )
( Soma da profundidade = 0.6 )
( Profundidade por passo = 0.6 )
( Rampa de Mergulho = 0 )
( Tamanho de partição = 2 )
( Avanço de corte = 500 )
( Avanço rápido = 2000 )
( Avanço de mergulho = 500 )
( Tool = V-carve 60° x 10 )
( Tool diameter = 10 )



G1 G90 F100

( Percurso da ferramenta )
( ------------------------- )

( Spindle on )
M3
S500

( Current depth = -0.600 )

( MoveToStartpoint2 )
F2000 G90 z5.000
F2000 x5.684 y-18.837 z5.000
F2000 x5.684 y-18.837 z0.000

( Loop )
G90 F500
x5.684 y-18.837 z-0.600
F500
x5.722 y-18.832 z-0.600
x5.760 y-18.824 z-0.600
x5.797 y-18.814 z-0.600
x5.834 y-18.803 z-0.600
x5.871 y-18.789 z-0.600
x5.906 y-18.774 z-0.600
x5.941 y-18.757 z-0.600
x5.975 y-18.738 z-0.600
x6.008 y-18.717 z-0.600
x6.039 y-18.695 z-0.600
x6.070 y-18.671 z-0.600
x6.099 y-18.646 z-0.600
x6.283 y-18.462 z-0.600
x13.339 y-18.462 z-0.600
x13.378 y-18.461 z-0.600
x13.416 y-18.458 z-0.600
x13.455 y-18.453 z-0.600
x13.493 y-18.446 z-0.600
x13.531 y-18.437 z-0.600
x13.568 y-18.426 z-0.600
x13.604 y-18.414 z-0.600
x13.640 y-18.399 z-0.600
x13.675 y-18.382 z-0.600
x13.709 y-18.364 z-0.600
x13.742 y-18.344 z-0.600
x13.775 y-18.323 z-0.600
x13.806 y-18.299 z-0.600
x13.835 y-18.274 z-0.600
x13.864 y-18.248 z-0.600
x13.891 y-18.220 z-0.600
x13.916 y-18.191 z-0.600
x13.940 y-18.161 z-0.600
x13.962 y-18.129 z-0.600
x13.983 y-18.096 z-0.600
x14.002 y-18.063 z-0.600
x14.019 y-18.028 z-0.600
x14.035 y-17.992 z-0.600
x14.048 y-17.956 z-0.600
x14.060 y-17.919 z-0.600
x14.070 y-17.882 z-0.600
x14.077 y-17.844 z-0.600
x14.083 y-17.805 z-0.600
x14.087 y-17.767 z-0.600
x14.089 y-17.712 z-0.600
x14.089 y-17.135 z-0.600
x14.088 y-17.096 z-0.600
x14.085 y-17.058 z-0.600
x14.080 y-17.019 z-0.600
x14.073 y-16.981 z-0.600
x14.064 y-16.943 z-0.600
x14.053 y-16.906 z-0.600
x14.041 y-16.870 z-0.600
x14.026 y-16.834 z-0.600
x14.009 y-16.799 z-0.600
x13.991 y-16.765 z-0.600
x13.971 y-16.732 z-0.600
x13.950 y-16.699 z-0.600
x13.926 y-16.668 z-0.600
x13.901 y-16.639 z-0.600
x13.869 y-16.605 z-0.600
x10.479 y-13.215 z-0.600
x23.401 y-13.215 z-0.600
x23.440 y-13.214 z-0.600
x23.478 y-13.211 z-0.600
x23.517 y-13.206 z-0.600
x23.555 y-13.199 z-0.600
x23.593 y-13.190 z-0.600
x23.630 y-13.179 z-0.600
x23.666 y-13.167 z-0.600
x23.702 y-13.152 z-0.600
x23.737 y-13.135 z-0.600
x23.771 y-13.117 z-0.600
x23.804 y-13.097 z-0.600
x23.837 y-13.076 z-0.600
x23.868 y-13.052 z-0.600
x23.897 y-13.027 z-0.600
x23.931 y-12.995 z-0.600
x31.678 y-5.248 z-0.600
x31.705 y-5.220 z-0.600
x31.730 y-5.191 z-0.600
x31.754 y-5.160 z-0.600
x31.776 y-5.128 z-0.600
x31.796 y-5.095 z-0.600
x31.815 y-5.061 z-0.600
x31.832 y-5.026 z-0.600
x31.847 y-4.991 z-0.600
x31.860 y-4.954 z-0.600
x31.871 y-4.917 z-0.600
x31.880 y-4.880 z-0.600
x31.888 y-4.842 z-0.600
x31.893 y-4.803 z-0.600
x31.897 y-4.765 z-0.600
x31.898 y-4.726 z-0.600
x31.897 y-4.687 z-0.600
x31.895 y-4.649 z-0.600
x31.890 y-4.610 z-0.600
x31.884 y-4.572 z-0.600
x31.875 y-4.534 z-0.600
x31.865 y-4.497 z-0.600
x31.852 y-4.460 z-0.600
x31.838 y-4.424 z-0.600
x31.822 y-4.389 z-0.600
x31.804 y-4.355 z-0.600
x31.785 y-4.321 z-0.600
x31.763 y-4.289 z-0.600
x31.740 y-4.258 z-0.600
x31.716 y-4.228 z-0.600
x31.690 y-4.199 z-0.600
x31.662 y-4.172 z-0.600
x31.633 y-4.146 z-0.600
x31.603 y-4.122 z-0.600
x31.572 y-4.099 z-0.600
x31.539 y-4.078 z-0.600
x31.506 y-4.059 z-0.600
x31.471 y-4.041 z-0.600
x31.436 y-4.025 z-0.600
x31.400 y-4.011 z-0.600
x31.363 y-3.999 z-0.600
x31.325 y-3.989 z-0.600
x31.288 y-3.981 z-0.600
x31.249 y-3.975 z-0.600
x31.211 y-3.971 z-0.600
x31.172 y-3.968 z-0.600
x31.134 y-3.968 z-0.600
x31.095 y-3.970 z-0.600
x31.056 y-3.974 z-0.600
x31.018 y-3.979 z-0.600
x30.980 y-3.987 z-0.600
x30.943 y-3.997 z-0.600
x30.906 y-4.008 z-0.600
x30.869 y-4.022 z-0.600
x30.834 y-4.037 z-0.600
x30.799 y-4.054 z-0.600
x30.765 y-4.073 z-0.600
x30.732 y-4.094 z-0.600
x30.701 y-4.116 z-0.600
x30.670 y-4.140 z-0.600
x30.641 y-4.165 z-0.600
x23.091 y-11.715 z-0.600
x8.669 y-11.715 z-0.600
x8.630 y-11.716 z-0.600
x8.592 y-11.719 z-0.600
x8.553 y-11.724 z-0.600
x8.515 y-11.731 z-0.600
x8.477 y-11.740 z-0.600
x8.440 y-11.751 z-0.600
x8.404 y-11.763 z-0.600
x8.368 y-11.778 z-0.600
x8.333 y-11.795 z-0.600
x8.299 y-11.813 z-0.600
x8.266 y-11.833 z-0.600
x8.233 y-11.854 z-0.600
x8.202 y-11.878 z-0.600
x8.173 y-11.903 z-0.600
x8.144 y-11.929 z-0.600
x8.117 y-11.957 z-0.600
x8.092 y-11.986 z-0.600
x8.068 y-12.016 z-0.600
x8.046 y-12.048 z-0.600
x8.025 y-12.081 z-0.600
x8.006 y-12.114 z-0.600
x7.989 y-12.149 z-0.600
x7.973 y-12.185 z-0.600
x7.960 y-12.221 z-0.600
x7.948 y-12.258 z-0.600
x7.938 y-12.295 z-0.600
x7.931 y-12.333 z-0.600
x7.925 y-12.372 z-0.600
x7.921 y-12.410 z-0.600
x7.919 y-12.449 z-0.600
x7.919 y-12.488 z-0.600
x7.922 y-12.526 z-0.600
x7.926 y-12.565 z-0.600
x7.932 y-12.603 z-0.600
x7.940 y-12.641 z-0.600
x7.950 y-12.678 z-0.600
x7.962 y-12.715 z-0.600
x7.976 y-12.751 z-0.600
x7.991 y-12.787 z-0.600
x8.009 y-12.821 z-0.600
x8.028 y-12.855 z-0.600
x8.049 y-12.887 z-0.600
x8.072 y-12.919 z-0.600
x8.096 y-12.949 z-0.600
x8.122 y-12.978 z-0.600
x12.106 y-16.962 z-0.600
x5.973 y-16.962 z-0.600
x5.934 y-16.963 z-0.600
x5.896 y-16.966 z-0.600
x5.857 y-16.971 z-0.600
x5.819 y-16.978 z-0.600
x5.781 y-16.987 z-0.600
x5.744 y-16.998 z-0.600
x5.708 y-17.010 z-0.600
x5.672 y-17.025 z-0.600
x5.637 y-17.042 z-0.600
x5.603 y-17.060 z-0.600
x5.570 y-17.080 z-0.600
x5.537 y-17.101 z-0.600
x5.506 y-17.125 z-0.600
x5.477 y-17.150 z-0.600
x5.443 y-17.182 z-0.600
x5.062 y-17.563 z-0.600
x5.035 y-17.591 z-0.600
x5.010 y-17.620 z-0.600
x4.986 y-17.651 z-0.600
x4.964 y-17.683 z-0.600
x4.944 y-17.716 z-0.600
x4.925 y-17.750 z-0.600
x4.908 y-17.785 z-0.600
x4.893 y-17.820 z-0.600
x4.880 y-17.857 z-0.600
x4.869 y-17.894 z-0.600
x4.860 y-17.931 z-0.600
x4.852 y-17.969 z-0.600
x4.847 y-18.008 z-0.600
x4.843 y-18.046 z-0.600
x4.842 y-18.085 z-0.600
x4.843 y-18.124 z-0.600
x4.845 y-18.162 z-0.600
x4.850 y-18.201 z-0.600
x4.856 y-18.239 z-0.600
x4.865 y-18.277 z-0.600
x4.875 y-18.314 z-0.600
x4.888 y-18.351 z-0.600
x4.902 y-18.387 z-0.600
x4.918 y-18.422 z-0.600
x4.936 y-18.456 z-0.600
x4.955 y-18.490 z-0.600
x4.977 y-18.522 z-0.600
x5.000 y-18.553 z-0.600
x5.024 y-18.583 z-0.600
x5.050 y-18.612 z-0.600
x5.078 y-18.639 z-0.600
x5.107 y-18.665 z-0.600
x5.137 y-18.689 z-0.600
x5.168 y-18.712 z-0.600
x5.201 y-18.733 z-0.600
x5.234 y-18.752 z-0.600
x5.269 y-18.770 z-0.600
x5.304 y-18.786 z-0.600
x5.340 y-18.800 z-0.600
x5.377 y-18.812 z-0.600
x5.415 y-18.822 z-0.600
x5.452 y-18.830 z-0.600
x5.491 y-18.836 z-0.600
x5.529 y-18.840 z-0.600
x5.568 y-18.843 z-0.600
x5.606 y-18.843 z-0.600
x5.645 y-18.841 z-0.600
x5.684 y-18.837 z-0.600

( Lift to 5.000 )
F2000 z5.000

( Percurso da ferramenta 2 )
( ------------------------- )

( Spindle on )
M3
S500

( Current depth = -0.600 )

( MoveToStartpoint2 )
F2000 G90 z5.000
F2000 x27.663 y-22.860 z5.000
F2000 x27.663 y-22.860 z0.000

( Loop )
G90 F500
x27.663 y-22.860 z-0.600
F500
x27.701 y-22.854 z-0.600
x27.739 y-22.846 z-0.600
x27.776 y-22.836 z-0.600
x27.813 y-22.824 z-0.600
x27.849 y-22.810 z-0.600
x27.885 y-22.795 z-0.600
x27.919 y-22.777 z-0.600
x27.953 y-22.758 z-0.600
x27.985 y-22.737 z-0.600
x28.017 y-22.714 z-0.600
x28.047 y-22.690 z-0.600
x28.076 y-22.664 z-0.600
x28.103 y-22.637 z-0.600
x28.130 y-22.608 z-0.600
x28.154 y-22.579 z-0.600
x28.177 y-22.547 z-0.600
x28.199 y-22.515 z-0.600
x28.218 y-22.482 z-0.600
x28.236 y-22.447 z-0.600
x28.252 y-22.412 z-0.600
x28.267 y-22.376 z-0.600
x28.279 y-22.340 z-0.600
x28.290 y-22.302 z-0.600
x28.298 y-22.265 z-0.600
x28.305 y-22.226 z-0.600
x28.310 y-22.188 z-0.600
x28.312 y-22.149 z-0.600
x28.313 y-22.117 z-0.600
x28.313 y-13.381 z-0.600
x28.479 y-13.215 z-0.600
x40.431 y-13.215 z-0.600
x40.470 y-13.214 z-0.600
x40.508 y-13.211 z-0.600
x40.547 y-13.206 z-0.600
x40.585 y-13.199 z-0.600
x40.623 y-13.190 z-0.600
x40.660 y-13.179 z-0.600
x40.696 y-13.167 z-0.600
x40.732 y-13.152 z-0.600
x40.767 y-13.135 z-0.600
x40.801 y-13.117 z-0.600
x40.834 y-13.097 z-0.600
x40.867 y-13.076 z-0.600
x40.898 y-13.052 z-0.600
x40.927 y-13.027 z-0.600
x40.961 y-12.995 z-0.600
x41.342 y-12.614 z-0.600
x41.369 y-12.586 z-0.600
x41.394 y-12.557 z-0.600
x41.418 y-12.526 z-0.600
x41.440 y-12.494 z-0.600
x41.460 y-12.461 z-0.600
x41.479 y-12.427 z-0.600
x41.496 y-12.392 z-0.600
x41.511 y-12.357 z-0.600
x41.524 y-12.320 z-0.600
x41.535 y-12.283 z-0.600
x41.544 y-12.246 z-0.600
x41.552 y-12.208 z-0.600
x41.557 y-12.169 z-0.600
x41.561 y-12.131 z-0.600
x41.562 y-12.092 z-0.600
x41.561 y-12.053 z-0.600
x41.559 y-12.015 z-0.600
x41.554 y-11.976 z-0.600
x41.548 y-11.938 z-0.600
x41.539 y-11.900 z-0.600
x41.529 y-11.863 z-0.600
x41.516 y-11.826 z-0.600
x41.502 y-11.790 z-0.600
x41.486 y-11.755 z-0.600
x41.468 y-11.721 z-0.600
x41.449 y-11.687 z-0.600
x41.427 y-11.655 z-0.600
x41.404 y-11.624 z-0.600
x41.380 y-11.594 z-0.600
x41.354 y-11.565 z-0.600
x41.326 y-11.538 z-0.600
x41.297 y-11.512 z-0.600
x41.267 y-11.488 z-0.600
x41.236 y-11.465 z-0.600
x41.203 y-11.444 z-0.600
x41.170 y-11.425 z-0.600
x41.135 y-11.407 z-0.600
x41.100 y-11.391 z-0.600
x41.064 y-11.377 z-0.600
x41.027 y-11.365 z-0.600
x40.989 y-11.355 z-0.600
x40.952 y-11.347 z-0.600
x40.913 y-11.341 z-0.600
x40.875 y-11.337 z-0.600
x40.836 y-11.334 z-0.600
x40.798 y-11.334 z-0.600
x40.759 y-11.336 z-0.600
x40.720 y-11.340 z-0.600
x40.682 y-11.345 z-0.600
x40.644 y-11.353 z-0.600
x40.607 y-11.363 z-0.600
x40.570 y-11.374 z-0.600
x40.533 y-11.388 z-0.600
x40.498 y-11.403 z-0.600
x40.463 y-11.420 z-0.600
x40.429 y-11.439 z-0.600
x40.396 y-11.460 z-0.600
x40.365 y-11.482 z-0.600
x40.334 y-11.506 z-0.600
x40.305 y-11.531 z-0.600
x40.121 y-11.715 z-0.600
x28.169 y-11.715 z-0.600
x28.130 y-11.716 z-0.600
x28.092 y-11.719 z-0.600
x28.053 y-11.724 z-0.600
x28.015 y-11.731 z-0.600
x27.977 y-11.740 z-0.600
x27.940 y-11.751 z-0.600
x27.904 y-11.763 z-0.600
x27.868 y-11.778 z-0.600
x27.833 y-11.795 z-0.600
x27.799 y-11.813 z-0.600
x27.766 y-11.833 z-0.600
x27.733 y-11.854 z-0.600
x27.702 y-11.878 z-0.600
x27.673 y-11.903 z-0.600
x27.639 y-11.935 z-0.600
x27.033 y-12.541 z-0.600
x27.006 y-12.569 z-0.600
x26.981 y-12.598 z-0.600
x26.957 y-12.629 z-0.600
x26.935 y-12.661 z-0.600
x26.915 y-12.694 z-0.600
x26.896 y-12.728 z-0.600
x26.879 y-12.763 z-0.600
x26.864 y-12.798 z-0.600
x26.851 y-12.835 z-0.600
x26.840 y-12.872 z-0.600
x26.831 y-12.909 z-0.600
x26.823 y-12.947 z-0.600
x26.818 y-12.986 z-0.600
x26.814 y-13.024 z-0.600
x26.813 y-13.071 z-0.600
x26.813 y-22.117 z-0.600
x26.814 y-22.156 z-0.600
x26.817 y-22.194 z-0.600
x26.822 y-22.233 z-0.600
x26.829 y-22.271 z-0.600
x26.838 y-22.309 z-0.600
x26.849 y-22.346 z-0.600
x26.861 y-22.382 z-0.600
x26.876 y-22.418 z-0.600
x26.893 y-22.453 z-0.600
x26.911 y-22.487 z-0.600
x26.931 y-22.520 z-0.600
x26.952 y-22.553 z-0.600
x26.976 y-22.584 z-0.600
x27.001 y-22.613 z-0.600
x27.027 y-22.642 z-0.600
x27.055 y-22.669 z-0.600
x27.084 y-22.694 z-0.600
x27.114 y-22.718 z-0.600
x27.146 y-22.740 z-0.600
x27.179 y-22.761 z-0.600
x27.212 y-22.780 z-0.600
x27.247 y-22.797 z-0.600
x27.283 y-22.813 z-0.600
x27.319 y-22.826 z-0.600
x27.356 y-22.838 z-0.600
x27.393 y-22.848 z-0.600
x27.431 y-22.855 z-0.600
x27.470 y-22.861 z-0.600
x27.508 y-22.865 z-0.600
x27.547 y-22.867 z-0.600
x27.586 y-22.867 z-0.600
x27.624 y-22.864 z-0.600
x27.663 y-22.860 z-0.600

( Lift to 5.000 )
F2000 z5.000

( Percurso da ferramenta 4 )
( ------------------------- )

( Spindle on )
M3
S500

( Current depth = -0.600 )

( MoveToStartpoint2 )
F2000 G90 z5.000
F2000 x30.172 y-30.484 z5.000
F2000 x30.172 y-30.484 z0.000

( Loop )
G90 F500
x30.172 y-30.484 z-0.600
F500
x30.211 y-30.479 z-0.600
x30.249 y-30.473 z-0.600
x30.287 y-30.464 z-0.600
x30.324 y-30.454 z-0.600
x30.361 y-30.441 z-0.600
x30.397 y-30.427 z-0.600
x30.432 y-30.411 z-0.600
x30.466 y-30.393 z-0.600
x30.500 y-30.374 z-0.600
x30.532 y-30.352 z-0.600
x30.563 y-30.329 z-0.600
x30.593 y-30.305 z-0.600
x30.622 y-30.279 z-0.600
x30.649 y-30.251 z-0.600
x30.675 y-30.222 z-0.600
x30.699 y-30.192 z-0.600
x30.722 y-30.161 z-0.600
x30.743 y-30.128 z-0.600
x30.762 y-30.095 z-0.600
x30.780 y-30.060 z-0.600
x30.796 y-30.025 z-0.600
x30.810 y-29.989 z-0.600
x30.822 y-29.952 z-0.600
x30.832 y-29.914 z-0.600
x30.840 y-29.877 z-0.600
x30.846 y-29.838 z-0.600
x30.850 y-29.800 z-0.600
x30.853 y-29.761 z-0.600
x30.853 y-29.723 z-0.600
x30.851 y-29.684 z-0.600
x30.847 y-29.645 z-0.600
x30.842 y-29.607 z-0.600
x30.834 y-29.569 z-0.600
x30.824 y-29.532 z-0.600
x30.813 y-29.495 z-0.600
x30.799 y-29.458 z-0.600
x30.784 y-29.423 z-0.600
x30.767 y-29.388 z-0.600
x30.748 y-29.354 z-0.600
x30.727 y-29.321 z-0.600
x30.705 y-29.290 z-0.600
x30.681 y-29.259 z-0.600
x30.656 y-29.230 z-0.600
x25.773 y-24.347 z-0.600
x25.773 y-22.117 z-0.600
x25.772 y-22.078 z-0.600
x25.769 y-22.040 z-0.600
x25.764 y-22.001 z-0.600
x25.756 y-21.963 z-0.600
x25.747 y-21.925 z-0.600
x25.737 y-21.888 z-0.600
x25.725 y-21.852 z-0.600
x25.710 y-21.816 z-0.600
x25.692 y-21.781 z-0.600
x25.674 y-21.747 z-0.600
x25.655 y-21.714 z-0.600
x25.634 y-21.681 z-0.600
x25.610 y-21.650 z-0.600
x25.585 y-21.621 z-0.600
x25.558 y-21.592 z-0.600
x25.531 y-21.565 z-0.600
x25.502 y-21.540 z-0.600
x25.472 y-21.516 z-0.600
x25.439 y-21.494 z-0.600
x25.406 y-21.473 z-0.600
x25.374 y-21.454 z-0.600
x25.339 y-21.437 z-0.600
x25.302 y-21.421 z-0.600
x25.267 y-21.408 z-0.600
x25.229 y-21.396 z-0.600
x25.192 y-21.386 z-0.600
x25.155 y-21.379 z-0.600
x25.116 y-21.373 z-0.600
x25.078 y-21.369 z-0.600
x25.023 y-21.367 z-0.600
x13.934 y-21.367 z-0.600
x13.895 y-21.368 z-0.600
x13.857 y-21.371 z-0.600
x13.818 y-21.376 z-0.600
x13.780 y-21.383 z-0.600
x13.742 y-21.392 z-0.600
x13.705 y-21.403 z-0.600
x13.669 y-21.415 z-0.600
x13.633 y-21.430 z-0.600
x13.598 y-21.447 z-0.600
x13.564 y-21.465 z-0.600
x13.531 y-21.485 z-0.600
x13.498 y-21.506 z-0.600
x13.467 y-21.530 z-0.600
x13.438 y-21.555 z-0.600
x13.404 y-21.587 z-0.600
x13.029 y-21.962 z-0.600
x5.973 y-21.962 z-0.600
x5.934 y-21.963 z-0.600
x5.896 y-21.966 z-0.600
x5.857 y-21.971 z-0.600
x5.819 y-21.978 z-0.600
x5.781 y-21.987 z-0.600
x5.744 y-21.998 z-0.600
x5.708 y-22.010 z-0.600
x5.672 y-22.025 z-0.600
x5.637 y-22.042 z-0.600
x5.603 y-22.060 z-0.600
x5.570 y-22.080 z-0.600
x5.537 y-22.101 z-0.600
x5.506 y-22.125 z-0.600
x5.477 y-22.150 z-0.600
x5.443 y-22.182 z-0.600
x5.062 y-22.563 z-0.600
x5.035 y-22.591 z-0.600
x5.010 y-22.620 z-0.600
x4.986 y-22.651 z-0.600
x4.964 y-22.683 z-0.600
x4.944 y-22.716 z-0.600
x4.925 y-22.750 z-0.600
x4.908 y-22.785 z-0.600
x4.893 y-22.820 z-0.600
x4.880 y-22.857 z-0.600
x4.869 y-22.894 z-0.600
x4.860 y-22.931 z-0.600
x4.852 y-22.969 z-0.600
x4.847 y-23.008 z-0.600
x4.843 y-23.046 z-0.600
x4.842 y-23.085 z-0.600
x4.843 y-23.124 z-0.600
x4.845 y-23.162 z-0.600
x4.850 y-23.201 z-0.600
x4.856 y-23.239 z-0.600
x4.865 y-23.277 z-0.600
x4.875 y-23.314 z-0.600
x4.888 y-23.351 z-0.600
x4.902 y-23.387 z-0.600
x4.918 y-23.422 z-0.600
x4.936 y-23.456 z-0.600
x4.955 y-23.490 z-0.600
x4.977 y-23.522 z-0.600
x5.000 y-23.553 z-0.600
x5.024 y-23.583 z-0.600
x5.050 y-23.612 z-0.600
x5.078 y-23.639 z-0.600
x5.107 y-23.665 z-0.600
x5.137 y-23.689 z-0.600
x5.168 y-23.712 z-0.600
x5.201 y-23.733 z-0.600
x5.234 y-23.752 z-0.600
x5.269 y-23.770 z-0.600
x5.304 y-23.786 z-0.600
x5.340 y-23.800 z-0.600
x5.377 y-23.812 z-0.600
x5.415 y-23.822 z-0.600
x5.452 y-23.830 z-0.600
x5.491 y-23.836 z-0.600
x5.529 y-23.840 z-0.600
x5.568 y-23.843 z-0.600
x5.606 y-23.843 z-0.600
x5.645 y-23.841 z-0.600
x5.684 y-23.837 z-0.600
x5.722 y-23.832 z-0.600
x5.760 y-23.824 z-0.600
x5.797 y-23.814 z-0.600
x5.834 y-23.803 z-0.600
x5.871 y-23.789 z-0.600
x5.906 y-23.774 z-0.600
x5.941 y-23.757 z-0.600
x5.975 y-23.738 z-0.600
x6.008 y-23.717 z-0.600
x6.039 y-23.695 z-0.600
x6.070 y-23.671 z-0.600
x6.099 y-23.646 z-0.600
x6.283 y-23.462 z-0.600
x13.339 y-23.462 z-0.600
x13.378 y-23.461 z-0.600
x13.416 y-23.458 z-0.600
x13.455 y-23.453 z-0.600
x13.493 y-23.446 z-0.600
x13.531 y-23.437 z-0.600
x13.568 y-23.426 z-0.600
x13.604 y-23.414 z-0.600
x13.640 y-23.399 z-0.600
x13.675 y-23.382 z-0.600
x13.709 y-23.364 z-0.600
x13.742 y-23.344 z-0.600
x13.775 y-23.323 z-0.600
x13.806 y-23.299 z-0.600
x13.835 y-23.274 z-0.600
x13.869 y-23.242 z-0.600
x14.244 y-22.867 z-0.600
x24.273 y-22.867 z-0.600
x24.273 y-24.657 z-0.600
x24.274 y-24.696 z-0.600
x24.277 y-24.734 z-0.600
x24.282 y-24.773 z-0.600
x24.289 y-24.811 z-0.600
x24.298 y-24.849 z-0.600
x24.309 y-24.886 z-0.600
x24.321 y-24.922 z-0.600
x24.336 y-24.958 z-0.600
x24.353 y-24.993 z-0.600
x24.371 y-25.027 z-0.600
x24.391 y-25.060 z-0.600
x24.412 y-25.093 z-0.600
x24.436 y-25.124 z-0.600
x24.461 y-25.153 z-0.600
x24.493 y-25.187 z-0.600
x29.573 y-30.267 z-0.600
x29.601 y-30.294 z-0.600
x29.630 y-30.319 z-0.600
x29.661 y-30.343 z-0.600
x29.693 y-30.365 z-0.600
x29.726 y-30.385 z-0.600
x29.760 y-30.404 z-0.600
x29.795 y-30.421 z-0.600
x29.830 y-30.436 z-0.600
x29.867 y-30.449 z-0.600
x29.904 y-30.460 z-0.600
x29.941 y-30.469 z-0.600
x29.979 y-30.477 z-0.600
x30.018 y-30.482 z-0.600
x30.056 y-30.486 z-0.600
x30.095 y-30.487 z-0.600
x30.134 y-30.486 z-0.600
x30.172 y-30.484 z-0.600

( Lift to 5.000 )
F2000 z5.000

( Percurso da ferramenta 3 )
( ------------------------- )

( Spindle on )
M3
S500

( Current depth = -0.600 )

( MoveToStartpoint2 )
F2000 G90 z5.000
F2000 x42.942 y-22.863 z5.000
F2000 x42.942 y-22.863 z0.000

( Loop )
G90 F500
x42.942 y-22.863 z-0.600
F500
x42.981 y-22.858 z-0.600
x43.019 y-22.851 z-0.600
x43.057 y-22.842 z-0.600
x43.094 y-22.831 z-0.600
x43.130 y-22.819 z-0.600
x43.166 y-22.804 z-0.600
x43.201 y-22.787 z-0.600
x43.235 y-22.769 z-0.600
x43.268 y-22.749 z-0.600
x43.301 y-22.728 z-0.600
x43.332 y-22.704 z-0.600
x43.361 y-22.679 z-0.600
x43.395 y-22.647 z-0.600
x46.420 y-19.622 z-0.600
x46.441 y-19.612 z-0.600
x46.475 y-19.594 z-0.600
x46.508 y-19.574 z-0.600
x46.541 y-19.553 z-0.600
x46.572 y-19.529 z-0.600
x46.601 y-19.504 z-0.600
x46.630 y-19.478 z-0.600
x46.657 y-19.450 z-0.600
x46.682 y-19.421 z-0.600
x46.706 y-19.391 z-0.600
x46.728 y-19.359 z-0.600
x46.749 y-19.326 z-0.600
x46.768 y-19.293 z-0.600
x46.785 y-19.258 z-0.600
x46.801 y-19.222 z-0.600
x46.814 y-19.186 z-0.600
x46.826 y-19.149 z-0.600
x46.836 y-19.112 z-0.600
x46.843 y-19.074 z-0.600
x46.849 y-19.035 z-0.600
x46.853 y-18.997 z-0.600
x46.855 y-18.958 z-0.600
x46.855 y-18.919 z-0.600
x46.852 y-18.881 z-0.600
x46.848 y-18.842 z-0.600
x46.842 y-18.804 z-0.600
x46.834 y-18.766 z-0.600
x46.824 y-18.729 z-0.600
x46.812 y-18.692 z-0.600
x46.798 y-18.656 z-0.600
x46.790 y-18.637 z-0.600
x46.790 y-12.313 z-0.600
x46.789 y-12.274 z-0.600
x46.786 y-12.236 z-0.600
x46.781 y-12.197 z-0.600
x46.774 y-12.159 z-0.600
x46.765 y-12.121 z-0.600
x46.754 y-12.084 z-0.600
x46.742 y-12.048 z-0.600
x46.727 y-12.012 z-0.600
x46.710 y-11.977 z-0.600
x46.692 y-11.943 z-0.600
x46.672 y-11.910 z-0.600
x46.651 y-11.877 z-0.600
x46.627 y-11.846 z-0.600
x46.602 y-11.817 z-0.600
x46.571 y-11.784 z-0.600
x46.343 y-11.555 z-0.600
x46.315 y-11.528 z-0.600
x46.286 y-11.503 z-0.600
x46.255 y-11.479 z-0.600
x46.224 y-11.457 z-0.600
x46.191 y-11.437 z-0.600
x46.157 y-11.418 z-0.600
x46.122 y-11.401 z-0.600
x46.086 y-11.386 z-0.600
x46.050 y-11.373 z-0.600
x46.013 y-11.361 z-0.600
x45.975 y-11.352 z-0.600
x45.937 y-11.345 z-0.600
x45.899 y-11.339 z-0.600
x45.860 y-11.336 z-0.600
x45.822 y-11.334 z-0.600
x45.783 y-11.335 z-0.600
x45.744 y-11.337 z-0.600
x45.706 y-11.342 z-0.600
x45.668 y-11.348 z-0.600
x45.630 y-11.356 z-0.600
x45.593 y-11.367 z-0.600
x45.556 y-11.379 z-0.600
x45.520 y-11.393 z-0.600
x45.485 y-11.409 z-0.600
x45.450 y-11.427 z-0.600
x45.417 y-11.447 z-0.600
x45.384 y-11.468 z-0.600
x45.353 y-11.491 z-0.600
x45.323 y-11.515 z-0.600
x45.294 y-11.541 z-0.600
x45.267 y-11.569 z-0.600
x45.241 y-11.597 z-0.600
x45.217 y-11.628 z-0.600
x45.194 y-11.659 z-0.600
x45.173 y-11.691 z-0.600
x45.154 y-11.725 z-0.600
x45.136 y-11.759 z-0.600
x45.120 y-11.795 z-0.600
x45.106 y-11.831 z-0.600
x45.094 y-11.868 z-0.600
x45.084 y-11.905 z-0.600
x45.075 y-11.943 z-0.600
x45.069 y-11.981 z-0.600
x45.065 y-12.019 z-0.600
x45.062 y-12.058 z-0.600
x45.062 y-12.097 z-0.600
x45.064 y-12.136 z-0.600
x45.067 y-12.174 z-0.600
x45.073 y-12.212 z-0.600
x45.081 y-12.250 z-0.600
x45.090 y-12.288 z-0.600
x45.102 y-12.325 z-0.600
x45.115 y-12.361 z-0.600
x45.130 y-12.397 z-0.600
x45.147 y-12.432 z-0.600
x45.166 y-12.465 z-0.600
x45.187 y-12.498 z-0.600
x45.209 y-12.530 z-0.600
x45.233 y-12.561 z-0.600
x45.258 y-12.590 z-0.600
x45.290 y-12.622 z-0.600
x45.290 y-18.632 z-0.600
x42.555 y-21.367 z-0.600
x30.103 y-21.367 z-0.600
x30.064 y-21.368 z-0.600
x30.026 y-21.371 z-0.600
x29.987 y-21.376 z-0.600
x29.949 y-21.383 z-0.600
x29.911 y-21.392 z-0.600
x29.874 y-21.403 z-0.600
x29.838 y-21.415 z-0.600
x29.802 y-21.430 z-0.600
x29.767 y-21.447 z-0.600
x29.733 y-21.465 z-0.600
x29.700 y-21.485 z-0.600
x29.667 y-21.506 z-0.600
x29.636 y-21.530 z-0.600
x29.607 y-21.555 z-0.600
x29.578 y-21.581 z-0.600
x29.551 y-21.609 z-0.600
x29.526 y-21.638 z-0.600
x29.502 y-21.668 z-0.600
x29.480 y-21.700 z-0.600
x29.459 y-21.733 z-0.600
x29.440 y-21.766 z-0.600
x29.423 y-21.801 z-0.600
x29.407 y-21.837 z-0.600
x29.394 y-21.873 z-0.600
x29.382 y-21.910 z-0.600
x29.372 y-21.947 z-0.600
x29.365 y-21.985 z-0.600
x29.359 y-22.024 z-0.600
x29.355 y-22.062 z-0.600
x29.353 y-22.101 z-0.600
x29.353 y-22.140 z-0.600
x29.356 y-22.178 z-0.600
x29.360 y-22.217 z-0.600
x29.366 y-22.255 z-0.600
x29.374 y-22.293 z-0.600
x29.384 y-22.330 z-0.600
x29.396 y-22.367 z-0.600
x29.410 y-22.403 z-0.600
x29.425 y-22.439 z-0.600
x29.443 y-22.473 z-0.600
x29.462 y-22.507 z-0.600
x29.483 y-22.539 z-0.600
x29.506 y-22.571 z-0.600
x29.530 y-22.601 z-0.600
x29.556 y-22.630 z-0.600
x29.583 y-22.657 z-0.600
x29.612 y-22.684 z-0.600
x29.641 y-22.708 z-0.600
x29.673 y-22.731 z-0.600
x29.705 y-22.753 z-0.600
x29.738 y-22.772 z-0.600
x29.773 y-22.790 z-0.600
x29.808 y-22.806 z-0.600
x29.844 y-22.821 z-0.600
x29.880 y-22.833 z-0.600
x29.918 y-22.844 z-0.600
x29.955 y-22.852 z-0.600
x29.994 y-22.859 z-0.600
x30.032 y-22.864 z-0.600
x30.071 y-22.866 z-0.600
x30.103 y-22.867 z-0.600
x42.865 y-22.867 z-0.600
x42.904 y-22.866 z-0.600
x42.942 y-22.863 z-0.600

( Lift to 5.000 )
F2000 z5.000

( Percurso da ferramenta 0 )
( ------------------------- )

( Spindle on )
M3
S500

( Current depth = -0.600 )

( MoveToStartpoint2 )
F2000 G90 z5.000
F2000 x51.254 y-19.689 z5.000
F2000 x51.254 y-19.689 z0.000

( Loop )
G90 F500
x51.254 y-19.689 z-0.600
F500
x51.293 y-19.684 z-0.600
x51.331 y-19.678 z-0.600
x51.369 y-19.669 z-0.600
x51.406 y-19.659 z-0.600
x51.443 y-19.646 z-0.600
x51.479 y-19.632 z-0.600
x51.514 y-19.616 z-0.600
x51.548 y-19.598 z-0.600
x51.582 y-19.579 z-0.600
x51.614 y-19.557 z-0.600
x51.645 y-19.534 z-0.600
x51.675 y-19.510 z-0.600
x51.704 y-19.484 z-0.600
x51.731 y-19.456 z-0.600
x51.757 y-19.427 z-0.600
x51.781 y-19.397 z-0.600
x51.804 y-19.366 z-0.600
x51.825 y-19.333 z-0.600
x51.844 y-19.300 z-0.600
x51.862 y-19.265 z-0.600
x51.878 y-19.230 z-0.600
x51.892 y-19.194 z-0.600
x51.904 y-19.157 z-0.600
x51.914 y-19.119 z-0.600
x51.922 y-19.082 z-0.600
x51.928 y-19.043 z-0.600
x51.932 y-19.005 z-0.600
x51.935 y-18.966 z-0.600
x51.935 y-18.928 z-0.600
x51.933 y-18.889 z-0.600
x51.929 y-18.850 z-0.600
x51.924 y-18.812 z-0.600
x51.916 y-18.774 z-0.600
x51.906 y-18.737 z-0.600
x51.895 y-18.700 z-0.600
x51.881 y-18.663 z-0.600
x51.866 y-18.628 z-0.600
x51.849 y-18.593 z-0.600
x51.830 y-18.559 z-0.600
x51.809 y-18.526 z-0.600
x51.787 y-18.495 z-0.600
x51.763 y-18.464 z-0.600
x51.738 y-18.435 z-0.600
x51.398 y-18.095 z-0.600
x51.398 y-4.718 z-0.600
x51.397 y-4.679 z-0.600
x51.394 y-4.641 z-0.600
x51.389 y-4.602 z-0.600
x51.382 y-4.564 z-0.600
x51.373 y-4.526 z-0.600
x51.362 y-4.489 z-0.600
x51.350 y-4.453 z-0.600
x51.335 y-4.417 z-0.600
x51.318 y-4.382 z-0.600
x51.300 y-4.348 z-0.600
x51.280 y-4.315 z-0.600
x51.259 y-4.282 z-0.600
x51.235 y-4.251 z-0.600
x51.210 y-4.222 z-0.600
x51.184 y-4.193 z-0.600
x51.156 y-4.166 z-0.600
x51.127 y-4.141 z-0.600
x51.097 y-4.117 z-0.600
x51.065 y-4.095 z-0.600
x51.032 y-4.074 z-0.600
x50.999 y-4.055 z-0.600
x50.964 y-4.038 z-0.600
x50.928 y-4.022 z-0.600
x50.892 y-4.009 z-0.600
x50.855 y-3.997 z-0.600
x50.818 y-3.987 z-0.600
x50.780 y-3.980 z-0.600
x50.741 y-3.974 z-0.600
x50.703 y-3.970 z-0.600
x50.664 y-3.968 z-0.600
x50.625 y-3.968 z-0.600
x50.587 y-3.971 z-0.600
x50.548 y-3.975 z-0.600
x50.510 y-3.981 z-0.600
x50.472 y-3.989 z-0.600
x50.435 y-3.999 z-0.600
x50.398 y-4.011 z-0.600
x50.362 y-4.025 z-0.600
x50.326 y-4.040 z-0.600
x50.292 y-4.058 z-0.600
x50.258 y-4.077 z-0.600
x50.226 y-4.098 z-0.600
x50.194 y-4.121 z-0.600
x50.164 y-4.145 z-0.600
x50.135 y-4.171 z-0.600
x50.108 y-4.198 z-0.600
x50.081 y-4.227 z-0.600
x50.057 y-4.256 z-0.600
x50.034 y-4.288 z-0.600
x50.012 y-4.320 z-0.600
x49.993 y-4.353 z-0.600
x49.975 y-4.388 z-0.600
x49.959 y-4.423 z-0.600
x49.944 y-4.459 z-0.600
x49.932 y-4.495 z-0.600
x49.921 y-4.533 z-0.600
x49.913 y-4.570 z-0.600
x49.906 y-4.609 z-0.600
x49.901 y-4.647 z-0.600
x49.899 y-4.686 z-0.600
x49.898 y-4.718 z-0.600
x49.898 y-18.405 z-0.600
x49.899 y-18.444 z-0.600
x49.902 y-18.482 z-0.600
x49.907 y-18.521 z-0.600
x49.914 y-18.559 z-0.600
x49.923 y-18.597 z-0.600
x49.934 y-18.634 z-0.600
x49.946 y-18.670 z-0.600
x49.961 y-18.706 z-0.600
x49.978 y-18.741 z-0.600
x49.996 y-18.775 z-0.600
x50.016 y-18.808 z-0.600
x50.037 y-18.841 z-0.600
x50.061 y-18.872 z-0.600
x50.086 y-18.901 z-0.600
x50.118 y-18.935 z-0.600
x50.655 y-19.472 z-0.600
x50.683 y-19.499 z-0.600
x50.712 y-19.524 z-0.600
x50.743 y-19.548 z-0.600
x50.775 y-19.570 z-0.600
x50.808 y-19.590 z-0.600
x50.842 y-19.609 z-0.600
x50.877 y-19.626 z-0.600
x50.912 y-19.641 z-0.600
x50.949 y-19.654 z-0.600
x50.986 y-19.665 z-0.600
x51.023 y-19.674 z-0.600
x51.061 y-19.682 z-0.600
x51.100 y-19.687 z-0.600
x51.138 y-19.691 z-0.600
x51.177 y-19.692 z-0.600
x51.216 y-19.691 z-0.600
x51.254 y-19.689 z-0.600

( Lift to 5.000 )
F2000 z5.000

( Percurso da ferramenta 5 )
( ------------------------- )

( Spindle on )
M3
S500

( Current depth = -0.600 )

( MoveToStartpoint2 )
F2000 G90 z5.000
F2000 x52.786 y-50.549 z5.000
F2000 x52.786 y-50.549 z0.000

( Loop )
G90 F500
x52.786 y-50.549 z-0.600
F500
x52.825 y-50.544 z-0.600
x52.863 y-50.537 z-0.600
x52.901 y-50.528 z-0.600
x52.938 y-50.517 z-0.600
x52.974 y-50.505 z-0.600
x53.010 y-50.490 z-0.600
x53.045 y-50.473 z-0.600
x53.079 y-50.455 z-0.600
x53.112 y-50.435 z-0.600
x53.145 y-50.414 z-0.600
x53.176 y-50.390 z-0.600
x53.205 y-50.365 z-0.600
x53.234 y-50.339 z-0.600
x53.261 y-50.311 z-0.600
x53.286 y-50.282 z-0.600
x53.310 y-50.252 z-0.600
x53.332 y-50.220 z-0.600
x53.353 y-50.187 z-0.600
x53.372 y-50.154 z-0.600
x53.389 y-50.119 z-0.600
x53.405 y-50.083 z-0.600
x53.418 y-50.047 z-0.600
x53.430 y-50.010 z-0.600
x53.440 y-49.973 z-0.600
x53.447 y-49.935 z-0.600
x53.453 y-49.896 z-0.600
x53.457 y-49.858 z-0.600
x53.459 y-49.819 z-0.600
x53.459 y-49.780 z-0.600
x53.456 y-49.742 z-0.600
x53.452 y-49.703 z-0.600
x53.446 y-49.665 z-0.600
x53.438 y-49.627 z-0.600
x53.428 y-49.590 z-0.600
x53.416 y-49.553 z-0.600
x53.402 y-49.517 z-0.600
x53.387 y-49.481 z-0.600
x53.369 y-49.447 z-0.600
x53.350 y-49.413 z-0.600
x53.329 y-49.381 z-0.600
x53.306 y-49.349 z-0.600
x53.282 y-49.319 z-0.600
x53.256 y-49.290 z-0.600
x53.229 y-49.263 z-0.600
x53.200 y-49.236 z-0.600
x53.171 y-49.212 z-0.600
x53.139 y-49.189 z-0.600
x53.107 y-49.167 z-0.600
x53.074 y-49.148 z-0.600
x53.039 y-49.130 z-0.600
x53.004 y-49.114 z-0.600
x52.968 y-49.099 z-0.600
x52.932 y-49.087 z-0.600
x52.894 y-49.076 z-0.600
x52.857 y-49.068 z-0.600
x52.818 y-49.061 z-0.600
x52.780 y-49.056 z-0.600
x52.741 y-49.054 z-0.600
x52.709 y-49.053 z-0.600
x28.762 y-49.053 z-0.600
x24.918 y-45.209 z-0.600
x24.890 y-45.182 z-0.600
x24.861 y-45.157 z-0.600
x24.830 y-45.133 z-0.600
x24.798 y-45.111 z-0.600
x24.765 y-45.091 z-0.600
x24.731 y-45.072 z-0.600
x24.696 y-45.055 z-0.600
x24.661 y-45.040 z-0.600
x24.624 y-45.027 z-0.600
x24.587 y-45.016 z-0.600
x24.550 y-45.007 z-0.600
x24.512 y-44.999 z-0.600
x24.473 y-44.994 z-0.600
x24.435 y-44.990 z-0.600
x24.388 y-44.989 z-0.600
x9.648 y-44.989 z-0.600
x9.671 y-40.844 z-0.600
x21.885 y-28.631 z-0.600
x22.857 y-28.631 z-0.600
x24.493 y-30.267 z-0.600
x24.521 y-30.294 z-0.600
x24.550 y-30.319 z-0.600
x24.581 y-30.343 z-0.600
x24.613 y-30.365 z-0.600
x24.646 y-30.385 z-0.600
x24.680 y-30.404 z-0.600
x24.715 y-30.421 z-0.600
x24.750 y-30.436 z-0.600
x24.787 y-30.449 z-0.600
x24.824 y-30.460 z-0.600
x24.861 y-30.469 z-0.600
x24.899 y-30.477 z-0.600
x24.938 y-30.482 z-0.600
x24.976 y-30.486 z-0.600
x25.023 y-30.487 z-0.600
x27.563 y-30.487 z-0.600
x27.602 y-30.486 z-0.600
x27.640 y-30.483 z-0.600
x27.679 y-30.478 z-0.600
x27.717 y-30.471 z-0.600
x27.755 y-30.462 z-0.600
x27.792 y-30.451 z-0.600
x27.828 y-30.439 z-0.600
x27.864 y-30.424 z-0.600
x27.899 y-30.407 z-0.600
x27.933 y-30.389 z-0.600
x27.966 y-30.369 z-0.600
x27.999 y-30.348 z-0.600
x28.030 y-30.324 z-0.600
x28.059 y-30.299 z-0.600
x28.088 y-30.273 z-0.600
x28.115 y-30.245 z-0.600
x28.140 y-30.216 z-0.600
x28.164 y-30.186 z-0.600
x28.186 y-30.154 z-0.600
x28.207 y-30.121 z-0.600
x28.226 y-30.088 z-0.600
x28.243 y-30.053 z-0.600
x28.259 y-30.017 z-0.600
x28.272 y-29.981 z-0.600
x28.284 y-29.944 z-0.600
x28.294 y-29.907 z-0.600
x28.301 y-29.869 z-0.600
x28.307 y-29.830 z-0.600
x28.311 y-29.792 z-0.600
x28.313 y-29.753 z-0.600
x28.313 y-29.714 z-0.600
x28.310 y-29.676 z-0.600
x28.306 y-29.637 z-0.600
x28.300 y-29.599 z-0.600
x28.292 y-29.561 z-0.600
x28.282 y-29.524 z-0.600
x28.270 y-29.487 z-0.600
x28.256 y-29.451 z-0.600
x28.241 y-29.415 z-0.600
x28.223 y-29.381 z-0.600
x28.204 y-29.347 z-0.600
x28.183 y-29.315 z-0.600
x28.160 y-29.283 z-0.600
x28.136 y-29.253 z-0.600
x28.110 y-29.224 z-0.600
x28.083 y-29.197 z-0.600
x28.054 y-29.170 z-0.600
x28.025 y-29.146 z-0.600
x27.993 y-29.123 z-0.600
x27.961 y-29.101 z-0.600
x27.928 y-29.082 z-0.600
x27.893 y-29.064 z-0.600
x27.858 y-29.048 z-0.600
x27.822 y-29.033 z-0.600
x27.786 y-29.021 z-0.600
x27.748 y-29.010 z-0.600
x27.711 y-29.002 z-0.600
x27.672 y-28.995 z-0.600
x27.634 y-28.990 z-0.600
x27.595 y-28.988 z-0.600
x27.563 y-28.987 z-0.600
x25.333 y-28.987 z-0.600
x23.697 y-27.351 z-0.600
x23.669 y-27.324 z-0.600
x23.640 y-27.299 z-0.600
x23.609 y-27.275 z-0.600
x23.577 y-27.253 z-0.600
x23.544 y-27.233 z-0.600
x23.510 y-27.214 z-0.600
x23.475 y-27.197 z-0.600
x23.440 y-27.182 z-0.600
x23.403 y-27.169 z-0.600
x23.366 y-27.158 z-0.600
x23.329 y-27.149 z-0.600
x23.291 y-27.141 z-0.600
x23.252 y-27.136 z-0.600
x23.214 y-27.132 z-0.600
x23.167 y-27.131 z-0.600
x21.575 y-27.131 z-0.600
x21.536 y-27.132 z-0.600
x21.498 y-27.135 z-0.600
x21.459 y-27.140 z-0.600
x21.421 y-27.147 z-0.600
x21.383 y-27.156 z-0.600
x21.346 y-27.167 z-0.600
x21.310 y-27.179 z-0.600
x21.274 y-27.194 z-0.600
x21.239 y-27.211 z-0.600
x21.205 y-27.229 z-0.600
x21.172 y-27.249 z-0.600
x21.139 y-27.270 z-0.600
x21.108 y-27.294 z-0.600
x21.079 y-27.319 z-0.600
x21.045 y-27.351 z-0.600
x8.393 y-40.002 z-0.600
x8.366 y-40.030 z-0.600
x8.341 y-40.059 z-0.600
x8.317 y-40.090 z-0.600
x8.295 y-40.122 z-0.600
x8.275 y-40.155 z-0.600
x8.256 y-40.189 z-0.600
x8.239 y-40.223 z-0.600
x8.224 y-40.259 z-0.600
x8.211 y-40.296 z-0.600
x8.200 y-40.333 z-0.600
x8.191 y-40.370 z-0.600
x8.183 y-40.408 z-0.600
x8.178 y-40.447 z-0.600
x8.174 y-40.485 z-0.600
x8.173 y-40.528 z-0.600
x8.144 y-45.735 z-0.600
x8.145 y-45.774 z-0.600
x8.148 y-45.812 z-0.600
x8.152 y-45.851 z-0.600
x8.159 y-45.889 z-0.600
x8.168 y-45.926 z-0.600
x8.178 y-45.964 z-0.600
x8.191 y-46.000 z-0.600
x8.205 y-46.036 z-0.600
x8.222 y-46.071 z-0.600
x8.240 y-46.106 z-0.600
x8.260 y-46.139 z-0.600
x8.281 y-46.171 z-0.600
x8.304 y-46.202 z-0.600
x8.329 y-46.232 z-0.600
x8.355 y-46.261 z-0.600
x8.383 y-46.288 z-0.600
x8.412 y-46.313 z-0.600
x8.442 y-46.338 z-0.600
x8.474 y-46.360 z-0.600
x8.506 y-46.381 z-0.600
x8.540 y-46.400 z-0.600
x8.574 y-46.417 z-0.600
x8.610 y-46.433 z-0.600
x8.646 y-46.447 z-0.600
x8.683 y-46.459 z-0.600
x8.720 y-46.469 z-0.600
x8.758 y-46.477 z-0.600
x8.796 y-46.483 z-0.600
x8.835 y-46.487 z-0.600
x8.874 y-46.489 z-0.600
x24.078 y-46.489 z-0.600
x27.922 y-50.333 z-0.600
x27.950 y-50.360 z-0.600
x27.979 y-50.385 z-0.600
x28.010 y-50.409 z-0.600
x28.042 y-50.431 z-0.600
x28.075 y-50.451 z-0.600
x28.109 y-50.470 z-0.600
x28.144 y-50.487 z-0.600
x28.179 y-50.502 z-0.600
x28.216 y-50.515 z-0.600
x28.253 y-50.526 z-0.600
x28.290 y-50.535 z-0.600
x28.328 y-50.543 z-0.600
x28.367 y-50.548 z-0.600
x28.405 y-50.552 z-0.600
x28.452 y-50.553 z-0.600
x52.709 y-50.553 z-0.600
x52.748 y-50.552 z-0.600
x52.786 y-50.549 z-0.600

( Lift to 5.000 )
F2000 z5.000

( Percurso da ferramenta 7 )
( ------------------------- )

( Spindle on )
M3
S500

( Current depth = -0.600 )

( MoveToStartpoint2 )
F2000 G90 z5.000
F2000 x55.471 y-50.674 z5.000
F2000 x55.471 y-50.674 z0.000

( Loop )
G90 F500
x55.471 y-50.674 z-0.600
F500
x55.509 y-50.668 z-0.600
x55.547 y-50.660 z-0.600
x55.584 y-50.651 z-0.600
x55.621 y-50.639 z-0.600
x55.657 y-50.625 z-0.600
x55.693 y-50.610 z-0.600
x55.728 y-50.592 z-0.600
x55.761 y-50.573 z-0.600
x55.794 y-50.553 z-0.600
x55.826 y-50.530 z-0.600
x55.856 y-50.506 z-0.600
x55.885 y-50.481 z-0.600
x55.913 y-50.454 z-0.600
x55.939 y-50.425 z-0.600
x55.964 y-50.396 z-0.600
x55.987 y-50.365 z-0.600
x56.009 y-50.333 z-0.600
x56.029 y-50.299 z-0.600
x56.047 y-50.265 z-0.600
x56.063 y-50.230 z-0.600
x56.078 y-50.194 z-0.600
x56.091 y-50.158 z-0.600
x56.101 y-50.120 z-0.600
x56.110 y-50.083 z-0.600
x56.117 y-50.045 z-0.600
x56.122 y-50.006 z-0.600
x56.125 y-49.968 z-0.600
x56.126 y-49.929 z-0.600
x56.125 y-49.890 z-0.600
x56.122 y-49.852 z-0.600
x56.117 y-49.813 z-0.600
x56.110 y-49.775 z-0.600
x56.101 y-49.737 z-0.600
x56.092 y-49.706 z-0.600
x54.822 y-45.642 z-0.600
x54.809 y-45.606 z-0.600
x54.795 y-45.570 z-0.600
x54.779 y-45.535 z-0.600
x54.761 y-45.500 z-0.600
x54.741 y-45.467 z-0.600
x54.720 y-45.435 z-0.600
x54.696 y-45.404 z-0.600
x54.672 y-45.374 z-0.600
x54.646 y-45.345 z-0.600
x54.618 y-45.318 z-0.600
x54.589 y-45.292 z-0.600
x54.559 y-45.268 z-0.600
x54.527 y-45.246 z-0.600
x54.495 y-45.225 z-0.600
x54.461 y-45.205 z-0.600
x54.427 y-45.188 z-0.600
x54.391 y-45.172 z-0.600
x54.355 y-45.159 z-0.600
x54.318 y-45.147 z-0.600
x54.281 y-45.137 z-0.600
x54.243 y-45.129 z-0.600
x54.205 y-45.123 z-0.600
x54.166 y-45.118 z-0.600
x54.121 y-45.116 z-0.600
x48.170 y-44.995 z-0.600
x41.775 y-38.600 z-0.600
x41.775 y-34.182 z-0.600
x41.774 y-34.143 z-0.600
x41.771 y-34.105 z-0.600
x41.766 y-34.066 z-0.600
x41.759 y-34.028 z-0.600
x41.750 y-33.990 z-0.600
x41.739 y-33.953 z-0.600
x41.727 y-33.917 z-0.600
x41.712 y-33.881 z-0.600
x41.695 y-33.846 z-0.600
x41.677 y-33.812 z-0.600
x41.657 y-33.779 z-0.600
x41.636 y-33.746 z-0.600
x41.612 y-33.715 z-0.600
x41.587 y-33.686 z-0.600
x41.561 y-33.657 z-0.600
x41.533 y-33.630 z-0.600
x41.504 y-33.605 z-0.600
x41.474 y-33.581 z-0.600
x41.442 y-33.559 z-0.600
x41.409 y-33.538 z-0.600
x41.376 y-33.519 z-0.600
x41.341 y-33.502 z-0.600
x41.305 y-33.486 z-0.600
x41.269 y-33.473 z-0.600
x41.232 y-33.461 z-0.600
x41.195 y-33.451 z-0.600
x41.157 y-33.444 z-0.600
x41.118 y-33.438 z-0.600
x41.080 y-33.434 z-0.600
x41.041 y-33.432 z-0.600
x41.002 y-33.432 z-0.600
x40.964 y-33.435 z-0.600
x40.925 y-33.439 z-0.600
x40.887 y-33.445 z-0.600
x40.849 y-33.453 z-0.600
x40.812 y-33.463 z-0.600
x40.775 y-33.475 z-0.600
x40.739 y-33.489 z-0.600
x40.703 y-33.504 z-0.600
x40.669 y-33.522 z-0.600
x40.635 y-33.541 z-0.600
x40.603 y-33.562 z-0.600
x40.571 y-33.585 z-0.600
x40.541 y-33.609 z-0.600
x40.512 y-33.635 z-0.600
x40.485 y-33.662 z-0.600
x40.458 y-33.691 z-0.600
x40.434 y-33.720 z-0.600
x40.411 y-33.752 z-0.600
x40.389 y-33.784 z-0.600
x40.370 y-33.817 z-0.600
x40.352 y-33.852 z-0.600
x40.336 y-33.887 z-0.600
x40.321 y-33.923 z-0.600
x40.309 y-33.959 z-0.600
x40.298 y-33.997 z-0.600
x40.290 y-34.034 z-0.600
x40.283 y-34.073 z-0.600
x40.278 y-34.111 z-0.600
x40.276 y-34.150 z-0.600
x40.275 y-34.182 z-0.600
x40.275 y-38.910 z-0.600
x40.276 y-38.949 z-0.600
x40.279 y-38.987 z-0.600
x40.284 y-39.026 z-0.600
x40.291 y-39.064 z-0.600
x40.300 y-39.102 z-0.600
x40.311 y-39.139 z-0.600
x40.323 y-39.175 z-0.600
x40.338 y-39.211 z-0.600
x40.355 y-39.246 z-0.600
x40.373 y-39.280 z-0.600
x40.393 y-39.313 z-0.600
x40.414 y-39.346 z-0.600
x40.438 y-39.377 z-0.600
x40.463 y-39.406 z-0.600
x40.495 y-39.440 z-0.600
x47.324 y-46.269 z-0.600
x47.352 y-46.296 z-0.600
x47.381 y-46.321 z-0.600
x47.412 y-46.345 z-0.600
x47.444 y-46.367 z-0.600
x47.477 y-46.387 z-0.600
x47.511 y-46.406 z-0.600
x47.546 y-46.423 z-0.600
x47.581 y-46.438 z-0.600
x47.618 y-46.451 z-0.600
x47.655 y-46.462 z-0.600
x47.692 y-46.471 z-0.600
x47.730 y-46.479 z-0.600
x47.769 y-46.484 z-0.600
x47.807 y-46.488 z-0.600
x47.839 y-46.489 z-0.600
x53.551 y-46.605 z-0.600
x54.660 y-50.154 z-0.600
x54.673 y-50.190 z-0.600
x54.687 y-50.226 z-0.600
x54.703 y-50.261 z-0.600
x54.721 y-50.296 z-0.600
x54.741 y-50.329 z-0.600
x54.762 y-50.361 z-0.600
x54.786 y-50.392 z-0.600
x54.810 y-50.422 z-0.600
x54.836 y-50.451 z-0.600
x54.864 y-50.478 z-0.600
x54.893 y-50.504 z-0.600
x54.923 y-50.528 z-0.600
x54.955 y-50.550 z-0.600
x54.987 y-50.571 z-0.600
x55.021 y-50.591 z-0.600
x55.055 y-50.608 z-0.600
x55.091 y-50.624 z-0.600
x55.127 y-50.637 z-0.600
x55.164 y-50.649 z-0.600
x55.201 y-50.659 z-0.600
x55.239 y-50.667 z-0.600
x55.277 y-50.673 z-0.600
x55.316 y-50.678 z-0.600
x55.355 y-50.680 z-0.600
x55.393 y-50.680 z-0.600
x55.432 y-50.678 z-0.600
x55.471 y-50.674 z-0.600

( Lift to 5.000 )
F2000 z5.000

( Percurso da ferramenta 6 )
( ------------------------- )

( Spindle on )
M3
S500

( Current depth = -0.600 )

( MoveToStartpoint2 )
F2000 G90 z5.000
F2000 x58.016 y-50.673 z5.000
F2000 x58.016 y-50.673 z0.000

( Loop )
G90 F500
x58.016 y-50.673 z-0.600
F500
x58.054 y-50.667 z-0.600
x58.092 y-50.659 z-0.600
x58.129 y-50.649 z-0.600
x58.166 y-50.637 z-0.600
x58.202 y-50.623 z-0.600
x58.238 y-50.608 z-0.600
x58.272 y-50.590 z-0.600
x58.306 y-50.571 z-0.600
x58.337 y-50.550 z-0.600
x58.370 y-50.527 z-0.600
x58.400 y-50.503 z-0.600
x58.429 y-50.477 z-0.600
x58.456 y-50.450 z-0.600
x58.483 y-50.421 z-0.600
x58.507 y-50.392 z-0.600
x58.530 y-50.360 z-0.600
x58.552 y-50.328 z-0.600
x58.571 y-50.295 z-0.600
x58.589 y-50.260 z-0.600
x58.605 y-50.225 z-0.600
x58.620 y-50.189 z-0.600
x58.632 y-50.153 z-0.600
x58.643 y-50.115 z-0.600
x58.651 y-50.078 z-0.600
x58.658 y-50.039 z-0.600
x58.663 y-50.001 z-0.600
x58.665 y-49.962 z-0.600
x58.666 y-49.930 z-0.600
x58.666 y-45.993 z-0.600
x58.665 y-45.954 z-0.600
x58.662 y-45.916 z-0.600
x58.657 y-45.877 z-0.600
x58.650 y-45.839 z-0.600
x58.641 y-45.801 z-0.600
x58.630 y-45.764 z-0.600
x58.618 y-45.728 z-0.600
x58.603 y-45.692 z-0.600
x58.586 y-45.657 z-0.600
x58.568 y-45.623 z-0.600
x58.548 y-45.590 z-0.600
x58.527 y-45.557 z-0.600
x58.503 y-45.526 z-0.600
x58.477 y-45.497 z-0.600
x58.446 y-45.463 z-0.600
x44.476 y-31.493 z-0.600
x44.448 y-31.466 z-0.600
x44.419 y-31.441 z-0.600
x44.388 y-31.417 z-0.600
x44.356 y-31.395 z-0.600
x44.323 y-31.375 z-0.600
x44.289 y-31.356 z-0.600
x44.254 y-31.339 z-0.600
x44.219 y-31.324 z-0.600
x44.182 y-31.311 z-0.600
x44.145 y-31.300 z-0.600
x44.108 y-31.291 z-0.600
x44.070 y-31.283 z-0.600
x44.031 y-31.278 z-0.600
x43.993 y-31.274 z-0.600
x43.946 y-31.273 z-0.600
x23.936 y-31.273 z-0.600
x23.233 y-30.570 z-0.600
x23.233 y-29.737 z-0.600
x23.232 y-29.698 z-0.600
x23.229 y-29.660 z-0.600
x23.224 y-29.621 z-0.600
x23.217 y-29.583 z-0.600
x23.208 y-29.545 z-0.600
x23.197 y-29.508 z-0.600
x23.185 y-29.472 z-0.600
x23.170 y-29.436 z-0.600
x23.153 y-29.401 z-0.600
x23.135 y-29.367 z-0.600
x23.115 y-29.334 z-0.600
x23.094 y-29.301 z-0.600
x23.070 y-29.270 z-0.600
x23.045 y-29.241 z-0.600
x23.019 y-29.212 z-0.600
x22.991 y-29.185 z-0.600
x22.962 y-29.160 z-0.600
x22.932 y-29.136 z-0.600
x22.900 y-29.114 z-0.600
x22.867 y-29.093 z-0.600
x22.834 y-29.074 z-0.600
x22.799 y-29.057 z-0.600
x22.763 y-29.041 z-0.600
x22.727 y-29.028 z-0.600
x22.690 y-29.016 z-0.600
x22.653 y-29.006 z-0.600
x22.615 y-28.999 z-0.600
x22.576 y-28.993 z-0.600
x22.538 y-28.989 z-0.600
x22.499 y-28.987 z-0.600
x22.460 y-28.987 z-0.600
x22.422 y-28.990 z-0.600
x22.383 y-28.994 z-0.600
x22.345 y-29.000 z-0.600
x22.307 y-29.008 z-0.600
x22.270 y-29.018 z-0.600
x22.233 y-29.030 z-0.600
x22.197 y-29.044 z-0.600
x22.161 y-29.059 z-0.600
x22.127 y-29.077 z-0.600
x22.093 y-29.096 z-0.600
x22.061 y-29.117 z-0.600
x22.029 y-29.140 z-0.600
x21.999 y-29.164 z-0.600
x21.970 y-29.190 z-0.600
x21.943 y-29.217 z-0.600
x21.916 y-29.246 z-0.600
x21.892 y-29.275 z-0.600
x21.869 y-29.307 z-0.600
x21.847 y-29.339 z-0.600
x21.828 y-29.372 z-0.600
x21.810 y-29.407 z-0.600
x21.794 y-29.442 z-0.600
x21.779 y-29.478 z-0.600
x21.767 y-29.514 z-0.600
x21.756 y-29.552 z-0.600
x21.748 y-29.589 z-0.600
x21.741 y-29.628 z-0.600
x21.736 y-29.666 z-0.600
x21.734 y-29.705 z-0.600
x21.733 y-29.737 z-0.600
x21.733 y-30.880 z-0.600
x21.734 y-30.919 z-0.600
x21.737 y-30.957 z-0.600
x21.742 y-30.996 z-0.600
x21.749 y-31.034 z-0.600
x21.758 y-31.072 z-0.600
x21.769 y-31.109 z-0.600
x21.781 y-31.145 z-0.600
x21.796 y-31.181 z-0.600
x21.813 y-31.216 z-0.600
x21.831 y-31.250 z-0.600
x21.851 y-31.283 z-0.600
x21.872 y-31.316 z-0.600
x21.896 y-31.347 z-0.600
x21.921 y-31.376 z-0.600
x21.953 y-31.410 z-0.600
x23.096 y-32.553 z-0.600
x23.124 y-32.580 z-0.600
x23.153 y-32.605 z-0.600
x23.184 y-32.629 z-0.600
x23.216 y-32.651 z-0.600
x23.249 y-32.671 z-0.600
x23.283 y-32.690 z-0.600
x23.318 y-32.707 z-0.600
x23.353 y-32.722 z-0.600
x23.390 y-32.735 z-0.600
x23.427 y-32.746 z-0.600
x23.464 y-32.755 z-0.600
x23.502 y-32.763 z-0.600
x23.541 y-32.768 z-0.600
x23.579 y-32.772 z-0.600
x23.626 y-32.773 z-0.600
x43.636 y-32.773 z-0.600
x57.166 y-46.303 z-0.600
x57.166 y-49.930 z-0.600
x57.167 y-49.969 z-0.600
x57.170 y-50.007 z-0.600
x57.175 y-50.046 z-0.600
x57.182 y-50.084 z-0.600
x57.191 y-50.122 z-0.600
x57.202 y-50.159 z-0.600
x57.214 y-50.195 z-0.600
x57.229 y-50.231 z-0.600
x57.245 y-50.266 z-0.600
x57.263 y-50.300 z-0.600
x57.305 y-50.366 z-0.600
x57.328 y-50.397 z-0.600
x57.354 y-50.426 z-0.600
x57.379 y-50.455 z-0.600
x57.408 y-50.482 z-0.600
x57.437 y-50.507 z-0.600
x57.467 y-50.531 z-0.600
x57.498 y-50.553 z-0.600
x57.532 y-50.574 z-0.600
x57.565 y-50.593 z-0.600
x57.599 y-50.610 z-0.600
x57.635 y-50.626 z-0.600
x57.672 y-50.639 z-0.600
x57.709 y-50.651 z-0.600
x57.745 y-50.661 z-0.600
x57.784 y-50.668 z-0.600
x57.822 y-50.674 z-0.600
x57.861 y-50.678 z-0.600
x57.900 y-50.680 z-0.600
x57.938 y-50.680 z-0.600
x57.977 y-50.677 z-0.600
x58.016 y-50.673 z-0.600

( Lift to 5.000 )
F2000 z5.000

( Percurso da ferramenta 9 )
( ------------------------- )

( Spindle on )
M3
S500

( Current depth = -0.600 )

( MoveToStartpoint2 )
F2000 G90 z5.000
F2000 x64.239 y-50.673 z5.000
F2000 x64.239 y-50.673 z0.000

( Loop )
G90 F500
x64.239 y-50.673 z-0.600
F500
x64.277 y-50.667 z-0.600
x64.315 y-50.659 z-0.600
x64.352 y-50.649 z-0.600
x64.389 y-50.637 z-0.600
x64.425 y-50.623 z-0.600
x64.461 y-50.608 z-0.600
x64.495 y-50.590 z-0.600
x64.529 y-50.571 z-0.600
x64.561 y-50.550 z-0.600
x64.593 y-50.527 z-0.600
x64.623 y-50.503 z-0.600
x64.652 y-50.477 z-0.600
x64.679 y-50.450 z-0.600
x64.706 y-50.421 z-0.600
x64.730 y-50.392 z-0.600
x64.753 y-50.360 z-0.600
x64.775 y-50.328 z-0.600
x64.794 y-50.295 z-0.600
x64.812 y-50.260 z-0.600
x64.828 y-50.225 z-0.600
x64.843 y-50.189 z-0.600
x64.855 y-50.153 z-0.600
x64.866 y-50.115 z-0.600
x64.874 y-50.078 z-0.600
x64.881 y-50.039 z-0.600
x64.886 y-50.001 z-0.600
x64.888 y-49.962 z-0.600
x64.889 y-49.930 z-0.600
x64.889 y-34.182 z-0.600
x64.888 y-34.143 z-0.600
x64.885 y-34.105 z-0.600
x64.880 y-34.066 z-0.600
x64.873 y-34.028 z-0.600
x64.864 y-33.990 z-0.600
x64.853 y-33.953 z-0.600
x64.841 y-33.917 z-0.600
x64.826 y-33.881 z-0.600
x64.809 y-33.846 z-0.600
x64.791 y-33.812 z-0.600
x64.771 y-33.779 z-0.600
x64.750 y-33.746 z-0.600
x64.726 y-33.715 z-0.600
x64.701 y-33.686 z-0.600
x64.675 y-33.657 z-0.600
x64.647 y-33.630 z-0.600
x64.618 y-33.605 z-0.600
x64.588 y-33.581 z-0.600
x64.556 y-33.559 z-0.600
x64.523 y-33.538 z-0.600
x64.490 y-33.519 z-0.600
x64.455 y-33.502 z-0.600
x64.419 y-33.486 z-0.600
x64.383 y-33.473 z-0.600
x64.346 y-33.461 z-0.600
x64.309 y-33.451 z-0.600
x64.271 y-33.444 z-0.600
x64.232 y-33.438 z-0.600
x64.194 y-33.434 z-0.600
x64.139 y-33.432 z-0.600
x63.885 y-33.432 z-0.600
x63.846 y-33.433 z-0.600
x63.808 y-33.436 z-0.600
x63.769 y-33.441 z-0.600
x63.731 y-33.448 z-0.600
x63.693 y-33.457 z-0.600
x63.656 y-33.468 z-0.600
x63.620 y-33.480 z-0.600
x63.584 y-33.495 z-0.600
x63.549 y-33.512 z-0.600
x63.515 y-33.530 z-0.600
x63.482 y-33.550 z-0.600
x63.449 y-33.571 z-0.600
x63.418 y-33.595 z-0.600
x63.389 y-33.620 z-0.600
x63.360 y-33.646 z-0.600
x63.333 y-33.674 z-0.600
x63.308 y-33.703 z-0.600
x63.284 y-33.733 z-0.600
x63.262 y-33.765 z-0.600
x63.241 y-33.798 z-0.600
x63.222 y-33.831 z-0.600
x63.205 y-33.866 z-0.600
x63.189 y-33.902 z-0.600
x63.176 y-33.938 z-0.600
x63.164 y-33.975 z-0.600
x63.154 y-34.012 z-0.600
x63.147 y-34.050 z-0.600
x63.141 y-34.089 z-0.600
x63.137 y-34.127 z-0.600
x63.135 y-34.166 z-0.600
x63.135 y-34.205 z-0.600
x63.138 y-34.243 z-0.600
x63.142 y-34.282 z-0.600
x63.148 y-34.320 z-0.600
x63.156 y-34.358 z-0.600
x63.166 y-34.395 z-0.600
x63.178 y-34.432 z-0.600
x63.192 y-34.468 z-0.600
x63.207 y-34.504 z-0.600
x63.225 y-34.538 z-0.600
x63.244 y-34.572 z-0.600
x63.265 y-34.604 z-0.600
x63.288 y-34.636 z-0.600
x63.312 y-34.666 z-0.600
x63.338 y-34.695 z-0.600
x63.365 y-34.722 z-0.600
x63.389 y-34.744 z-0.600
x63.389 y-49.930 z-0.600
x63.390 y-49.969 z-0.600
x63.393 y-50.007 z-0.600
x63.398 y-50.046 z-0.600
x63.405 y-50.084 z-0.600
x63.414 y-50.122 z-0.600
x63.425 y-50.159 z-0.600
x63.437 y-50.195 z-0.600
x63.452 y-50.231 z-0.600
x63.469 y-50.266 z-0.600
x63.487 y-50.300 z-0.600
x63.507 y-50.333 z-0.600
x63.528 y-50.366 z-0.600
x63.552 y-50.397 z-0.600
x63.577 y-50.426 z-0.600
x63.603 y-50.455 z-0.600
x63.631 y-50.482 z-0.600
x63.660 y-50.507 z-0.600
x63.690 y-50.531 z-0.600
x63.722 y-50.553 z-0.600
x63.755 y-50.574 z-0.600
x63.788 y-50.593 z-0.600
x63.823 y-50.610 z-0.600
x63.859 y-50.626 z-0.600
x63.895 y-50.639 z-0.600
x63.932 y-50.651 z-0.600
x63.969 y-50.661 z-0.600
x64.007 y-50.668 z-0.600
x64.046 y-50.674 z-0.600
x64.084 y-50.678 z-0.600
x64.123 y-50.680 z-0.600
x64.162 y-50.680 z-0.600
x64.200 y-50.677 z-0.600
x64.239 y-50.673 z-0.600

( Lift to 5.000 )
F2000 z5.000

( Percurso da ferramenta 8 )
( ------------------------- )

( Spindle on )
M3
S500

( Current depth = -0.600 )

( MoveToStartpoint2 )
F2000 G90 z5.000
F2000 x66.779 y-50.673 z5.000
F2000 x66.779 y-50.673 z0.000

( Loop )
G90 F500
x66.779 y-50.673 z-0.600
F500
x66.817 y-50.667 z-0.600
x66.855 y-50.659 z-0.600
x66.892 y-50.649 z-0.600
x66.929 y-50.637 z-0.600
x66.965 y-50.623 z-0.600
x67.001 y-50.608 z-0.600
x67.035 y-50.590 z-0.600
x67.069 y-50.571 z-0.600
x67.101 y-50.550 z-0.600
x67.133 y-50.527 z-0.600
x67.163 y-50.503 z-0.600
x67.192 y-50.477 z-0.600
x67.219 y-50.450 z-0.600
x67.246 y-50.421 z-0.600
x67.270 y-50.392 z-0.600
x67.293 y-50.360 z-0.600
x67.315 y-50.328 z-0.600
x67.334 y-50.295 z-0.600
x67.352 y-50.260 z-0.600
x67.368 y-50.225 z-0.600
x67.383 y-50.189 z-0.600
x67.395 y-50.153 z-0.600
x67.406 y-50.115 z-0.600
x67.414 y-50.078 z-0.600
x67.421 y-50.039 z-0.600
x67.426 y-50.001 z-0.600
x67.428 y-49.962 z-0.600
x67.429 y-49.930 z-0.600
x67.429 y-34.436 z-0.600
x67.428 y-34.397 z-0.600
x67.425 y-34.359 z-0.600
x67.420 y-34.320 z-0.600
x67.413 y-34.282 z-0.600
x67.404 y-34.244 z-0.600
x67.393 y-34.207 z-0.600
x67.381 y-34.171 z-0.600
x67.366 y-34.135 z-0.600
x67.349 y-34.100 z-0.600
x67.331 y-34.066 z-0.600
x67.311 y-34.033 z-0.600
x67.290 y-34.000 z-0.600
x67.266 y-33.969 z-0.600
x67.241 y-33.940 z-0.600
x67.209 y-33.906 z-0.600
x66.955 y-33.652 z-0.600
x66.927 y-33.625 z-0.600
x66.898 y-33.600 z-0.600
x66.867 y-33.576 z-0.600
x66.835 y-33.554 z-0.600
x66.802 y-33.534 z-0.600
x66.768 y-33.515 z-0.600
x66.733 y-33.498 z-0.600
x66.698 y-33.483 z-0.600
x66.661 y-33.470 z-0.600
x66.624 y-33.459 z-0.600
x66.587 y-33.450 z-0.600
x66.549 y-33.442 z-0.600
x66.510 y-33.437 z-0.600
x66.472 y-33.433 z-0.600
x66.433 y-33.432 z-0.600
x66.394 y-33.433 z-0.600
x66.356 y-33.435 z-0.600
x66.317 y-33.440 z-0.600
x66.279 y-33.446 z-0.600
x66.241 y-33.455 z-0.600
x66.204 y-33.465 z-0.600
x66.167 y-33.478 z-0.600
x66.131 y-33.492 z-0.600
x66.096 y-33.508 z-0.600
x66.062 y-33.526 z-0.600
x66.028 y-33.545 z-0.600
x65.996 y-33.567 z-0.600
x65.965 y-33.590 z-0.600
x65.935 y-33.614 z-0.600
x65.906 y-33.640 z-0.600
x65.879 y-33.668 z-0.600
x65.853 y-33.697 z-0.600
x65.829 y-33.727 z-0.600
x65.806 y-33.758 z-0.600
x65.785 y-33.791 z-0.600
x65.766 y-33.824 z-0.600
x65.748 y-33.859 z-0.600
x65.732 y-33.894 z-0.600
x65.718 y-33.930 z-0.600
x65.706 y-33.967 z-0.600
x65.696 y-34.005 z-0.600
x65.688 y-34.042 z-0.600
x65.682 y-34.081 z-0.600
x65.678 y-34.119 z-0.600
x65.675 y-34.158 z-0.600
x65.675 y-34.196 z-0.600
x65.677 y-34.235 z-0.600
x65.681 y-34.274 z-0.600
x65.686 y-34.312 z-0.600
x65.694 y-34.350 z-0.600
x65.704 y-34.387 z-0.600
x65.715 y-34.424 z-0.600
x65.729 y-34.461 z-0.600
x65.744 y-34.496 z-0.600
x65.761 y-34.531 z-0.600
x65.780 y-34.565 z-0.600
x65.801 y-34.598 z-0.600
x65.823 y-34.629 z-0.600
x65.847 y-34.660 z-0.600
x65.872 y-34.689 z-0.600
x65.929 y-34.746 z-0.600
x65.929 y-49.930 z-0.600
x65.930 y-49.969 z-0.600
x65.933 y-50.007 z-0.600
x65.938 y-50.046 z-0.600
x65.945 y-50.084 z-0.600
x65.954 y-50.122 z-0.600
x65.965 y-50.159 z-0.600
x65.977 y-50.195 z-0.600
x65.992 y-50.231 z-0.600
x66.009 y-50.266 z-0.600
x66.027 y-50.300 z-0.600
x66.047 y-50.333 z-0.600
x66.068 y-50.366 z-0.600
x66.092 y-50.397 z-0.600
x66.117 y-50.426 z-0.600
x66.143 y-50.455 z-0.600
x66.171 y-50.482 z-0.600
x66.200 y-50.507 z-0.600
x66.230 y-50.531 z-0.600
x66.262 y-50.553 z-0.600
x66.295 y-50.574 z-0.600
x66.328 y-50.593 z-0.600
x66.363 y-50.610 z-0.600
x66.399 y-50.626 z-0.600
x66.435 y-50.639 z-0.600
x66.472 y-50.651 z-0.600
x66.509 y-50.661 z-0.600
x66.547 y-50.668 z-0.600
x66.586 y-50.674 z-0.600
x66.624 y-50.678 z-0.600
x66.663 y-50.680 z-0.600
x66.702 y-50.680 z-0.600
x66.740 y-50.677 z-0.600
x66.779 y-50.673 z-0.600

( Lift to 5.000 )
F2000 z5.000

( Percurso da ferramenta 10 )
( ------------------------- )

( Spindle on )
M3
S500

( Current depth = -0.600 )

( MoveToStartpoint2 )
F2000 G90 z5.000
F2000 x28.446 y-46.483 z5.000
F2000 x28.446 y-46.483 z0.000

( Loop )
G90 F500
x28.446 y-46.483 z-0.600
F500
x28.484 y-46.478 z-0.600
x28.522 y-46.470 z-0.600
x28.559 y-46.460 z-0.600
x28.596 y-46.449 z-0.600
x28.633 y-46.435 z-0.600
x28.668 y-46.420 z-0.600
x28.703 y-46.403 z-0.600
x28.737 y-46.384 z-0.600
x28.770 y-46.363 z-0.600
x28.801 y-46.341 z-0.600
x28.832 y-46.317 z-0.600
x28.861 y-46.292 z-0.600
x28.953 y-46.200 z-0.600
x28.980 y-46.172 z-0.600
x29.005 y-46.143 z-0.600
x29.029 y-46.112 z-0.600
x29.051 y-46.080 z-0.600
x29.071 y-46.047 z-0.600
x29.090 y-46.013 z-0.600
x29.107 y-45.978 z-0.600
x29.122 y-45.943 z-0.600
x29.135 y-45.906 z-0.600
x29.146 y-45.869 z-0.600
x29.155 y-45.832 z-0.600
x29.163 y-45.794 z-0.600
x29.168 y-45.755 z-0.600
x29.172 y-45.717 z-0.600
x29.173 y-45.670 z-0.600
x29.173 y-40.532 z-0.600
x29.172 y-40.493 z-0.600
x29.169 y-40.455 z-0.600
x29.164 y-40.416 z-0.600
x29.157 y-40.378 z-0.600
x29.148 y-40.340 z-0.600
x29.137 y-40.303 z-0.600
x29.125 y-40.267 z-0.600
x29.110 y-40.231 z-0.600
x29.093 y-40.196 z-0.600
x29.075 y-40.162 z-0.600
x29.055 y-40.129 z-0.600
x29.034 y-40.096 z-0.600
x29.010 y-40.065 z-0.600
x28.985 y-40.036 z-0.600
x28.959 y-40.007 z-0.600
x28.931 y-39.980 z-0.600
x28.902 y-39.955 z-0.600
x28.872 y-39.931 z-0.600
x28.840 y-39.909 z-0.600
x28.807 y-39.888 z-0.600
x28.774 y-39.869 z-0.600
x28.739 y-39.852 z-0.600
x28.703 y-39.836 z-0.600
x28.667 y-39.823 z-0.600
x28.630 y-39.811 z-0.600
x28.593 y-39.801 z-0.600
x28.555 y-39.794 z-0.600
x28.516 y-39.788 z-0.600
x28.478 y-39.784 z-0.600
x28.439 y-39.782 z-0.600
x28.400 y-39.782 z-0.600
x28.362 y-39.785 z-0.600
x28.323 y-39.789 z-0.600
x28.285 y-39.795 z-0.600
x28.247 y-39.803 z-0.600
x28.210 y-39.813 z-0.600
x28.173 y-39.825 z-0.600
x28.137 y-39.839 z-0.600
x28.101 y-39.854 z-0.600
x28.067 y-39.872 z-0.600
x28.033 y-39.891 z-0.600
x28.001 y-39.912 z-0.600
x27.969 y-39.935 z-0.600
x27.939 y-39.959 z-0.600
x27.910 y-39.985 z-0.600
x27.883 y-40.012 z-0.600
x27.856 y-40.041 z-0.600
x27.832 y-40.070 z-0.600
x27.809 y-40.102 z-0.600
x27.787 y-40.134 z-0.600
x27.768 y-40.167 z-0.600
x27.750 y-40.202 z-0.600
x27.734 y-40.237 z-0.600
x27.719 y-40.273 z-0.600
x27.707 y-40.309 z-0.600
x27.696 y-40.347 z-0.600
x27.688 y-40.384 z-0.600
x27.681 y-40.423 z-0.600
x27.676 y-40.461 z-0.600
x27.674 y-40.500 z-0.600
x27.673 y-40.532 z-0.600
x27.673 y-45.425 z-0.600
x27.670 y-45.431 z-0.600
x27.655 y-45.466 z-0.600
x27.642 y-45.503 z-0.600
x27.631 y-45.540 z-0.600
x27.622 y-45.577 z-0.600
x27.614 y-45.615 z-0.600
x27.609 y-45.654 z-0.600
x27.605 y-45.692 z-0.600
x27.604 y-45.731 z-0.600
x27.605 y-45.770 z-0.600
x27.607 y-45.808 z-0.600
x27.612 y-45.847 z-0.600
x27.618 y-45.885 z-0.600
x27.627 y-45.923 z-0.600
x27.637 y-45.960 z-0.600
x27.650 y-45.997 z-0.600
x27.664 y-46.033 z-0.600
x27.680 y-46.068 z-0.600
x27.698 y-46.102 z-0.600
x27.717 y-46.136 z-0.600
x27.739 y-46.168 z-0.600
x27.762 y-46.199 z-0.600
x27.786 y-46.229 z-0.600
x27.812 y-46.258 z-0.600
x27.840 y-46.285 z-0.600
x27.869 y-46.311 z-0.600
x27.899 y-46.335 z-0.600
x27.930 y-46.358 z-0.600
x27.963 y-46.379 z-0.600
x27.996 y-46.398 z-0.600
x28.031 y-46.416 z-0.600
x28.066 y-46.432 z-0.600
x28.102 y-46.446 z-0.600
x28.139 y-46.458 z-0.600
x28.177 y-46.468 z-0.600
x28.214 y-46.476 z-0.600
x28.253 y-46.482 z-0.600
x28.291 y-46.486 z-0.600
x28.330 y-46.489 z-0.600
x28.368 y-46.489 z-0.600
x28.407 y-46.487 z-0.600
x28.446 y-46.483 z-0.600

( Lift to 5.000 )
F2000 z5.000

( Program end, back to origin )
G90 F2000 z5.000

( Spindle off )
M5
F2000 x0.000 y0.000 z5.000
