( Created by GrblGru )
( 20.03.2024 10:52:08 )



( Additional commands from settings )
G1 F200 Z25
G4 P2

( Job: bottomsoldermasklayer  -> Bohrung 3.175mm )
( ------------------------------- )

( Job mode = 2, DRILL )
( Type of tool = 0, SPINDLE )

( Plano de segurança = 1 )
( Soma da profundidade = 2.5 )
( Profundidade por passo = 2.5 )
( Rampa de Mergulho = 0 )
( Tamanho de partição = 2 )
( Avanço de corte = 800 )
( Avanço rápido = 2000 )
( Avanço de mergulho = 100 )
( Tool = Endmill 3.175mm )
( Tool diameter = 3.175 )



G1 G90 F100

( Spindle on )
M3
S1000

( MoveToStartpoint )
F2000 G90 z1.000
F2000 x8.670 y-12.465 z1.000
F100 x8.670 y-12.465 z-2.500

F2000 x8.670 y-12.465 z1.000

( MoveToStartpoint )
F2000 G90 z1.000
F2000 x5.593 y-18.093 z1.000
F100 x5.593 y-18.093 z-2.500

F2000 x5.593 y-18.093 z1.000

( MoveToStartpoint )
F2000 G90 z1.000
F2000 x5.593 y-23.093 z1.000
F100 x5.593 y-23.093 z-2.500

F2000 x5.593 y-23.093 z1.000

( MoveToStartpoint )
F2000 G90 z1.000
F2000 x13.340 y-22.712 z1.000
F100 x13.340 y-22.712 z-2.500

F2000 x13.340 y-22.712 z1.000

( MoveToStartpoint )
F2000 G90 z1.000
F2000 x13.340 y-17.712 z1.000
F100 x13.340 y-17.712 z-2.500

F2000 x13.340 y-17.712 z1.000

( MoveToStartpoint )
F2000 G90 z1.000
F2000 x22.484 y-22.117 z1.000
F100 x22.484 y-22.117 z-2.500

F2000 x22.484 y-22.117 z1.000

( MoveToStartpoint )
F2000 G90 z1.000
F2000 x25.024 y-22.117 z1.000
F100 x25.024 y-22.117 z-2.500

F2000 x25.024 y-22.117 z1.000

( MoveToStartpoint )
F2000 G90 z1.000
F2000 x27.564 y-22.117 z1.000
F100 x27.564 y-22.117 z-2.500

F2000 x27.564 y-22.117 z1.000

( MoveToStartpoint )
F2000 G90 z1.000
F2000 x30.104 y-22.117 z1.000
F100 x30.104 y-22.117 z-2.500

F2000 x30.104 y-22.117 z1.000

( MoveToStartpoint )
F2000 G90 z1.000
F2000 x30.104 y-29.737 z1.000
F100 x30.104 y-29.737 z-2.500

F2000 x30.104 y-29.737 z1.000

( MoveToStartpoint )
F2000 G90 z1.000
F2000 x27.564 y-29.737 z1.000
F100 x27.564 y-29.737 z-2.500

F2000 x27.564 y-29.737 z1.000

( MoveToStartpoint )
F2000 G90 z1.000
F2000 x25.024 y-29.737 z1.000
F100 x25.024 y-29.737 z-2.500

F2000 x25.024 y-29.737 z1.000

( MoveToStartpoint )
F2000 G90 z1.000
F2000 x22.484 y-29.737 z1.000
F100 x22.484 y-29.737 z-2.500

F2000 x22.484 y-29.737 z1.000

( MoveToStartpoint )
F2000 G90 z1.000
F2000 x28.424 y-40.532 z1.000
F100 x28.424 y-40.532 z-2.500

F2000 x28.424 y-40.532 z1.000

( MoveToStartpoint )
F2000 G90 z1.000
F2000 x28.355 y-45.739 z1.000
F100 x28.355 y-45.739 z-2.500

F2000 x28.355 y-45.739 z1.000

( MoveToStartpoint )
F2000 G90 z1.000
F2000 x38.486 y-34.182 z1.000
F100 x38.486 y-34.182 z-2.500

F2000 x38.486 y-34.182 z1.000

( MoveToStartpoint )
F2000 G90 z1.000
F2000 x41.026 y-34.182 z1.000
F100 x41.026 y-34.182 z-2.500

F2000 x41.026 y-34.182 z1.000

( MoveToStartpoint )
F2000 G90 z1.000
F2000 x43.566 y-34.182 z1.000
F100 x43.566 y-34.182 z-2.500

F2000 x43.566 y-34.182 z1.000

( MoveToStartpoint )
F2000 G90 z1.000
F2000 x46.106 y-34.182 z1.000
F100 x46.106 y-34.182 z-2.500

F2000 x46.106 y-34.182 z1.000

( MoveToStartpoint )
F2000 G90 z1.000
F2000 x48.646 y-34.182 z1.000
F100 x48.646 y-34.182 z-2.500

F2000 x48.646 y-34.182 z1.000

( MoveToStartpoint )
F2000 G90 z1.000
F2000 x51.186 y-34.182 z1.000
F100 x51.186 y-34.182 z-2.500

F2000 x51.186 y-34.182 z1.000

( MoveToStartpoint )
F2000 G90 z1.000
F2000 x53.726 y-34.182 z1.000
F100 x53.726 y-34.182 z-2.500

F2000 x53.726 y-34.182 z1.000

( MoveToStartpoint )
F2000 G90 z1.000
F2000 x56.266 y-34.182 z1.000
F100 x56.266 y-34.182 z-2.500

F2000 x56.266 y-34.182 z1.000

( MoveToStartpoint )
F2000 G90 z1.000
F2000 x58.806 y-34.182 z1.000
F100 x58.806 y-34.182 z-2.500

F2000 x58.806 y-34.182 z1.000

( MoveToStartpoint )
F2000 G90 z1.000
F2000 x61.346 y-34.182 z1.000
F100 x61.346 y-34.182 z-2.500

F2000 x61.346 y-34.182 z1.000

( MoveToStartpoint )
F2000 G90 z1.000
F2000 x63.886 y-34.182 z1.000
F100 x63.886 y-34.182 z-2.500

F2000 x63.886 y-34.182 z1.000

( MoveToStartpoint )
F2000 G90 z1.000
F2000 x66.426 y-34.182 z1.000
F100 x66.426 y-34.182 z-2.500

F2000 x66.426 y-34.182 z1.000

( MoveToStartpoint )
F2000 G90 z1.000
F2000 x68.966 y-34.182 z1.000
F100 x68.966 y-34.182 z-2.500

F2000 x68.966 y-34.182 z1.000

( MoveToStartpoint )
F2000 G90 z1.000
F2000 x71.507 y-34.182 z1.000
F100 x71.507 y-34.182 z-2.500

F2000 x71.507 y-34.182 z1.000

( MoveToStartpoint )
F2000 G90 z1.000
F2000 x74.046 y-34.182 z1.000
F100 x74.046 y-34.182 z-2.500

F2000 x74.046 y-34.182 z1.000

( MoveToStartpoint )
F2000 G90 z1.000
F2000 x74.046 y-18.942 z1.000
F100 x74.046 y-18.942 z-2.500

F2000 x74.046 y-18.942 z1.000

( MoveToStartpoint )
F2000 G90 z1.000
F2000 x71.506 y-18.942 z1.000
F100 x71.506 y-18.942 z-2.500

F2000 x71.506 y-18.942 z1.000

( MoveToStartpoint )
F2000 G90 z1.000
F2000 x68.965 y-18.942 z1.000
F100 x68.965 y-18.942 z-2.500

F2000 x68.965 y-18.942 z1.000

( MoveToStartpoint )
F2000 G90 z1.000
F2000 x66.426 y-18.942 z1.000
F100 x66.426 y-18.942 z-2.500

F2000 x66.426 y-18.942 z1.000

( MoveToStartpoint )
F2000 G90 z1.000
F2000 x63.885 y-18.942 z1.000
F100 x63.885 y-18.942 z-2.500

F2000 x63.885 y-18.942 z1.000

( MoveToStartpoint )
F2000 G90 z1.000
F2000 x61.346 y-18.942 z1.000
F100 x61.346 y-18.942 z-2.500

F2000 x61.346 y-18.942 z1.000

( MoveToStartpoint )
F2000 G90 z1.000
F2000 x58.805 y-18.942 z1.000
F100 x58.805 y-18.942 z-2.500

F2000 x58.805 y-18.942 z1.000

( MoveToStartpoint )
F2000 G90 z1.000
F2000 x56.266 y-18.942 z1.000
F100 x56.266 y-18.942 z-2.500

F2000 x56.266 y-18.942 z1.000

( MoveToStartpoint )
F2000 G90 z1.000
F2000 x53.725 y-18.942 z1.000
F100 x53.725 y-18.942 z-2.500

F2000 x53.725 y-18.942 z1.000

( MoveToStartpoint )
F2000 G90 z1.000
F2000 x51.186 y-18.942 z1.000
F100 x51.186 y-18.942 z-2.500

F2000 x51.186 y-18.942 z1.000

( MoveToStartpoint )
F2000 G90 z1.000
F2000 x48.645 y-18.942 z1.000
F100 x48.645 y-18.942 z-2.500

F2000 x48.645 y-18.942 z1.000

( MoveToStartpoint )
F2000 G90 z1.000
F2000 x46.106 y-18.942 z1.000
F100 x46.106 y-18.942 z-2.500

F2000 x46.106 y-18.942 z1.000

( MoveToStartpoint )
F2000 G90 z1.000
F2000 x43.565 y-18.942 z1.000
F100 x43.565 y-18.942 z-2.500

F2000 x43.565 y-18.942 z1.000

( MoveToStartpoint )
F2000 G90 z1.000
F2000 x41.026 y-18.942 z1.000
F100 x41.026 y-18.942 z-2.500

F2000 x41.026 y-18.942 z1.000

( MoveToStartpoint )
F2000 G90 z1.000
F2000 x38.486 y-18.942 z1.000
F100 x38.486 y-18.942 z-2.500

F2000 x38.486 y-18.942 z1.000

( MoveToStartpoint )
F2000 G90 z1.000
F2000 x40.812 y-12.084 z1.000
F100 x40.812 y-12.084 z-2.500

F2000 x40.812 y-12.084 z1.000

( MoveToStartpoint )
F2000 G90 z1.000
F2000 x45.812 y-12.084 z1.000
F100 x45.812 y-12.084 z-2.500

F2000 x45.812 y-12.084 z1.000

( MoveToStartpoint )
F2000 G90 z1.000
F2000 x50.649 y-4.718 z1.000
F100 x50.649 y-4.718 z-2.500

F2000 x50.649 y-4.718 z1.000

( MoveToStartpoint )
F2000 G90 z1.000
F2000 x31.149 y-4.718 z1.000
F100 x31.149 y-4.718 z-2.500

F2000 x31.149 y-4.718 z1.000

( MoveToStartpoint )
F2000 G90 z1.000
F2000 x28.170 y-12.465 z1.000
F100 x28.170 y-12.465 z-2.500

F2000 x28.170 y-12.465 z1.000

( MoveToStartpoint )
F2000 G90 z1.000
F2000 x8.924 y-40.532 z1.000
F100 x8.924 y-40.532 z-2.500

F2000 x8.924 y-40.532 z1.000

( MoveToStartpoint )
F2000 G90 z1.000
F2000 x47.855 y-45.739 z1.000
F100 x47.855 y-45.739 z-2.500

F2000 x47.855 y-45.739 z1.000

( MoveToStartpoint )
F2000 G90 z1.000
F2000 x52.710 y-49.803 z1.000
F100 x52.710 y-49.803 z-2.500

F2000 x52.710 y-49.803 z1.000

( MoveToStartpoint )
F2000 G90 z1.000
F2000 x55.250 y-49.803 z1.000
F100 x55.250 y-49.803 z-2.500

F2000 x55.250 y-49.803 z1.000

( MoveToStartpoint )
F2000 G90 z1.000
F2000 x57.790 y-49.803 z1.000
F100 x57.790 y-49.803 z-2.500

F2000 x57.790 y-49.803 z1.000

( MoveToStartpoint )
F2000 G90 z1.000
F2000 x64.140 y-49.930 z1.000
F100 x64.140 y-49.930 z-2.500

F2000 x64.140 y-49.930 z1.000

( MoveToStartpoint )
F2000 G90 z1.000
F2000 x66.680 y-49.930 z1.000
F100 x66.680 y-49.930 z-2.500

F2000 x66.680 y-49.930 z1.000
F2000 z1.000

( Program end, back to origin )
G90 F2000 z1.000

( Spindle off )
M5
F2000 x0.000 y0.000 z1.000
