( Created by GrblGru )
( 28.11.2023 15:47:35 )



( Additional commands from settings )
G1 F200 Z25
G4 P2

( Job: bottomsoldermasklayer  -> Bohrung 3.175mm )
( ------------------------------- )

( Job mode = 2, DRILL )
( Type of tool = 0, SPINDLE )

( Plano de segurança = 1 )
( Soma da profundidade = 0.3 )
( Profundidade por passo = 0.3 )
( Rampa de Mergulho = 0 )
( Tamanho de partição = 2 )
( Avanço de corte = 800 )
( Avanço rápido = 2000 )
( Avanço de mergulho = 500 )
( Tool = Drill bit 1.5mm )
( Tool diameter = 1.5 )



G1 G90 F100

( Spindle on )
M3
S1000

( MoveToStartpoint )
F2000 G90 z1.000
F2000 x5.954 y-18.942 z1.000
F500 x5.954 y-18.942 z-0.300

F2000 x5.954 y-18.942 z1.000

( MoveToStartpoint )
F2000 G90 z1.000
F2000 x8.494 y-18.942 z1.000
F500 x8.494 y-18.942 z-0.300

F2000 x8.494 y-18.942 z1.000

( MoveToStartpoint )
F2000 G90 z1.000
F2000 x11.035 y-18.942 z1.000
F500 x11.035 y-18.942 z-0.300

F2000 x11.035 y-18.942 z1.000

( MoveToStartpoint )
F2000 G90 z1.000
F2000 x13.574 y-18.942 z1.000
F500 x13.574 y-18.942 z-0.300

F2000 x13.574 y-18.942 z1.000

( MoveToStartpoint )
F2000 G90 z1.000
F2000 x16.115 y-18.942 z1.000
F500 x16.115 y-18.942 z-0.300

F2000 x16.115 y-18.942 z1.000

( MoveToStartpoint )
F2000 G90 z1.000
F2000 x18.654 y-18.942 z1.000
F500 x18.654 y-18.942 z-0.300

F2000 x18.654 y-18.942 z1.000

( MoveToStartpoint )
F2000 G90 z1.000
F2000 x21.195 y-18.942 z1.000
F500 x21.195 y-18.942 z-0.300

F2000 x21.195 y-18.942 z1.000

( MoveToStartpoint )
F2000 G90 z1.000
F2000 x23.734 y-18.942 z1.000
F500 x23.734 y-18.942 z-0.300

F2000 x23.734 y-18.942 z1.000

( MoveToStartpoint )
F2000 G90 z1.000
F2000 x26.275 y-18.942 z1.000
F500 x26.275 y-18.942 z-0.300

F2000 x26.275 y-18.942 z1.000

( MoveToStartpoint )
F2000 G90 z1.000
F2000 x28.814 y-18.942 z1.000
F500 x28.814 y-18.942 z-0.300

F2000 x28.814 y-18.942 z1.000

( MoveToStartpoint )
F2000 G90 z1.000
F2000 x31.355 y-18.942 z1.000
F500 x31.355 y-18.942 z-0.300

F2000 x31.355 y-18.942 z1.000

( MoveToStartpoint )
F2000 G90 z1.000
F2000 x33.894 y-18.942 z1.000
F500 x33.894 y-18.942 z-0.300

F2000 x33.894 y-18.942 z1.000

( MoveToStartpoint )
F2000 G90 z1.000
F2000 x36.435 y-18.942 z1.000
F500 x36.435 y-18.942 z-0.300

F2000 x36.435 y-18.942 z1.000

( MoveToStartpoint )
F2000 G90 z1.000
F2000 x38.974 y-18.942 z1.000
F500 x38.974 y-18.942 z-0.300

F2000 x38.974 y-18.942 z1.000

( MoveToStartpoint )
F2000 G90 z1.000
F2000 x41.514 y-18.942 z1.000
F500 x41.514 y-18.942 z-0.300

F2000 x41.514 y-18.942 z1.000

( MoveToStartpoint )
F2000 G90 z1.000
F2000 x39.188 y-12.084 z1.000
F500 x39.188 y-12.084 z-0.300

F2000 x39.188 y-12.084 z1.000

( MoveToStartpoint )
F2000 G90 z1.000
F2000 x34.188 y-12.084 z1.000
F500 x34.188 y-12.084 z-0.300

F2000 x34.188 y-12.084 z1.000

( MoveToStartpoint )
F2000 G90 z1.000
F2000 x29.351 y-4.718 z1.000
F500 x29.351 y-4.718 z-0.300

F2000 x29.351 y-4.718 z1.000

( MoveToStartpoint )
F2000 G90 z1.000
F2000 x48.851 y-4.718 z1.000
F500 x48.851 y-4.718 z-0.300

F2000 x48.851 y-4.718 z1.000

( MoveToStartpoint )
F2000 G90 z1.000
F2000 x51.830 y-12.465 z1.000
F500 x51.830 y-12.465 z-0.300

F2000 x51.830 y-12.465 z1.000

( MoveToStartpoint )
F2000 G90 z1.000
F2000 x52.436 y-22.117 z1.000
F500 x52.436 y-22.117 z-0.300

F2000 x52.436 y-22.117 z1.000

( MoveToStartpoint )
F2000 G90 z1.000
F2000 x54.976 y-22.117 z1.000
F500 x54.976 y-22.117 z-0.300

F2000 x54.976 y-22.117 z1.000

( MoveToStartpoint )
F2000 G90 z1.000
F2000 x57.516 y-22.117 z1.000
F500 x57.516 y-22.117 z-0.300

F2000 x57.516 y-22.117 z1.000

( MoveToStartpoint )
F2000 G90 z1.000
F2000 x57.516 y-29.737 z1.000
F500 x57.516 y-29.737 z-0.300

F2000 x57.516 y-29.737 z1.000

( MoveToStartpoint )
F2000 G90 z1.000
F2000 x54.976 y-29.737 z1.000
F500 x54.976 y-29.737 z-0.300

F2000 x54.976 y-29.737 z1.000

( MoveToStartpoint )
F2000 G90 z1.000
F2000 x52.436 y-29.737 z1.000
F500 x52.436 y-29.737 z-0.300

F2000 x52.436 y-29.737 z1.000

( MoveToStartpoint )
F2000 G90 z1.000
F2000 x49.896 y-29.737 z1.000
F500 x49.896 y-29.737 z-0.300

F2000 x49.896 y-29.737 z1.000

( MoveToStartpoint )
F2000 G90 z1.000
F2000 x49.896 y-22.117 z1.000
F500 x49.896 y-22.117 z-0.300

F2000 x49.896 y-22.117 z1.000

( MoveToStartpoint )
F2000 G90 z1.000
F2000 x41.514 y-34.182 z1.000
F500 x41.514 y-34.182 z-0.300

F2000 x41.514 y-34.182 z1.000

( MoveToStartpoint )
F2000 G90 z1.000
F2000 x38.974 y-34.182 z1.000
F500 x38.974 y-34.182 z-0.300

F2000 x38.974 y-34.182 z1.000

( MoveToStartpoint )
F2000 G90 z1.000
F2000 x36.434 y-34.182 z1.000
F500 x36.434 y-34.182 z-0.300

F2000 x36.434 y-34.182 z1.000

( MoveToStartpoint )
F2000 G90 z1.000
F2000 x33.893 y-34.182 z1.000
F500 x33.893 y-34.182 z-0.300

F2000 x33.893 y-34.182 z1.000

( MoveToStartpoint )
F2000 G90 z1.000
F2000 x31.354 y-34.182 z1.000
F500 x31.354 y-34.182 z-0.300

F2000 x31.354 y-34.182 z1.000

( MoveToStartpoint )
F2000 G90 z1.000
F2000 x28.814 y-34.182 z1.000
F500 x28.814 y-34.182 z-0.300

F2000 x28.814 y-34.182 z1.000

( MoveToStartpoint )
F2000 G90 z1.000
F2000 x26.274 y-34.182 z1.000
F500 x26.274 y-34.182 z-0.300

F2000 x26.274 y-34.182 z1.000

( MoveToStartpoint )
F2000 G90 z1.000
F2000 x23.734 y-34.182 z1.000
F500 x23.734 y-34.182 z-0.300

F2000 x23.734 y-34.182 z1.000

( MoveToStartpoint )
F2000 G90 z1.000
F2000 x21.194 y-34.182 z1.000
F500 x21.194 y-34.182 z-0.300

F2000 x21.194 y-34.182 z1.000

( MoveToStartpoint )
F2000 G90 z1.000
F2000 x18.653 y-34.182 z1.000
F500 x18.653 y-34.182 z-0.300

F2000 x18.653 y-34.182 z1.000

( MoveToStartpoint )
F2000 G90 z1.000
F2000 x16.114 y-34.182 z1.000
F500 x16.114 y-34.182 z-0.300

F2000 x16.114 y-34.182 z1.000

( MoveToStartpoint )
F2000 G90 z1.000
F2000 x13.573 y-34.182 z1.000
F500 x13.573 y-34.182 z-0.300

F2000 x13.573 y-34.182 z1.000

( MoveToStartpoint )
F2000 G90 z1.000
F2000 x11.034 y-34.182 z1.000
F500 x11.034 y-34.182 z-0.300

F2000 x11.034 y-34.182 z1.000

( MoveToStartpoint )
F2000 G90 z1.000
F2000 x8.493 y-34.182 z1.000
F500 x8.493 y-34.182 z-0.300

F2000 x8.493 y-34.182 z1.000

( MoveToStartpoint )
F2000 G90 z1.000
F2000 x5.954 y-34.182 z1.000
F500 x5.954 y-34.182 z-0.300

F2000 x5.954 y-34.182 z1.000

( MoveToStartpoint )
F2000 G90 z1.000
F2000 x13.320 y-49.930 z1.000
F500 x13.320 y-49.930 z-0.300

F2000 x13.320 y-49.930 z1.000

( MoveToStartpoint )
F2000 G90 z1.000
F2000 x15.860 y-49.930 z1.000
F500 x15.860 y-49.930 z-0.300

F2000 x15.860 y-49.930 z1.000

( MoveToStartpoint )
F2000 G90 z1.000
F2000 x22.083 y-49.930 z1.000
F500 x22.083 y-49.930 z-0.300

F2000 x22.083 y-49.930 z1.000

( MoveToStartpoint )
F2000 G90 z1.000
F2000 x24.623 y-49.930 z1.000
F500 x24.623 y-49.930 z-0.300

F2000 x24.623 y-49.930 z1.000

( MoveToStartpoint )
F2000 G90 z1.000
F2000 x32.145 y-45.739 z1.000
F500 x32.145 y-45.739 z-0.300

F2000 x32.145 y-45.739 z1.000

( MoveToStartpoint )
F2000 G90 z1.000
F2000 x51.645 y-45.739 z1.000
F500 x51.645 y-45.739 z-0.300

F2000 x51.645 y-45.739 z1.000

( MoveToStartpoint )
F2000 G90 z1.000
F2000 x58.180 y-45.739 z1.000
F500 x58.180 y-45.739 z-0.300

F2000 x58.180 y-45.739 z1.000

( MoveToStartpoint )
F2000 G90 z1.000
F2000 x77.680 y-45.739 z1.000
F500 x77.680 y-45.739 z-0.300

F2000 x77.680 y-45.739 z1.000

( MoveToStartpoint )
F2000 G90 z1.000
F2000 x74.407 y-23.093 z1.000
F500 x74.407 y-23.093 z-0.300

F2000 x74.407 y-23.093 z1.000

( MoveToStartpoint )
F2000 G90 z1.000
F2000 x74.407 y-18.093 z1.000
F500 x74.407 y-18.093 z-0.300

F2000 x74.407 y-18.093 z1.000

( MoveToStartpoint )
F2000 G90 z1.000
F2000 x71.330 y-12.465 z1.000
F500 x71.330 y-12.465 z-0.300

F2000 x71.330 y-12.465 z1.000

( MoveToStartpoint )
F2000 G90 z1.000
F2000 x66.660 y-17.712 z1.000
F500 x66.660 y-17.712 z-0.300

F2000 x66.660 y-17.712 z1.000

( MoveToStartpoint )
F2000 G90 z1.000
F2000 x66.660 y-22.712 z1.000
F500 x66.660 y-22.712 z-0.300

F2000 x66.660 y-22.712 z1.000
F2000 z1.000

( Program end, back to origin )
G90 F2000 z1.000

( Spindle off )
M5
F2000 x0.000 y0.000 z1.000
