( Created by GrblGru )
( 03.12.2023 16:25:14 )



( Additional commands from settings )
G1 F200 Z25
G4 P2

( Job: bottomsoldermasklayer  -> Bohrung 3.175mm )
( ------------------------------- )

( Job mode = 2, DRILL )
( Type of tool = 0, SPINDLE )

( Plano de segurança = 2 )
( Soma da profundidade = 2.5 )
( Profundidade por passo = 2.5 )
( Rampa de Mergulho = 0 )
( Tamanho de partição = 2 )
( Avanço de corte = 800 )
( Avanço rápido = 2000 )
( Avanço de mergulho = 100 )
( Tool = Drill bit 1mm )
( Tool diameter = 1 )



G1 G90 F100

( Spindle on )
M3
S1000

( MoveToStartpoint )
F2000 G90 z2.000
F2000 x13.320 y-3.070 z2.000
F100 x13.320 y-3.070 z-2.500

F2000 x13.320 y-3.070 z2.000

( MoveToStartpoint )
F2000 G90 z2.000
F2000 x15.860 y-3.070 z2.000
F100 x15.860 y-3.070 z-2.500

F2000 x15.860 y-3.070 z2.000

( MoveToStartpoint )
F2000 G90 z2.000
F2000 x22.083 y-3.070 z2.000
F100 x22.083 y-3.070 z-2.500

F2000 x22.083 y-3.070 z2.000

( MoveToStartpoint )
F2000 G90 z2.000
F2000 x24.623 y-3.070 z2.000
F100 x24.623 y-3.070 z-2.500

F2000 x24.623 y-3.070 z2.000

( MoveToStartpoint )
F2000 G90 z2.000
F2000 x32.145 y-7.261 z2.000
F100 x32.145 y-7.261 z-2.500

F2000 x32.145 y-7.261 z2.000

( MoveToStartpoint )
F2000 G90 z2.000
F2000 x31.354 y-18.818 z2.000
F100 x31.354 y-18.818 z-2.500

F2000 x31.354 y-18.818 z2.000

( MoveToStartpoint )
F2000 G90 z2.000
F2000 x28.814 y-18.818 z2.000
F100 x28.814 y-18.818 z-2.500

F2000 x28.814 y-18.818 z2.000

( MoveToStartpoint )
F2000 G90 z2.000
F2000 x26.274 y-18.818 z2.000
F100 x26.274 y-18.818 z-2.500

F2000 x26.274 y-18.818 z2.000

( MoveToStartpoint )
F2000 G90 z2.000
F2000 x23.734 y-18.818 z2.000
F100 x23.734 y-18.818 z-2.500

F2000 x23.734 y-18.818 z2.000

( MoveToStartpoint )
F2000 G90 z2.000
F2000 x21.194 y-18.818 z2.000
F100 x21.194 y-18.818 z-2.500

F2000 x21.194 y-18.818 z2.000

( MoveToStartpoint )
F2000 G90 z2.000
F2000 x18.654 y-18.818 z2.000
F100 x18.654 y-18.818 z-2.500

F2000 x18.654 y-18.818 z2.000

( MoveToStartpoint )
F2000 G90 z2.000
F2000 x16.114 y-18.818 z2.000
F100 x16.114 y-18.818 z-2.500

F2000 x16.114 y-18.818 z2.000

( MoveToStartpoint )
F2000 G90 z2.000
F2000 x13.574 y-18.818 z2.000
F100 x13.574 y-18.818 z-2.500

F2000 x13.574 y-18.818 z2.000

( MoveToStartpoint )
F2000 G90 z2.000
F2000 x11.034 y-18.818 z2.000
F100 x11.034 y-18.818 z-2.500

F2000 x11.034 y-18.818 z2.000

( MoveToStartpoint )
F2000 G90 z2.000
F2000 x8.493 y-18.818 z2.000
F100 x8.493 y-18.818 z-2.500

F2000 x8.493 y-18.818 z2.000

( MoveToStartpoint )
F2000 G90 z2.000
F2000 x5.954 y-18.818 z2.000
F100 x5.954 y-18.818 z-2.500

F2000 x5.954 y-18.818 z2.000

( MoveToStartpoint )
F2000 G90 z2.000
F2000 x5.954 y-34.058 z2.000
F100 x5.954 y-34.058 z-2.500

F2000 x5.954 y-34.058 z2.000

( MoveToStartpoint )
F2000 G90 z2.000
F2000 x8.494 y-34.058 z2.000
F100 x8.494 y-34.058 z-2.500

F2000 x8.494 y-34.058 z2.000

( MoveToStartpoint )
F2000 G90 z2.000
F2000 x11.035 y-34.058 z2.000
F100 x11.035 y-34.058 z-2.500

F2000 x11.035 y-34.058 z2.000

( MoveToStartpoint )
F2000 G90 z2.000
F2000 x13.574 y-34.058 z2.000
F100 x13.574 y-34.058 z-2.500

F2000 x13.574 y-34.058 z2.000

( MoveToStartpoint )
F2000 G90 z2.000
F2000 x16.115 y-34.058 z2.000
F100 x16.115 y-34.058 z-2.500

F2000 x16.115 y-34.058 z2.000

( MoveToStartpoint )
F2000 G90 z2.000
F2000 x18.654 y-34.058 z2.000
F100 x18.654 y-34.058 z-2.500

F2000 x18.654 y-34.058 z2.000

( MoveToStartpoint )
F2000 G90 z2.000
F2000 x21.195 y-34.058 z2.000
F100 x21.195 y-34.058 z-2.500

F2000 x21.195 y-34.058 z2.000

( MoveToStartpoint )
F2000 G90 z2.000
F2000 x23.734 y-34.058 z2.000
F100 x23.734 y-34.058 z-2.500

F2000 x23.734 y-34.058 z2.000

( MoveToStartpoint )
F2000 G90 z2.000
F2000 x26.275 y-34.058 z2.000
F100 x26.275 y-34.058 z-2.500

F2000 x26.275 y-34.058 z2.000

( MoveToStartpoint )
F2000 G90 z2.000
F2000 x28.814 y-34.058 z2.000
F100 x28.814 y-34.058 z-2.500

F2000 x28.814 y-34.058 z2.000

( MoveToStartpoint )
F2000 G90 z2.000
F2000 x31.355 y-34.058 z2.000
F100 x31.355 y-34.058 z-2.500

F2000 x31.355 y-34.058 z2.000

( MoveToStartpoint )
F2000 G90 z2.000
F2000 x33.894 y-34.058 z2.000
F100 x33.894 y-34.058 z-2.500

F2000 x33.894 y-34.058 z2.000

( MoveToStartpoint )
F2000 G90 z2.000
F2000 x36.435 y-34.058 z2.000
F100 x36.435 y-34.058 z-2.500

F2000 x36.435 y-34.058 z2.000

( MoveToStartpoint )
F2000 G90 z2.000
F2000 x38.974 y-34.058 z2.000
F100 x38.974 y-34.058 z-2.500

F2000 x38.974 y-34.058 z2.000

( MoveToStartpoint )
F2000 G90 z2.000
F2000 x41.514 y-34.058 z2.000
F100 x41.514 y-34.058 z-2.500

F2000 x41.514 y-34.058 z2.000

( MoveToStartpoint )
F2000 G90 z2.000
F2000 x39.188 y-40.916 z2.000
F100 x39.188 y-40.916 z-2.500

F2000 x39.188 y-40.916 z2.000

( MoveToStartpoint )
F2000 G90 z2.000
F2000 x34.188 y-40.916 z2.000
F100 x34.188 y-40.916 z-2.500

F2000 x34.188 y-40.916 z2.000

( MoveToStartpoint )
F2000 G90 z2.000
F2000 x29.351 y-48.282 z2.000
F100 x29.351 y-48.282 z-2.500

F2000 x29.351 y-48.282 z2.000

( MoveToStartpoint )
F2000 G90 z2.000
F2000 x48.851 y-48.282 z2.000
F100 x48.851 y-48.282 z-2.500

F2000 x48.851 y-48.282 z2.000

( MoveToStartpoint )
F2000 G90 z2.000
F2000 x51.830 y-40.535 z2.000
F100 x51.830 y-40.535 z-2.500

F2000 x51.830 y-40.535 z2.000

( MoveToStartpoint )
F2000 G90 z2.000
F2000 x52.436 y-30.883 z2.000
F100 x52.436 y-30.883 z-2.500

F2000 x52.436 y-30.883 z2.000

( MoveToStartpoint )
F2000 G90 z2.000
F2000 x54.976 y-30.883 z2.000
F100 x54.976 y-30.883 z-2.500

F2000 x54.976 y-30.883 z2.000

( MoveToStartpoint )
F2000 G90 z2.000
F2000 x57.516 y-30.883 z2.000
F100 x57.516 y-30.883 z-2.500

F2000 x57.516 y-30.883 z2.000

( MoveToStartpoint )
F2000 G90 z2.000
F2000 x57.516 y-23.263 z2.000
F100 x57.516 y-23.263 z-2.500

F2000 x57.516 y-23.263 z2.000

( MoveToStartpoint )
F2000 G90 z2.000
F2000 x54.976 y-23.263 z2.000
F100 x54.976 y-23.263 z-2.500

F2000 x54.976 y-23.263 z2.000

( MoveToStartpoint )
F2000 G90 z2.000
F2000 x52.436 y-23.263 z2.000
F100 x52.436 y-23.263 z-2.500

F2000 x52.436 y-23.263 z2.000

( MoveToStartpoint )
F2000 G90 z2.000
F2000 x49.896 y-23.263 z2.000
F100 x49.896 y-23.263 z-2.500

F2000 x49.896 y-23.263 z2.000

( MoveToStartpoint )
F2000 G90 z2.000
F2000 x49.896 y-30.883 z2.000
F100 x49.896 y-30.883 z-2.500

F2000 x49.896 y-30.883 z2.000

( MoveToStartpoint )
F2000 G90 z2.000
F2000 x41.514 y-18.818 z2.000
F100 x41.514 y-18.818 z-2.500

F2000 x41.514 y-18.818 z2.000

( MoveToStartpoint )
F2000 G90 z2.000
F2000 x38.974 y-18.818 z2.000
F100 x38.974 y-18.818 z-2.500

F2000 x38.974 y-18.818 z2.000

( MoveToStartpoint )
F2000 G90 z2.000
F2000 x36.434 y-18.818 z2.000
F100 x36.434 y-18.818 z-2.500

F2000 x36.434 y-18.818 z2.000

( MoveToStartpoint )
F2000 G90 z2.000
F2000 x33.894 y-18.818 z2.000
F100 x33.894 y-18.818 z-2.500

F2000 x33.894 y-18.818 z2.000

( MoveToStartpoint )
F2000 G90 z2.000
F2000 x51.645 y-7.261 z2.000
F100 x51.645 y-7.261 z-2.500

F2000 x51.645 y-7.261 z2.000

( MoveToStartpoint )
F2000 G90 z2.000
F2000 x58.180 y-7.261 z2.000
F100 x58.180 y-7.261 z-2.500

F2000 x58.180 y-7.261 z2.000

( MoveToStartpoint )
F2000 G90 z2.000
F2000 x77.680 y-7.261 z2.000
F100 x77.680 y-7.261 z-2.500

F2000 x77.680 y-7.261 z2.000

( MoveToStartpoint )
F2000 G90 z2.000
F2000 x74.407 y-29.907 z2.000
F100 x74.407 y-29.907 z-2.500

F2000 x74.407 y-29.907 z2.000

( MoveToStartpoint )
F2000 G90 z2.000
F2000 x74.407 y-34.907 z2.000
F100 x74.407 y-34.907 z-2.500

F2000 x74.407 y-34.907 z2.000

( MoveToStartpoint )
F2000 G90 z2.000
F2000 x71.330 y-40.535 z2.000
F100 x71.330 y-40.535 z-2.500

F2000 x71.330 y-40.535 z2.000

( MoveToStartpoint )
F2000 G90 z2.000
F2000 x66.660 y-35.288 z2.000
F100 x66.660 y-35.288 z-2.500

F2000 x66.660 y-35.288 z2.000

( MoveToStartpoint )
F2000 G90 z2.000
F2000 x66.660 y-30.288 z2.000
F100 x66.660 y-30.288 z-2.500

F2000 x66.660 y-30.288 z2.000
F2000 z2.000

( Program end, back to origin )
G90 F2000 z2.000

( Spindle off )
M5
F2000 x0.000 y0.000 z2.000
