( Created by GrblGru )
( 27.11.2023 14:51:31 )



( Additional commands from settings )
G1 F200 Z25
G4 P2

( Job: Solder Tracks  -> None 3.175mm )
( ------------------------------- )

( Job mode = 0, CUT )
( Type of tool = 0, SPINDLE )

( TransformationTyp = NONE )
( Plano de segurança = 5 )
( Soma da profundidade = 0.3 )
( Profundidade por passo = 0.3 )
( Rampa de Mergulho = 0 )
( Tamanho de partição = 2 )
( Avanço de corte = 500 )
( Avanço rápido = 2000 )
( Avanço de mergulho = 500 )
( Tool = V-carve 45° x 3.175 )
( Tool diameter = 3.175 )



G1 G90 F100

( Percurso da ferramenta )
( ------------------------- )

( Spindle on )
M3
S500

( Current depth = -0.300 )

( MoveToStartpoint2 )
F2000 G90 z5.000
F2000 x28.900 y-19.838 z5.000
F2000 x28.900 y-19.838 z0.000

( Loop )
G90 F500
x28.900 y-19.838 z-0.300
F500
x28.942 y-19.833 z-0.300
x28.983 y-19.826 z-0.300
x29.025 y-19.817 z-0.300
x29.066 y-19.806 z-0.300
x29.106 y-19.793 z-0.300
x29.146 y-19.778 z-0.300
x29.185 y-19.762 z-0.300
x29.223 y-19.743 z-0.300
x29.261 y-19.723 z-0.300
x29.297 y-19.701 z-0.300
x29.332 y-19.678 z-0.300
x29.366 y-19.653 z-0.300
x29.399 y-19.626 z-0.300
x29.431 y-19.597 z-0.300
x30.017 y-19.011 z-0.300
x30.044 y-18.979 z-0.300
x30.071 y-18.945 z-0.300
x30.095 y-18.911 z-0.300
x30.118 y-18.875 z-0.300
x30.140 y-18.838 z-0.300
x30.159 y-18.801 z-0.300
x30.177 y-18.762 z-0.300
x30.193 y-18.723 z-0.300
x30.207 y-18.683 z-0.300
x30.219 y-18.642 z-0.300
x30.229 y-18.601 z-0.300
x30.238 y-18.560 z-0.300
x30.244 y-18.518 z-0.300
x30.248 y-18.475 z-0.300
x30.251 y-18.433 z-0.300
x30.251 y-4.718 z-0.300
x30.250 y-4.676 z-0.300
x30.247 y-4.633 z-0.300
x30.242 y-4.591 z-0.300
x30.235 y-4.549 z-0.300
x30.226 y-4.508 z-0.300
x30.215 y-4.467 z-0.300
x30.202 y-4.426 z-0.300
x30.188 y-4.387 z-0.300
x30.171 y-4.348 z-0.300
x30.153 y-4.309 z-0.300
x30.133 y-4.272 z-0.300
x30.111 y-4.236 z-0.300
x30.087 y-4.200 z-0.300
x30.062 y-4.166 z-0.300
x30.035 y-4.133 z-0.300
x30.007 y-4.102 z-0.300
x29.977 y-4.071 z-0.300
x29.946 y-4.043 z-0.300
x29.913 y-4.015 z-0.300
x29.880 y-3.990 z-0.300
x29.845 y-3.966 z-0.300
x29.809 y-3.943 z-0.300
x29.772 y-3.922 z-0.300
x29.734 y-3.903 z-0.300
x29.695 y-3.886 z-0.300
x29.655 y-3.871 z-0.300
x29.615 y-3.858 z-0.300
x29.574 y-3.846 z-0.300
x29.533 y-3.837 z-0.300
x29.491 y-3.829 z-0.300
x29.449 y-3.823 z-0.300
x29.407 y-3.820 z-0.300
x29.365 y-3.818 z-0.300
x29.322 y-3.818 z-0.300
x29.280 y-3.821 z-0.300
x29.238 y-3.825 z-0.300
x29.196 y-3.832 z-0.300
x29.154 y-3.840 z-0.300
x29.113 y-3.850 z-0.300
x29.072 y-3.862 z-0.300
x29.032 y-3.876 z-0.300
x28.993 y-3.892 z-0.300
x28.954 y-3.910 z-0.300
x28.917 y-3.930 z-0.300
x28.880 y-3.951 z-0.300
x28.845 y-3.974 z-0.300
x28.810 y-3.999 z-0.300
x28.777 y-4.025 z-0.300
x28.745 y-4.053 z-0.300
x28.714 y-4.082 z-0.300
x28.685 y-4.113 z-0.300
x28.657 y-4.145 z-0.300
x28.631 y-4.178 z-0.300
x28.606 y-4.213 z-0.300
x28.583 y-4.248 z-0.300
x28.562 y-4.285 z-0.300
x28.542 y-4.323 z-0.300
x28.525 y-4.361 z-0.300
x28.509 y-4.401 z-0.300
x28.495 y-4.441 z-0.300
x28.483 y-4.481 z-0.300
x28.472 y-4.523 z-0.300
x28.464 y-4.564 z-0.300
x28.458 y-4.606 z-0.300
x28.454 y-4.648 z-0.300
x28.451 y-4.691 z-0.300
x28.451 y-18.033 z-0.300
x28.148 y-18.336 z-0.300
x28.121 y-18.368 z-0.300
x28.094 y-18.402 z-0.300
x28.070 y-18.436 z-0.300
x28.047 y-18.472 z-0.300
x28.025 y-18.509 z-0.300
x28.006 y-18.546 z-0.300
x27.988 y-18.585 z-0.300
x27.972 y-18.624 z-0.300
x27.958 y-18.664 z-0.300
x27.946 y-18.705 z-0.300
x27.936 y-18.746 z-0.300
x27.927 y-18.787 z-0.300
x27.921 y-18.829 z-0.300
x27.917 y-18.872 z-0.300
x27.914 y-18.914 z-0.300
x27.914 y-18.956 z-0.300
x27.916 y-18.999 z-0.300
x27.919 y-19.041 z-0.300
x27.925 y-19.083 z-0.300
x27.933 y-19.125 z-0.300
x27.942 y-19.166 z-0.300
x27.954 y-19.207 z-0.300
x27.967 y-19.247 z-0.300
x27.983 y-19.287 z-0.300
x28.000 y-19.326 z-0.300
x28.019 y-19.364 z-0.300
x28.040 y-19.401 z-0.300
x28.062 y-19.437 z-0.300
x28.086 y-19.471 z-0.300
x28.112 y-19.505 z-0.300
x28.139 y-19.538 z-0.300
x28.168 y-19.569 z-0.300
x28.198 y-19.598 z-0.300
x28.230 y-19.627 z-0.300
x28.263 y-19.653 z-0.300
x28.297 y-19.679 z-0.300
x28.332 y-19.702 z-0.300
x28.369 y-19.724 z-0.300
x28.406 y-19.744 z-0.300
x28.444 y-19.763 z-0.300
x28.483 y-19.779 z-0.300
x28.523 y-19.794 z-0.300
x28.564 y-19.806 z-0.300
x28.605 y-19.817 z-0.300
x28.646 y-19.826 z-0.300
x28.688 y-19.833 z-0.300
x28.730 y-19.838 z-0.300
x28.772 y-19.841 z-0.300
x28.815 y-19.842 z-0.300
x28.857 y-19.841 z-0.300
x28.900 y-19.838 z-0.300

( Lift to 5.000 )
F2000 z5.000

( Percurso da ferramenta 2 )
( ------------------------- )

( Spindle on )
M3
S500

( Current depth = -0.300 )

( MoveToStartpoint2 )
F2000 G90 z5.000
F2000 x49.981 y-23.013 z5.000
F2000 x49.981 y-23.013 z0.000

( Loop )
G90 F500
x49.981 y-23.013 z-0.300
F500
x50.023 y-23.008 z-0.300
x50.065 y-23.001 z-0.300
x50.106 y-22.992 z-0.300
x50.147 y-22.981 z-0.300
x50.188 y-22.968 z-0.300
x50.227 y-22.954 z-0.300
x50.266 y-22.937 z-0.300
x50.305 y-22.919 z-0.300
x50.342 y-22.899 z-0.300
x50.378 y-22.877 z-0.300
x50.414 y-22.853 z-0.300
x50.448 y-22.828 z-0.300
x50.481 y-22.801 z-0.300
x50.512 y-22.773 z-0.300
x50.543 y-22.743 z-0.300
x50.571 y-22.712 z-0.300
x50.599 y-22.679 z-0.300
x50.624 y-22.646 z-0.300
x50.648 y-22.611 z-0.300
x50.671 y-22.575 z-0.300
x50.692 y-22.538 z-0.300
x50.711 y-22.500 z-0.300
x50.728 y-22.461 z-0.300
x50.743 y-22.421 z-0.300
x50.756 y-22.381 z-0.300
x50.768 y-22.340 z-0.300
x50.777 y-22.299 z-0.300
x50.785 y-22.257 z-0.300
x50.791 y-22.215 z-0.300
x50.794 y-22.173 z-0.300
x50.796 y-22.131 z-0.300
x50.796 y-22.088 z-0.300
x50.793 y-22.046 z-0.300
x50.789 y-22.004 z-0.300
x50.782 y-21.962 z-0.300
x50.774 y-21.920 z-0.300
x50.764 y-21.879 z-0.300
x50.752 y-21.838 z-0.300
x50.738 y-21.798 z-0.300
x50.722 y-21.759 z-0.300
x50.704 y-21.720 z-0.300
x50.684 y-21.683 z-0.300
x50.663 y-21.646 z-0.300
x50.640 y-21.611 z-0.300
x50.615 y-21.576 z-0.300
x50.589 y-21.543 z-0.300
x50.561 y-21.511 z-0.300
x50.532 y-21.480 z-0.300
x50.501 y-21.451 z-0.300
x50.469 y-21.423 z-0.300
x50.436 y-21.397 z-0.300
x50.401 y-21.372 z-0.300
x50.366 y-21.349 z-0.300
x50.329 y-21.328 z-0.300
x50.291 y-21.308 z-0.300
x50.253 y-21.291 z-0.300
x50.213 y-21.275 z-0.300
x50.173 y-21.261 z-0.300
x50.133 y-21.249 z-0.300
x50.091 y-21.238 z-0.300
x50.050 y-21.230 z-0.300
x50.008 y-21.224 z-0.300
x49.966 y-21.220 z-0.300
x49.923 y-21.217 z-0.300
x37.506 y-21.217 z-0.300
x34.859 y-18.570 z-0.300
x34.859 y-12.682 z-0.300
x34.882 y-12.656 z-0.300
x34.908 y-12.623 z-0.300
x34.933 y-12.588 z-0.300
x34.955 y-12.553 z-0.300
x34.977 y-12.516 z-0.300
x34.996 y-12.478 z-0.300
x35.014 y-12.440 z-0.300
x35.030 y-12.400 z-0.300
x35.044 y-12.360 z-0.300
x35.056 y-12.319 z-0.300
x35.066 y-12.278 z-0.300
x35.074 y-12.237 z-0.300
x35.080 y-12.195 z-0.300
x35.084 y-12.152 z-0.300
x35.087 y-12.110 z-0.300
x35.087 y-12.068 z-0.300
x35.085 y-12.025 z-0.300
x35.081 y-11.983 z-0.300
x35.076 y-11.941 z-0.300
x35.068 y-11.899 z-0.300
x35.058 y-11.858 z-0.300
x35.047 y-11.817 z-0.300
x35.033 y-11.777 z-0.300
x35.018 y-11.737 z-0.300
x35.000 y-11.699 z-0.300
x34.981 y-11.661 z-0.300
x34.960 y-11.624 z-0.300
x34.938 y-11.588 z-0.300
x34.914 y-11.553 z-0.300
x34.888 y-11.519 z-0.300
x34.860 y-11.487 z-0.300
x34.832 y-11.456 z-0.300
x34.801 y-11.426 z-0.300
x34.770 y-11.398 z-0.300
x34.737 y-11.371 z-0.300
x34.702 y-11.346 z-0.300
x34.667 y-11.323 z-0.300
x34.631 y-11.301 z-0.300
x34.593 y-11.281 z-0.300
x34.555 y-11.263 z-0.300
x34.516 y-11.246 z-0.300
x34.476 y-11.232 z-0.300
x34.436 y-11.219 z-0.300
x34.394 y-11.208 z-0.300
x34.353 y-11.199 z-0.300
x34.311 y-11.193 z-0.300
x34.269 y-11.188 z-0.300
x34.227 y-11.185 z-0.300
x34.184 y-11.184 z-0.300
x34.142 y-11.185 z-0.300
x34.100 y-11.188 z-0.300
x34.057 y-11.193 z-0.300
x34.016 y-11.200 z-0.300
x33.974 y-11.210 z-0.300
x33.933 y-11.221 z-0.300
x33.893 y-11.233 z-0.300
x33.853 y-11.248 z-0.300
x33.814 y-11.265 z-0.300
x33.776 y-11.283 z-0.300
x33.739 y-11.304 z-0.300
x33.702 y-11.326 z-0.300
x33.667 y-11.349 z-0.300
x33.633 y-11.375 z-0.300
x33.600 y-11.402 z-0.300
x33.569 y-11.430 z-0.300
x33.549 y-11.449 z-0.300
x33.321 y-11.678 z-0.300
x33.292 y-11.709 z-0.300
x33.264 y-11.741 z-0.300
x33.238 y-11.774 z-0.300
x33.213 y-11.809 z-0.300
x33.191 y-11.844 z-0.300
x33.169 y-11.881 z-0.300
x33.150 y-11.919 z-0.300
x33.132 y-11.957 z-0.300
x33.116 y-11.997 z-0.300
x33.102 y-12.037 z-0.300
x33.090 y-12.078 z-0.300
x33.080 y-12.119 z-0.300
x33.072 y-12.160 z-0.300
x33.066 y-12.202 z-0.300
x33.062 y-12.245 z-0.300
x33.059 y-12.287 z-0.300
x33.059 y-18.607 z-0.300
x33.047 y-18.638 z-0.300
x33.034 y-18.678 z-0.300
x33.022 y-18.719 z-0.300
x33.013 y-18.760 z-0.300
x33.005 y-18.802 z-0.300
x32.999 y-18.844 z-0.300
x32.996 y-18.886 z-0.300
x32.994 y-18.928 z-0.300
x32.994 y-18.971 z-0.300
x32.997 y-19.013 z-0.300
x33.001 y-19.055 z-0.300
x33.008 y-19.097 z-0.300
x33.016 y-19.139 z-0.300
x33.026 y-19.180 z-0.300
x33.038 y-19.221 z-0.300
x33.052 y-19.261 z-0.300
x33.068 y-19.300 z-0.300
x33.086 y-19.339 z-0.300
x33.106 y-19.376 z-0.300
x33.127 y-19.413 z-0.300
x33.150 y-19.448 z-0.300
x33.175 y-19.483 z-0.300
x33.201 y-19.516 z-0.300
x33.229 y-19.548 z-0.300
x33.258 y-19.579 z-0.300
x33.289 y-19.608 z-0.300
x33.321 y-19.636 z-0.300
x33.354 y-19.662 z-0.300
x33.389 y-19.687 z-0.300
x33.424 y-19.710 z-0.300
x33.461 y-19.731 z-0.300
x33.493 y-19.748 z-0.300
x36.528 y-22.783 z-0.300
x36.560 y-22.810 z-0.300
x36.594 y-22.837 z-0.300
x36.628 y-22.861 z-0.300
x36.664 y-22.884 z-0.300
x36.701 y-22.906 z-0.300
x36.738 y-22.925 z-0.300
x36.777 y-22.943 z-0.300
x36.816 y-22.959 z-0.300
x36.856 y-22.973 z-0.300
x36.897 y-22.985 z-0.300
x36.938 y-22.995 z-0.300
x36.979 y-23.004 z-0.300
x37.021 y-23.010 z-0.300
x37.064 y-23.014 z-0.300
x37.106 y-23.017 z-0.300
x49.896 y-23.017 z-0.300
x49.938 y-23.016 z-0.300
x49.981 y-23.013 z-0.300

( Lift to 5.000 )
F2000 z5.000

( Percurso da ferramenta 3 )
( ------------------------- )

( Spindle on )
M3
S500

( Current depth = -0.300 )

( MoveToStartpoint2 )
F2000 G90 z5.000
F2000 x52.549 y-23.010 z5.000
F2000 x52.549 y-23.010 z0.000

( Loop )
G90 F500
x52.549 y-23.010 z-0.300
F500
x52.591 y-23.003 z-0.300
x52.633 y-22.995 z-0.300
x52.674 y-22.985 z-0.300
x52.715 y-22.973 z-0.300
x52.755 y-22.959 z-0.300
x52.794 y-22.943 z-0.300
x52.833 y-22.925 z-0.300
x52.870 y-22.905 z-0.300
x52.907 y-22.884 z-0.300
x52.942 y-22.861 z-0.300
x52.977 y-22.836 z-0.300
x53.010 y-22.810 z-0.300
x53.042 y-22.782 z-0.300
x53.073 y-22.753 z-0.300
x53.102 y-22.722 z-0.300
x53.130 y-22.690 z-0.300
x53.156 y-22.657 z-0.300
x53.181 y-22.622 z-0.300
x53.204 y-22.587 z-0.300
x53.225 y-22.550 z-0.300
x53.245 y-22.512 z-0.300
x53.262 y-22.474 z-0.300
x53.278 y-22.434 z-0.300
x53.292 y-22.394 z-0.300
x53.304 y-22.354 z-0.300
x53.315 y-22.312 z-0.300
x53.323 y-22.271 z-0.300
x53.329 y-22.229 z-0.300
x53.333 y-22.187 z-0.300
x53.336 y-22.144 z-0.300
x53.336 y-13.071 z-0.300
x53.335 y-13.029 z-0.300
x53.332 y-12.986 z-0.300
x53.327 y-12.944 z-0.300
x53.320 y-12.902 z-0.300
x53.311 y-12.861 z-0.300
x53.300 y-12.820 z-0.300
x53.287 y-12.779 z-0.300
x53.273 y-12.740 z-0.300
x53.256 y-12.701 z-0.300
x53.238 y-12.662 z-0.300
x53.218 y-12.625 z-0.300
x53.196 y-12.589 z-0.300
x53.172 y-12.553 z-0.300
x53.147 y-12.519 z-0.300
x53.120 y-12.486 z-0.300
x53.092 y-12.455 z-0.300
x52.436 y-11.799 z-0.300
x52.404 y-11.772 z-0.300
x52.370 y-11.745 z-0.300
x52.336 y-11.721 z-0.300
x52.300 y-11.698 z-0.300
x52.263 y-11.676 z-0.300
x52.226 y-11.657 z-0.300
x52.187 y-11.639 z-0.300
x52.148 y-11.623 z-0.300
x52.108 y-11.609 z-0.300
x52.067 y-11.597 z-0.300
x52.026 y-11.587 z-0.300
x51.985 y-11.578 z-0.300
x51.943 y-11.572 z-0.300
x51.900 y-11.568 z-0.300
x51.858 y-11.565 z-0.300
x39.940 y-11.565 z-0.300
x39.793 y-11.418 z-0.300
x39.761 y-11.391 z-0.300
x39.727 y-11.364 z-0.300
x39.693 y-11.340 z-0.300
x39.657 y-11.317 z-0.300
x39.620 y-11.295 z-0.300
x39.583 y-11.276 z-0.300
x39.544 y-11.258 z-0.300
x39.505 y-11.242 z-0.300
x39.465 y-11.228 z-0.300
x39.424 y-11.216 z-0.300
x39.383 y-11.206 z-0.300
x39.342 y-11.197 z-0.300
x39.300 y-11.191 z-0.300
x39.257 y-11.187 z-0.300
x39.215 y-11.184 z-0.300
x39.173 y-11.184 z-0.300
x39.130 y-11.186 z-0.300
x39.088 y-11.189 z-0.300
x39.046 y-11.195 z-0.300
x39.004 y-11.203 z-0.300
x38.963 y-11.212 z-0.300
x38.922 y-11.224 z-0.300
x38.882 y-11.237 z-0.300
x38.842 y-11.253 z-0.300
x38.803 y-11.270 z-0.300
x38.765 y-11.289 z-0.300
x38.728 y-11.310 z-0.300
x38.692 y-11.332 z-0.300
x38.658 y-11.356 z-0.300
x38.624 y-11.382 z-0.300
x38.591 y-11.409 z-0.300
x38.560 y-11.438 z-0.300
x38.531 y-11.468 z-0.300
x38.502 y-11.500 z-0.300
x38.476 y-11.533 z-0.300
x38.450 y-11.567 z-0.300
x38.427 y-11.602 z-0.300
x38.405 y-11.639 z-0.300
x38.385 y-11.676 z-0.300
x38.366 y-11.714 z-0.300
x38.350 y-11.753 z-0.300
x38.335 y-11.793 z-0.300
x38.323 y-11.834 z-0.300
x38.312 y-11.875 z-0.300
x38.303 y-11.916 z-0.300
x38.296 y-11.958 z-0.300
x38.291 y-12.000 z-0.300
x38.288 y-12.042 z-0.300
x38.287 y-12.085 z-0.300
x38.288 y-12.127 z-0.300
x38.291 y-12.170 z-0.300
x38.296 y-12.212 z-0.300
x38.303 y-12.253 z-0.300
x38.312 y-12.295 z-0.300
x38.323 y-12.336 z-0.300
x38.336 y-12.376 z-0.300
x38.351 y-12.416 z-0.300
x38.367 y-12.455 z-0.300
x38.386 y-12.493 z-0.300
x38.406 y-12.531 z-0.300
x38.428 y-12.567 z-0.300
x38.451 y-12.602 z-0.300
x38.476 y-12.636 z-0.300
x38.503 y-12.669 z-0.300
x38.532 y-12.701 z-0.300
x38.962 y-13.131 z-0.300
x38.994 y-13.158 z-0.300
x39.028 y-13.185 z-0.300
x39.062 y-13.209 z-0.300
x39.098 y-13.232 z-0.300
x39.135 y-13.254 z-0.300
x39.172 y-13.273 z-0.300
x39.211 y-13.291 z-0.300
x39.250 y-13.307 z-0.300
x39.290 y-13.321 z-0.300
x39.331 y-13.333 z-0.300
x39.372 y-13.343 z-0.300
x39.413 y-13.352 z-0.300
x39.455 y-13.358 z-0.300
x39.498 y-13.362 z-0.300
x39.540 y-13.365 z-0.300
x51.458 y-13.365 z-0.300
x51.536 y-13.443 z-0.300
x51.536 y-22.117 z-0.300
x51.537 y-22.159 z-0.300
x51.540 y-22.202 z-0.300
x51.545 y-22.244 z-0.300
x51.552 y-22.286 z-0.300
x51.561 y-22.327 z-0.300
x51.572 y-22.368 z-0.300
x51.585 y-22.409 z-0.300
x51.599 y-22.448 z-0.300
x51.616 y-22.487 z-0.300
x51.634 y-22.526 z-0.300
x51.654 y-22.563 z-0.300
x51.676 y-22.599 z-0.300
x51.700 y-22.635 z-0.300
x51.725 y-22.669 z-0.300
x51.752 y-22.702 z-0.300
x51.780 y-22.733 z-0.300
x51.810 y-22.764 z-0.300
x51.841 y-22.792 z-0.300
x51.874 y-22.820 z-0.300
x51.907 y-22.845 z-0.300
x51.942 y-22.869 z-0.300
x51.978 y-22.892 z-0.300
x52.015 y-22.913 z-0.300
x52.053 y-22.932 z-0.300
x52.092 y-22.949 z-0.300
x52.132 y-22.964 z-0.300
x52.172 y-22.977 z-0.300
x52.213 y-22.989 z-0.300
x52.254 y-22.998 z-0.300
x52.296 y-23.006 z-0.300
x52.338 y-23.012 z-0.300
x52.380 y-23.015 z-0.300
x52.422 y-23.017 z-0.300
x52.465 y-23.017 z-0.300
x52.507 y-23.014 z-0.300
x52.549 y-23.010 z-0.300

( Lift to 5.000 )
F2000 z5.000

( Percurso da ferramenta 0 )
( ------------------------- )

( Spindle on )
M3
S500

( Current depth = -0.300 )

( MoveToStartpoint2 )
F2000 G90 z5.000
F2000 x74.506 y-18.988 z5.000
F2000 x74.506 y-18.988 z0.000

( Loop )
G90 F500
x74.506 y-18.988 z-0.300
F500
x74.548 y-18.982 z-0.300
x74.590 y-18.974 z-0.300
x74.631 y-18.965 z-0.300
x74.672 y-18.953 z-0.300
x74.712 y-18.940 z-0.300
x74.752 y-18.924 z-0.300
x74.791 y-18.907 z-0.300
x74.829 y-18.888 z-0.300
x74.866 y-18.867 z-0.300
x74.902 y-18.845 z-0.300
x74.936 y-18.821 z-0.300
x74.970 y-18.795 z-0.300
x75.003 y-18.768 z-0.300
x75.034 y-18.739 z-0.300
x75.063 y-18.709 z-0.300
x75.092 y-18.677 z-0.300
x75.118 y-18.644 z-0.300
x75.144 y-18.610 z-0.300
x75.167 y-18.575 z-0.300
x75.189 y-18.538 z-0.300
x75.209 y-18.501 z-0.300
x75.228 y-18.463 z-0.300
x75.244 y-18.424 z-0.300
x75.259 y-18.384 z-0.300
x75.271 y-18.343 z-0.300
x75.282 y-18.302 z-0.300
x75.291 y-18.261 z-0.300
x75.298 y-18.219 z-0.300
x75.303 y-18.177 z-0.300
x75.306 y-18.135 z-0.300
x75.307 y-18.092 z-0.300
x75.306 y-18.050 z-0.300
x75.303 y-18.007 z-0.300
x75.298 y-17.965 z-0.300
x75.291 y-17.924 z-0.300
x75.282 y-17.882 z-0.300
x75.271 y-17.841 z-0.300
x75.258 y-17.801 z-0.300
x75.243 y-17.761 z-0.300
x75.227 y-17.722 z-0.300
x75.208 y-17.684 z-0.300
x75.188 y-17.646 z-0.300
x75.166 y-17.610 z-0.300
x75.143 y-17.575 z-0.300
x75.118 y-17.541 z-0.300
x75.091 y-17.508 z-0.300
x75.062 y-17.476 z-0.300
x74.632 y-17.046 z-0.300
x74.600 y-17.019 z-0.300
x74.566 y-16.992 z-0.300
x74.532 y-16.968 z-0.300
x74.496 y-16.945 z-0.300
x74.459 y-16.923 z-0.300
x74.422 y-16.904 z-0.300
x74.383 y-16.886 z-0.300
x74.344 y-16.870 z-0.300
x74.304 y-16.856 z-0.300
x74.263 y-16.844 z-0.300
x74.222 y-16.834 z-0.300
x74.181 y-16.825 z-0.300
x74.139 y-16.819 z-0.300
x74.096 y-16.815 z-0.300
x74.054 y-16.812 z-0.300
x68.255 y-16.812 z-0.300
x71.996 y-13.071 z-0.300
x72.023 y-13.039 z-0.300
x72.050 y-13.005 z-0.300
x72.074 y-12.971 z-0.300
x72.097 y-12.935 z-0.300
x72.119 y-12.898 z-0.300
x72.138 y-12.861 z-0.300
x72.156 y-12.822 z-0.300
x72.172 y-12.783 z-0.300
x72.186 y-12.743 z-0.300
x72.198 y-12.702 z-0.300
x72.208 y-12.661 z-0.300
x72.217 y-12.620 z-0.300
x72.223 y-12.578 z-0.300
x72.227 y-12.535 z-0.300
x72.230 y-12.493 z-0.300
x72.230 y-12.451 z-0.300
x72.228 y-12.408 z-0.300
x72.225 y-12.366 z-0.300
x72.219 y-12.324 z-0.300
x72.211 y-12.282 z-0.300
x72.202 y-12.241 z-0.300
x72.190 y-12.200 z-0.300
x72.177 y-12.160 z-0.300
x72.161 y-12.120 z-0.300
x72.144 y-12.081 z-0.300
x72.125 y-12.043 z-0.300
x72.104 y-12.006 z-0.300
x72.082 y-11.970 z-0.300
x72.058 y-11.936 z-0.300
x72.032 y-11.902 z-0.300
x72.005 y-11.869 z-0.300
x71.976 y-11.838 z-0.300
x71.946 y-11.809 z-0.300
x71.914 y-11.780 z-0.300
x71.881 y-11.754 z-0.300
x71.847 y-11.728 z-0.300
x71.812 y-11.705 z-0.300
x71.775 y-11.683 z-0.300
x71.738 y-11.663 z-0.300
x71.700 y-11.644 z-0.300
x71.661 y-11.628 z-0.300
x71.621 y-11.613 z-0.300
x71.580 y-11.601 z-0.300
x71.539 y-11.590 z-0.300
x71.498 y-11.581 z-0.300
x71.456 y-11.574 z-0.300
x71.414 y-11.569 z-0.300
x71.372 y-11.566 z-0.300
x71.330 y-11.565 z-0.300
x56.970 y-11.565 z-0.300
x49.457 y-4.052 z-0.300
x49.425 y-4.025 z-0.300
x49.391 y-3.998 z-0.300
x49.357 y-3.974 z-0.300
x49.321 y-3.951 z-0.300
x49.284 y-3.929 z-0.300
x49.247 y-3.910 z-0.300
x49.208 y-3.892 z-0.300
x49.169 y-3.876 z-0.300
x49.129 y-3.862 z-0.300
x49.088 y-3.850 z-0.300
x49.047 y-3.840 z-0.300
x49.006 y-3.831 z-0.300
x48.964 y-3.825 z-0.300
x48.921 y-3.821 z-0.300
x48.879 y-3.818 z-0.300
x48.837 y-3.818 z-0.300
x48.794 y-3.820 z-0.300
x48.752 y-3.823 z-0.300
x48.710 y-3.829 z-0.300
x48.668 y-3.837 z-0.300
x48.627 y-3.846 z-0.300
x48.586 y-3.858 z-0.300
x48.546 y-3.871 z-0.300
x48.506 y-3.887 z-0.300
x48.467 y-3.904 z-0.300
x48.429 y-3.923 z-0.300
x48.392 y-3.944 z-0.300
x48.356 y-3.966 z-0.300
x48.322 y-3.990 z-0.300
x48.288 y-4.016 z-0.300
x48.255 y-4.043 z-0.300
x48.224 y-4.072 z-0.300
x48.195 y-4.102 z-0.300
x48.166 y-4.134 z-0.300
x48.140 y-4.167 z-0.300
x48.114 y-4.201 z-0.300
x48.091 y-4.236 z-0.300
x48.069 y-4.273 z-0.300
x48.049 y-4.310 z-0.300
x48.030 y-4.348 z-0.300
x48.014 y-4.387 z-0.300
x47.999 y-4.427 z-0.300
x47.987 y-4.468 z-0.300
x47.976 y-4.509 z-0.300
x47.967 y-4.550 z-0.300
x47.960 y-4.592 z-0.300
x47.955 y-4.634 z-0.300
x47.952 y-4.676 z-0.300
x47.951 y-4.719 z-0.300
x47.952 y-4.761 z-0.300
x47.955 y-4.804 z-0.300
x47.960 y-4.846 z-0.300
x47.967 y-4.887 z-0.300
x47.976 y-4.929 z-0.300
x47.987 y-4.970 z-0.300
x48.000 y-5.010 z-0.300
x48.015 y-5.050 z-0.300
x48.031 y-5.089 z-0.300
x48.050 y-5.127 z-0.300
x48.070 y-5.165 z-0.300
x48.092 y-5.201 z-0.300
x48.115 y-5.236 z-0.300
x48.140 y-5.270 z-0.300
x48.167 y-5.303 z-0.300
x48.196 y-5.335 z-0.300
x55.992 y-13.131 z-0.300
x56.024 y-13.158 z-0.300
x56.058 y-13.185 z-0.300
x56.092 y-13.209 z-0.300
x56.128 y-13.232 z-0.300
x56.165 y-13.254 z-0.300
x56.202 y-13.273 z-0.300
x56.241 y-13.291 z-0.300
x56.280 y-13.307 z-0.300
x56.320 y-13.321 z-0.300
x56.361 y-13.333 z-0.300
x56.402 y-13.343 z-0.300
x56.443 y-13.352 z-0.300
x56.485 y-13.358 z-0.300
x56.528 y-13.362 z-0.300
x56.570 y-13.365 z-0.300
x69.158 y-13.365 z-0.300
x65.994 y-16.529 z-0.300
x65.967 y-16.561 z-0.300
x65.940 y-16.595 z-0.300
x65.916 y-16.629 z-0.300
x65.893 y-16.665 z-0.300
x65.871 y-16.702 z-0.300
x65.852 y-16.739 z-0.300
x65.834 y-16.778 z-0.300
x65.818 y-16.817 z-0.300
x65.804 y-16.857 z-0.300
x65.792 y-16.898 z-0.300
x65.782 y-16.939 z-0.300
x65.773 y-16.980 z-0.300
x65.767 y-17.022 z-0.300
x65.763 y-17.065 z-0.300
x65.760 y-17.107 z-0.300
x65.760 y-17.712 z-0.300
x65.761 y-17.754 z-0.300
x65.764 y-17.797 z-0.300
x65.769 y-17.839 z-0.300
x65.776 y-17.881 z-0.300
x65.785 y-17.922 z-0.300
x65.796 y-17.963 z-0.300
x65.809 y-18.004 z-0.300
x65.823 y-18.043 z-0.300
x65.840 y-18.082 z-0.300
x65.858 y-18.121 z-0.300
x65.878 y-18.158 z-0.300
x65.900 y-18.194 z-0.300
x65.924 y-18.230 z-0.300
x65.949 y-18.264 z-0.300
x65.976 y-18.297 z-0.300
x66.004 y-18.328 z-0.300
x66.034 y-18.359 z-0.300
x66.065 y-18.387 z-0.300
x66.098 y-18.415 z-0.300
x66.131 y-18.440 z-0.300
x66.166 y-18.464 z-0.300
x66.202 y-18.487 z-0.300
x66.239 y-18.508 z-0.300
x66.277 y-18.527 z-0.300
x66.316 y-18.544 z-0.300
x66.356 y-18.559 z-0.300
x66.396 y-18.572 z-0.300
x66.437 y-18.584 z-0.300
x66.478 y-18.593 z-0.300
x66.520 y-18.601 z-0.300
x66.562 y-18.607 z-0.300
x66.604 y-18.610 z-0.300
x66.660 y-18.612 z-0.300
x73.654 y-18.612 z-0.300
x73.801 y-18.759 z-0.300
x73.833 y-18.786 z-0.300
x73.867 y-18.813 z-0.300
x73.901 y-18.837 z-0.300
x73.937 y-18.860 z-0.300
x73.974 y-18.882 z-0.300
x74.011 y-18.901 z-0.300
x74.050 y-18.919 z-0.300
x74.089 y-18.935 z-0.300
x74.129 y-18.949 z-0.300
x74.170 y-18.961 z-0.300
x74.211 y-18.971 z-0.300
x74.252 y-18.980 z-0.300
x74.294 y-18.986 z-0.300
x74.337 y-18.990 z-0.300
x74.379 y-18.993 z-0.300
x74.421 y-18.993 z-0.300
x74.464 y-18.991 z-0.300
x74.506 y-18.988 z-0.300

( Lift to 5.000 )
F2000 z5.000

( Percurso da ferramenta 8 )
( ------------------------- )

( Spindle on )
M3
S500

( Current depth = -0.300 )

( MoveToStartpoint2 )
F2000 G90 z5.000
F2000 x58.265 y-46.635 z5.000
F2000 x58.265 y-46.635 z0.000

( Loop )
G90 F500
x58.265 y-46.635 z-0.300
F500
x58.307 y-46.630 z-0.300
x58.349 y-46.623 z-0.300
x58.390 y-46.614 z-0.300
x58.431 y-46.603 z-0.300
x58.471 y-46.590 z-0.300
x58.510 y-46.576 z-0.300
x58.550 y-46.559 z-0.300
x58.589 y-46.541 z-0.300
x58.626 y-46.521 z-0.300
x58.662 y-46.499 z-0.300
x58.698 y-46.475 z-0.300
x58.732 y-46.450 z-0.300
x58.765 y-46.423 z-0.300
x58.796 y-46.395 z-0.300
x58.827 y-46.365 z-0.300
x58.855 y-46.334 z-0.300
x58.883 y-46.301 z-0.300
x58.908 y-46.268 z-0.300
x58.932 y-46.233 z-0.300
x58.955 y-46.197 z-0.300
x58.976 y-46.160 z-0.300
x58.995 y-46.122 z-0.300
x59.012 y-46.083 z-0.300
x59.027 y-46.043 z-0.300
x59.040 y-46.003 z-0.300
x59.052 y-45.962 z-0.300
x59.061 y-45.921 z-0.300
x59.069 y-45.879 z-0.300
x59.075 y-45.837 z-0.300
x59.078 y-45.795 z-0.300
x59.080 y-45.753 z-0.300
x59.080 y-45.710 z-0.300
x59.077 y-45.668 z-0.300
x59.073 y-45.626 z-0.300
x59.066 y-45.584 z-0.300
x59.058 y-45.542 z-0.300
x59.048 y-45.501 z-0.300
x59.036 y-45.460 z-0.300
x59.022 y-45.420 z-0.300
x59.006 y-45.381 z-0.300
x58.988 y-45.342 z-0.300
x58.968 y-45.305 z-0.300
x58.947 y-45.268 z-0.300
x58.924 y-45.233 z-0.300
x58.899 y-45.198 z-0.300
x58.873 y-45.165 z-0.300
x58.845 y-45.133 z-0.300
x58.816 y-45.102 z-0.300
x58.785 y-45.073 z-0.300
x58.753 y-45.045 z-0.300
x58.720 y-45.019 z-0.300
x58.685 y-44.994 z-0.300
x58.650 y-44.971 z-0.300
x58.613 y-44.950 z-0.300
x58.575 y-44.930 z-0.300
x58.537 y-44.913 z-0.300
x58.497 y-44.897 z-0.300
x58.456 y-44.883 z-0.300
x58.417 y-44.871 z-0.300
x58.375 y-44.860 z-0.300
x58.334 y-44.852 z-0.300
x58.292 y-44.846 z-0.300
x58.250 y-44.842 z-0.300
x58.206 y-44.839 z-0.300
x51.645 y-44.839 z-0.300
x51.603 y-44.840 z-0.300
x51.560 y-44.843 z-0.300
x51.518 y-44.848 z-0.300
x51.476 y-44.855 z-0.300
x51.435 y-44.864 z-0.300
x51.394 y-44.875 z-0.300
x51.353 y-44.888 z-0.300
x51.314 y-44.902 z-0.300
x51.275 y-44.919 z-0.300
x51.236 y-44.937 z-0.300
x51.199 y-44.957 z-0.300
x51.163 y-44.979 z-0.300
x51.127 y-45.003 z-0.300
x51.093 y-45.028 z-0.300
x51.060 y-45.055 z-0.300
x51.029 y-45.083 z-0.300
x50.998 y-45.113 z-0.300
x50.970 y-45.144 z-0.300
x50.942 y-45.177 z-0.300
x50.917 y-45.210 z-0.300
x50.893 y-45.245 z-0.300
x50.870 y-45.281 z-0.300
x50.849 y-45.318 z-0.300
x50.830 y-45.356 z-0.300
x50.813 y-45.395 z-0.300
x50.798 y-45.435 z-0.300
x50.785 y-45.475 z-0.300
x50.773 y-45.516 z-0.300
x50.764 y-45.557 z-0.300
x50.756 y-45.599 z-0.300
x50.750 y-45.641 z-0.300
x50.747 y-45.683 z-0.300
x50.745 y-45.725 z-0.300
x50.745 y-45.768 z-0.300
x50.748 y-45.810 z-0.300
x50.752 y-45.852 z-0.300
x50.759 y-45.894 z-0.300
x50.767 y-45.936 z-0.300
x50.777 y-45.977 z-0.300
x50.789 y-46.018 z-0.300
x50.803 y-46.058 z-0.300
x50.819 y-46.097 z-0.300
x50.837 y-46.136 z-0.300
x50.857 y-46.173 z-0.300
x50.878 y-46.210 z-0.300
x50.901 y-46.245 z-0.300
x50.926 y-46.280 z-0.300
x50.952 y-46.313 z-0.300
x50.980 y-46.345 z-0.300
x51.009 y-46.376 z-0.300
x51.040 y-46.405 z-0.300
x51.072 y-46.433 z-0.300
x51.105 y-46.459 z-0.300
x51.140 y-46.484 z-0.300
x51.175 y-46.507 z-0.300
x51.212 y-46.528 z-0.300
x51.250 y-46.548 z-0.300
x51.288 y-46.565 z-0.300
x51.328 y-46.581 z-0.300
x51.368 y-46.595 z-0.300
x51.408 y-46.607 z-0.300
x51.450 y-46.618 z-0.300
x51.491 y-46.626 z-0.300
x51.533 y-46.632 z-0.300
x51.575 y-46.636 z-0.300
x51.618 y-46.639 z-0.300
x58.180 y-46.639 z-0.300
x58.221 y-46.638 z-0.300
x58.265 y-46.635 z-0.300

( Lift to 5.000 )
F2000 z5.000

( Percurso da ferramenta 6 )
( ------------------------- )

( Spindle on )
M3
S500

( Current depth = -0.300 )

( MoveToStartpoint2 )
F2000 G90 z5.000
F2000 x28.039 y-50.826 z5.000
F2000 x28.039 y-50.826 z0.000

( Loop )
G90 F500
x28.039 y-50.826 z-0.300
F500
x28.081 y-50.821 z-0.300
x28.123 y-50.814 z-0.300
x28.164 y-50.805 z-0.300
x28.205 y-50.794 z-0.300
x28.246 y-50.781 z-0.300
x28.285 y-50.767 z-0.300
x28.324 y-50.750 z-0.300
x28.363 y-50.732 z-0.300
x28.400 y-50.712 z-0.300
x28.436 y-50.690 z-0.300
x28.472 y-50.666 z-0.300
x28.506 y-50.641 z-0.300
x28.539 y-50.614 z-0.300
x28.570 y-50.586 z-0.300
x39.640 y-39.516 z-0.300
x39.667 y-39.484 z-0.300
x39.694 y-39.450 z-0.300
x39.718 y-39.416 z-0.300
x39.741 y-39.380 z-0.300
x39.763 y-39.343 z-0.300
x39.782 y-39.306 z-0.300
x39.800 y-39.267 z-0.300
x39.816 y-39.228 z-0.300
x39.830 y-39.188 z-0.300
x39.842 y-39.147 z-0.300
x39.852 y-39.106 z-0.300
x39.861 y-39.065 z-0.300
x39.867 y-39.023 z-0.300
x39.871 y-38.980 z-0.300
x39.874 y-38.938 z-0.300
x39.874 y-34.182 z-0.300
x39.873 y-34.140 z-0.300
x39.870 y-34.097 z-0.300
x39.865 y-34.055 z-0.300
x39.858 y-34.013 z-0.300
x39.849 y-33.972 z-0.300
x39.838 y-33.931 z-0.300
x39.825 y-33.890 z-0.300
x39.811 y-33.851 z-0.300
x39.794 y-33.812 z-0.300
x39.776 y-33.773 z-0.300
x39.756 y-33.736 z-0.300
x39.734 y-33.700 z-0.300
x39.710 y-33.664 z-0.300
x39.685 y-33.630 z-0.300
x39.658 y-33.597 z-0.300
x39.630 y-33.566 z-0.300
x39.600 y-33.535 z-0.300
x39.569 y-33.507 z-0.300
x39.536 y-33.479 z-0.300
x39.503 y-33.454 z-0.300
x39.468 y-33.430 z-0.300
x39.432 y-33.407 z-0.300
x39.395 y-33.386 z-0.300
x39.357 y-33.367 z-0.300
x39.318 y-33.350 z-0.300
x39.278 y-33.335 z-0.300
x39.238 y-33.322 z-0.300
x39.197 y-33.310 z-0.300
x39.156 y-33.301 z-0.300
x39.114 y-33.293 z-0.300
x39.072 y-33.287 z-0.300
x39.030 y-33.284 z-0.300
x38.988 y-33.282 z-0.300
x38.945 y-33.282 z-0.300
x38.903 y-33.285 z-0.300
x38.861 y-33.289 z-0.300
x38.819 y-33.296 z-0.300
x38.777 y-33.304 z-0.300
x38.736 y-33.314 z-0.300
x38.695 y-33.326 z-0.300
x38.655 y-33.340 z-0.300
x38.616 y-33.356 z-0.300
x38.577 y-33.374 z-0.300
x38.540 y-33.394 z-0.300
x38.503 y-33.415 z-0.300
x38.468 y-33.438 z-0.300
x38.433 y-33.463 z-0.300
x38.400 y-33.489 z-0.300
x38.368 y-33.517 z-0.300
x38.337 y-33.546 z-0.300
x38.308 y-33.577 z-0.300
x38.280 y-33.609 z-0.300
x38.254 y-33.642 z-0.300
x38.229 y-33.677 z-0.300
x38.206 y-33.712 z-0.300
x38.185 y-33.749 z-0.300
x38.165 y-33.787 z-0.300
x38.148 y-33.825 z-0.300
x38.132 y-33.865 z-0.300
x38.118 y-33.905 z-0.300
x38.106 y-33.945 z-0.300
x38.095 y-33.987 z-0.300
x38.087 y-34.028 z-0.300
x38.081 y-34.070 z-0.300
x38.077 y-34.112 z-0.300
x38.074 y-34.155 z-0.300
x38.074 y-38.538 z-0.300
x27.582 y-49.030 z-0.300
x24.623 y-49.030 z-0.300
x24.581 y-49.031 z-0.300
x24.538 y-49.034 z-0.300
x24.496 y-49.039 z-0.300
x24.454 y-49.046 z-0.300
x24.413 y-49.055 z-0.300
x24.372 y-49.066 z-0.300
x24.331 y-49.079 z-0.300
x24.292 y-49.093 z-0.300
x24.253 y-49.110 z-0.300
x24.214 y-49.128 z-0.300
x24.177 y-49.148 z-0.300
x24.141 y-49.170 z-0.300
x24.105 y-49.194 z-0.300
x24.071 y-49.219 z-0.300
x24.038 y-49.246 z-0.300
x24.007 y-49.274 z-0.300
x23.976 y-49.304 z-0.300
x23.948 y-49.335 z-0.300
x23.920 y-49.368 z-0.300
x23.895 y-49.401 z-0.300
x23.871 y-49.436 z-0.300
x23.848 y-49.472 z-0.300
x23.827 y-49.509 z-0.300
x23.808 y-49.547 z-0.300
x23.791 y-49.586 z-0.300
x23.776 y-49.626 z-0.300
x23.763 y-49.666 z-0.300
x23.751 y-49.707 z-0.300
x23.742 y-49.748 z-0.300
x23.734 y-49.790 z-0.300
x23.728 y-49.832 z-0.300
x23.725 y-49.874 z-0.300
x23.723 y-49.916 z-0.300
x23.723 y-49.959 z-0.300
x23.726 y-50.001 z-0.300
x23.730 y-50.043 z-0.300
x23.737 y-50.085 z-0.300
x23.745 y-50.127 z-0.300
x23.755 y-50.168 z-0.300
x23.767 y-50.209 z-0.300
x23.781 y-50.249 z-0.300
x23.797 y-50.288 z-0.300
x23.815 y-50.327 z-0.300
x23.835 y-50.364 z-0.300
x23.856 y-50.401 z-0.300
x23.879 y-50.436 z-0.300
x23.904 y-50.471 z-0.300
x23.930 y-50.504 z-0.300
x23.958 y-50.536 z-0.300
x23.987 y-50.567 z-0.300
x24.018 y-50.596 z-0.300
x24.050 y-50.624 z-0.300
x24.083 y-50.650 z-0.300
x24.118 y-50.675 z-0.300
x24.153 y-50.698 z-0.300
x24.190 y-50.719 z-0.300
x24.228 y-50.739 z-0.300
x24.266 y-50.756 z-0.300
x24.306 y-50.772 z-0.300
x24.346 y-50.786 z-0.300
x24.386 y-50.798 z-0.300
x24.428 y-50.809 z-0.300
x24.469 y-50.817 z-0.300
x24.511 y-50.823 z-0.300
x24.553 y-50.827 z-0.300
x24.596 y-50.830 z-0.300
x27.954 y-50.830 z-0.300
x27.996 y-50.829 z-0.300
x28.039 y-50.826 z-0.300

( Lift to 5.000 )
F2000 z5.000

( Percurso da ferramenta 4 )
( ------------------------- )

( Spindle on )
M3
S500

( Current depth = -0.300 )

( MoveToStartpoint2 )
F2000 G90 z5.000
F2000 x22.196 y-50.823 z5.000
F2000 x22.196 y-50.823 z0.000

( Loop )
G90 F500
x22.196 y-50.823 z-0.300
F500
x22.238 y-50.816 z-0.300
x22.280 y-50.808 z-0.300
x22.321 y-50.798 z-0.300
x22.362 y-50.786 z-0.300
x22.402 y-50.772 z-0.300
x22.441 y-50.756 z-0.300
x22.480 y-50.738 z-0.300
x22.517 y-50.718 z-0.300
x22.554 y-50.697 z-0.300
x22.589 y-50.674 z-0.300
x22.624 y-50.649 z-0.300
x22.657 y-50.623 z-0.300
x22.689 y-50.595 z-0.300
x22.720 y-50.566 z-0.300
x22.749 y-50.535 z-0.300
x22.777 y-50.503 z-0.300
x22.803 y-50.470 z-0.300
x22.828 y-50.435 z-0.300
x22.851 y-50.400 z-0.300
x22.872 y-50.363 z-0.300
x22.892 y-50.325 z-0.300
x22.909 y-50.287 z-0.300
x22.925 y-50.247 z-0.300
x22.939 y-50.207 z-0.300
x22.951 y-50.167 z-0.300
x22.962 y-50.125 z-0.300
x22.970 y-50.084 z-0.300
x22.976 y-50.042 z-0.300
x22.980 y-50.000 z-0.300
x22.983 y-49.957 z-0.300
x22.983 y-46.365 z-0.300
x36.425 y-32.923 z-0.300
x56.373 y-32.923 z-0.300
x56.415 y-32.922 z-0.300
x56.458 y-32.919 z-0.300
x56.500 y-32.914 z-0.300
x56.542 y-32.907 z-0.300
x56.583 y-32.898 z-0.300
x56.624 y-32.887 z-0.300
x56.665 y-32.874 z-0.300
x56.704 y-32.860 z-0.300
x56.743 y-32.843 z-0.300
x56.782 y-32.825 z-0.300
x56.819 y-32.805 z-0.300
x56.855 y-32.783 z-0.300
x56.891 y-32.759 z-0.300
x56.925 y-32.734 z-0.300
x56.958 y-32.707 z-0.300
x56.989 y-32.679 z-0.300
x58.182 y-31.486 z-0.300
x58.209 y-31.454 z-0.300
x58.236 y-31.420 z-0.300
x58.260 y-31.386 z-0.300
x58.283 y-31.350 z-0.300
x58.305 y-31.313 z-0.300
x58.324 y-31.276 z-0.300
x58.342 y-31.237 z-0.300
x58.358 y-31.198 z-0.300
x58.372 y-31.158 z-0.300
x58.384 y-31.117 z-0.300
x58.394 y-31.076 z-0.300
x58.403 y-31.035 z-0.300
x58.409 y-30.993 z-0.300
x58.413 y-30.950 z-0.300
x58.416 y-30.908 z-0.300
x58.416 y-29.737 z-0.300
x58.415 y-29.695 z-0.300
x58.412 y-29.652 z-0.300
x58.407 y-29.610 z-0.300
x58.400 y-29.568 z-0.300
x58.391 y-29.527 z-0.300
x58.367 y-29.445 z-0.300
x58.352 y-29.406 z-0.300
x58.336 y-29.367 z-0.300
x58.318 y-29.328 z-0.300
x58.298 y-29.291 z-0.300
x58.275 y-29.255 z-0.300
x58.251 y-29.219 z-0.300
x58.227 y-29.185 z-0.300
x58.200 y-29.152 z-0.300
x58.172 y-29.121 z-0.300
x58.141 y-29.090 z-0.300
x58.111 y-29.062 z-0.300
x58.078 y-29.034 z-0.300
x58.045 y-29.009 z-0.300
x58.010 y-28.985 z-0.300
x57.974 y-28.962 z-0.300
x57.937 y-28.941 z-0.300
x57.899 y-28.922 z-0.300
x57.860 y-28.905 z-0.300
x57.819 y-28.890 z-0.300
x57.780 y-28.877 z-0.300
x57.739 y-28.865 z-0.300
x57.697 y-28.856 z-0.300
x57.656 y-28.848 z-0.300
x57.614 y-28.842 z-0.300
x57.572 y-28.839 z-0.300
x57.530 y-28.837 z-0.300
x57.486 y-28.837 z-0.300
x57.444 y-28.840 z-0.300
x57.403 y-28.844 z-0.300
x57.361 y-28.851 z-0.300
x57.319 y-28.859 z-0.300
x57.278 y-28.869 z-0.300
x57.236 y-28.881 z-0.300
x57.197 y-28.895 z-0.300
x57.158 y-28.911 z-0.300
x57.119 y-28.929 z-0.300
x57.081 y-28.949 z-0.300
x57.045 y-28.970 z-0.300
x57.010 y-28.993 z-0.300
x56.975 y-29.018 z-0.300
x56.942 y-29.044 z-0.300
x56.927 y-29.057 z-0.300
x57.203 y-28.781 z-0.300
x59.449 y-28.781 z-0.300
x77.044 y-46.375 z-0.300
x77.074 y-46.405 z-0.300
x77.106 y-46.432 z-0.300
x77.140 y-46.459 z-0.300
x77.174 y-46.483 z-0.300
x77.210 y-46.506 z-0.300
x77.247 y-46.528 z-0.300
x77.284 y-46.547 z-0.300
x77.323 y-46.565 z-0.300
x77.362 y-46.581 z-0.300
x77.402 y-46.595 z-0.300
x77.443 y-46.607 z-0.300
x77.484 y-46.617 z-0.300
x77.525 y-46.626 z-0.300
x77.567 y-46.632 z-0.300
x77.610 y-46.636 z-0.300
x77.652 y-46.639 z-0.300
x77.694 y-46.639 z-0.300
x77.737 y-46.637 z-0.300
x77.779 y-46.634 z-0.300
x77.821 y-46.628 z-0.300
x77.863 y-46.620 z-0.300
x77.904 y-46.611 z-0.300
x77.945 y-46.599 z-0.300
x77.985 y-46.586 z-0.300
x78.025 y-46.570 z-0.300
x78.064 y-46.553 z-0.300
x78.102 y-46.534 z-0.300
x78.139 y-46.513 z-0.300
x78.175 y-46.491 z-0.300
x78.209 y-46.467 z-0.300
x78.243 y-46.441 z-0.300
x78.276 y-46.414 z-0.300
x78.307 y-46.385 z-0.300
x78.336 y-46.355 z-0.300
x78.365 y-46.323 z-0.300
x78.392 y-46.290 z-0.300
x78.417 y-46.256 z-0.300
x78.440 y-46.221 z-0.300
x78.462 y-46.184 z-0.300
x78.482 y-46.147 z-0.300
x78.501 y-46.109 z-0.300
x78.517 y-46.070 z-0.300
x78.532 y-46.030 z-0.300
x78.544 y-45.989 z-0.300
x78.555 y-45.948 z-0.300
x78.564 y-45.907 z-0.300
x78.571 y-45.865 z-0.300
x78.576 y-45.823 z-0.300
x78.579 y-45.781 z-0.300
x78.580 y-45.738 z-0.300
x78.579 y-45.696 z-0.300
x78.576 y-45.653 z-0.300
x78.571 y-45.611 z-0.300
x78.564 y-45.569 z-0.300
x78.555 y-45.528 z-0.300
x78.544 y-45.487 z-0.300
x78.531 y-45.447 z-0.300
x78.516 y-45.407 z-0.300
x78.500 y-45.368 z-0.300
x78.481 y-45.330 z-0.300
x78.461 y-45.292 z-0.300
x78.439 y-45.256 z-0.300
x78.416 y-45.221 z-0.300
x78.391 y-45.187 z-0.300
x78.364 y-45.154 z-0.300
x78.335 y-45.122 z-0.300
x78.316 y-45.103 z-0.300
x60.457 y-27.245 z-0.300
x60.427 y-27.215 z-0.300
x60.395 y-27.188 z-0.300
x60.361 y-27.161 z-0.300
x60.327 y-27.137 z-0.300
x60.291 y-27.114 z-0.300
x60.254 y-27.092 z-0.300
x60.217 y-27.073 z-0.300
x60.178 y-27.055 z-0.300
x60.139 y-27.039 z-0.300
x60.099 y-27.025 z-0.300
x60.058 y-27.013 z-0.300
x60.017 y-27.003 z-0.300
x59.976 y-26.994 z-0.300
x59.934 y-26.988 z-0.300
x59.891 y-26.984 z-0.300
x59.849 y-26.981 z-0.300
x56.832 y-26.981 z-0.300
x56.790 y-26.982 z-0.300
x56.747 y-26.985 z-0.300
x56.705 y-26.990 z-0.300
x56.663 y-26.997 z-0.300
x56.622 y-27.006 z-0.300
x56.581 y-27.017 z-0.300
x56.540 y-27.030 z-0.300
x56.501 y-27.044 z-0.300
x56.462 y-27.061 z-0.300
x56.423 y-27.079 z-0.300
x56.386 y-27.099 z-0.300
x56.350 y-27.121 z-0.300
x56.314 y-27.145 z-0.300
x56.280 y-27.170 z-0.300
x56.247 y-27.197 z-0.300
x56.216 y-27.225 z-0.300
x54.604 y-28.837 z-0.300
x52.436 y-28.837 z-0.300
x52.394 y-28.838 z-0.300
x52.351 y-28.841 z-0.300
x52.309 y-28.846 z-0.300
x52.267 y-28.853 z-0.300
x52.226 y-28.862 z-0.300
x52.185 y-28.873 z-0.300
x52.144 y-28.886 z-0.300
x52.105 y-28.900 z-0.300
x52.066 y-28.917 z-0.300
x52.027 y-28.935 z-0.300
x51.990 y-28.955 z-0.300
x51.954 y-28.977 z-0.300
x51.918 y-29.001 z-0.300
x51.884 y-29.026 z-0.300
x51.857 y-29.048 z-0.300
x55.642 y-25.263 z-0.300
x55.669 y-25.231 z-0.300
x55.696 y-25.197 z-0.300
x55.720 y-25.163 z-0.300
x55.743 y-25.127 z-0.300
x55.765 y-25.090 z-0.300
x55.784 y-25.053 z-0.300
x55.802 y-25.014 z-0.300
x55.818 y-24.975 z-0.300
x55.832 y-24.935 z-0.300
x55.844 y-24.894 z-0.300
x55.854 y-24.853 z-0.300
x55.863 y-24.812 z-0.300
x55.869 y-24.770 z-0.300
x55.873 y-24.727 z-0.300
x55.876 y-24.685 z-0.300
x55.876 y-23.017 z-0.300
x65.693 y-23.017 z-0.300
x66.054 y-23.378 z-0.300
x66.086 y-23.405 z-0.300
x66.120 y-23.432 z-0.300
x66.154 y-23.456 z-0.300
x66.190 y-23.479 z-0.300
x66.227 y-23.501 z-0.300
x66.264 y-23.520 z-0.300
x66.303 y-23.538 z-0.300
x66.342 y-23.554 z-0.300
x66.382 y-23.568 z-0.300
x66.423 y-23.580 z-0.300
x66.464 y-23.590 z-0.300
x66.505 y-23.599 z-0.300
x66.547 y-23.605 z-0.300
x66.590 y-23.609 z-0.300
x66.632 y-23.612 z-0.300
x73.654 y-23.612 z-0.300
x73.801 y-23.759 z-0.300
x73.833 y-23.786 z-0.300
x73.867 y-23.813 z-0.300
x73.901 y-23.837 z-0.300
x73.937 y-23.860 z-0.300
x73.974 y-23.882 z-0.300
x74.011 y-23.901 z-0.300
x74.050 y-23.919 z-0.300
x74.089 y-23.935 z-0.300
x74.129 y-23.949 z-0.300
x74.170 y-23.961 z-0.300
x74.211 y-23.971 z-0.300
x74.252 y-23.980 z-0.300
x74.294 y-23.986 z-0.300
x74.337 y-23.990 z-0.300
x74.379 y-23.993 z-0.300
x74.421 y-23.993 z-0.300
x74.464 y-23.991 z-0.300
x74.506 y-23.988 z-0.300
x74.548 y-23.982 z-0.300
x74.590 y-23.974 z-0.300
x74.631 y-23.965 z-0.300
x74.672 y-23.953 z-0.300
x74.712 y-23.940 z-0.300
x74.752 y-23.924 z-0.300
x74.791 y-23.907 z-0.300
x74.829 y-23.888 z-0.300
x74.866 y-23.867 z-0.300
x74.902 y-23.845 z-0.300
x74.936 y-23.821 z-0.300
x74.970 y-23.795 z-0.300
x75.003 y-23.768 z-0.300
x75.034 y-23.739 z-0.300
x75.063 y-23.709 z-0.300
x75.092 y-23.677 z-0.300
x75.118 y-23.644 z-0.300
x75.144 y-23.610 z-0.300
x75.167 y-23.575 z-0.300
x75.189 y-23.538 z-0.300
x75.209 y-23.501 z-0.300
x75.228 y-23.463 z-0.300
x75.244 y-23.424 z-0.300
x75.259 y-23.384 z-0.300
x75.271 y-23.343 z-0.300
x75.282 y-23.302 z-0.300
x75.291 y-23.261 z-0.300
x75.298 y-23.219 z-0.300
x75.303 y-23.177 z-0.300
x75.306 y-23.135 z-0.300
x75.307 y-23.092 z-0.300
x75.306 y-23.050 z-0.300
x75.303 y-23.007 z-0.300
x75.298 y-22.965 z-0.300
x75.291 y-22.924 z-0.300
x75.282 y-22.882 z-0.300
x75.271 y-22.841 z-0.300
x75.258 y-22.801 z-0.300
x75.243 y-22.761 z-0.300
x75.227 y-22.722 z-0.300
x75.208 y-22.684 z-0.300
x75.188 y-22.646 z-0.300
x75.166 y-22.610 z-0.300
x75.143 y-22.575 z-0.300
x75.118 y-22.541 z-0.300
x75.091 y-22.508 z-0.300
x75.062 y-22.476 z-0.300
x74.632 y-22.046 z-0.300
x74.600 y-22.019 z-0.300
x74.566 y-21.992 z-0.300
x74.532 y-21.968 z-0.300
x74.496 y-21.945 z-0.300
x74.459 y-21.923 z-0.300
x74.422 y-21.904 z-0.300
x74.383 y-21.886 z-0.300
x74.344 y-21.870 z-0.300
x74.304 y-21.856 z-0.300
x74.263 y-21.844 z-0.300
x74.222 y-21.834 z-0.300
x74.181 y-21.825 z-0.300
x74.139 y-21.819 z-0.300
x74.096 y-21.815 z-0.300
x74.054 y-21.812 z-0.300
x67.032 y-21.812 z-0.300
x66.671 y-21.451 z-0.300
x66.639 y-21.424 z-0.300
x66.605 y-21.397 z-0.300
x66.571 y-21.373 z-0.300
x66.535 y-21.350 z-0.300
x66.498 y-21.328 z-0.300
x66.461 y-21.309 z-0.300
x66.422 y-21.291 z-0.300
x66.383 y-21.275 z-0.300
x66.343 y-21.261 z-0.300
x66.302 y-21.249 z-0.300
x66.261 y-21.239 z-0.300
x66.220 y-21.230 z-0.300
x66.178 y-21.224 z-0.300
x66.135 y-21.220 z-0.300
x66.093 y-21.217 z-0.300
x54.976 y-21.217 z-0.300
x54.934 y-21.218 z-0.300
x54.891 y-21.221 z-0.300
x54.849 y-21.226 z-0.300
x54.807 y-21.233 z-0.300
x54.766 y-21.242 z-0.300
x54.725 y-21.253 z-0.300
x54.684 y-21.266 z-0.300
x54.645 y-21.280 z-0.300
x54.606 y-21.297 z-0.300
x54.567 y-21.315 z-0.300
x54.530 y-21.335 z-0.300
x54.494 y-21.357 z-0.300
x54.458 y-21.381 z-0.300
x54.424 y-21.406 z-0.300
x54.391 y-21.433 z-0.300
x54.360 y-21.461 z-0.300
x54.329 y-21.491 z-0.300
x54.301 y-21.522 z-0.300
x54.273 y-21.555 z-0.300
x54.248 y-21.588 z-0.300
x54.224 y-21.623 z-0.300
x54.201 y-21.659 z-0.300
x54.180 y-21.696 z-0.300
x54.161 y-21.734 z-0.300
x54.144 y-21.773 z-0.300
x54.129 y-21.813 z-0.300
x54.116 y-21.853 z-0.300
x54.104 y-21.894 z-0.300
x54.095 y-21.935 z-0.300
x54.087 y-21.977 z-0.300
x54.081 y-22.019 z-0.300
x54.078 y-22.061 z-0.300
x54.076 y-22.117 z-0.300
x54.076 y-24.285 z-0.300
x49.230 y-29.131 z-0.300
x49.203 y-29.163 z-0.300
x49.176 y-29.197 z-0.300
x49.152 y-29.231 z-0.300
x49.129 y-29.267 z-0.300
x49.107 y-29.304 z-0.300
x49.088 y-29.341 z-0.300
x49.070 y-29.380 z-0.300
x49.054 y-29.419 z-0.300
x49.040 y-29.459 z-0.300
x49.028 y-29.500 z-0.300
x49.018 y-29.541 z-0.300
x49.009 y-29.582 z-0.300
x49.003 y-29.624 z-0.300
x48.999 y-29.667 z-0.300
x48.996 y-29.709 z-0.300
x48.996 y-29.751 z-0.300
x48.998 y-29.794 z-0.300
x49.001 y-29.836 z-0.300
x49.007 y-29.878 z-0.300
x49.015 y-29.920 z-0.300
x49.024 y-29.961 z-0.300
x49.036 y-30.002 z-0.300
x49.049 y-30.042 z-0.300
x49.065 y-30.082 z-0.300
x49.082 y-30.121 z-0.300
x49.101 y-30.159 z-0.300
x49.122 y-30.196 z-0.300
x49.144 y-30.232 z-0.300
x49.168 y-30.266 z-0.300
x49.194 y-30.300 z-0.300
x49.221 y-30.333 z-0.300
x49.250 y-30.364 z-0.300
x49.280 y-30.393 z-0.300
x49.312 y-30.422 z-0.300
x49.345 y-30.448 z-0.300
x49.379 y-30.474 z-0.300
x49.414 y-30.497 z-0.300
x49.451 y-30.519 z-0.300
x49.488 y-30.539 z-0.300
x49.526 y-30.558 z-0.300
x49.565 y-30.574 z-0.300
x49.605 y-30.589 z-0.300
x49.646 y-30.601 z-0.300
x49.687 y-30.612 z-0.300
x49.728 y-30.621 z-0.300
x49.770 y-30.628 z-0.300
x49.812 y-30.633 z-0.300
x49.854 y-30.636 z-0.300
x49.897 y-30.637 z-0.300
x49.939 y-30.636 z-0.300
x49.982 y-30.633 z-0.300
x50.024 y-30.628 z-0.300
x50.065 y-30.621 z-0.300
x50.107 y-30.612 z-0.300
x50.148 y-30.601 z-0.300
x50.188 y-30.588 z-0.300
x50.228 y-30.573 z-0.300
x50.267 y-30.557 z-0.300
x50.305 y-30.538 z-0.300
x50.343 y-30.518 z-0.300
x50.379 y-30.496 z-0.300
x50.414 y-30.473 z-0.300
x50.448 y-30.448 z-0.300
x50.481 y-30.421 z-0.300
x50.513 y-30.392 z-0.300
x51.750 y-29.155 z-0.300
x51.733 y-29.175 z-0.300
x51.708 y-29.208 z-0.300
x51.684 y-29.243 z-0.300
x51.661 y-29.279 z-0.300
x51.640 y-29.316 z-0.300
x51.621 y-29.354 z-0.300
x51.604 y-29.393 z-0.300
x51.589 y-29.433 z-0.300
x51.576 y-29.473 z-0.300
x51.564 y-29.514 z-0.300
x51.555 y-29.555 z-0.300
x51.547 y-29.597 z-0.300
x51.541 y-29.639 z-0.300
x51.538 y-29.681 z-0.300
x51.536 y-29.723 z-0.300
x51.536 y-29.766 z-0.300
x51.539 y-29.808 z-0.300
x51.543 y-29.850 z-0.300
x51.550 y-29.892 z-0.300
x51.558 y-29.934 z-0.300
x51.568 y-29.975 z-0.300
x51.580 y-30.016 z-0.300
x51.594 y-30.056 z-0.300
x51.610 y-30.095 z-0.300
x51.628 y-30.134 z-0.300
x51.648 y-30.171 z-0.300
x51.669 y-30.208 z-0.300
x51.692 y-30.243 z-0.300
x51.717 y-30.278 z-0.300
x51.743 y-30.311 z-0.300
x51.771 y-30.343 z-0.300
x51.800 y-30.374 z-0.300
x51.831 y-30.403 z-0.300
x51.863 y-30.431 z-0.300
x51.896 y-30.457 z-0.300
x51.931 y-30.482 z-0.300
x51.966 y-30.505 z-0.300
x52.003 y-30.526 z-0.300
x52.041 y-30.546 z-0.300
x52.079 y-30.563 z-0.300
x52.119 y-30.579 z-0.300
x52.159 y-30.593 z-0.300
x52.199 y-30.605 z-0.300
x52.241 y-30.616 z-0.300
x52.282 y-30.624 z-0.300
x52.324 y-30.630 z-0.300
x52.366 y-30.634 z-0.300
x52.409 y-30.637 z-0.300
x54.976 y-30.637 z-0.300
x55.018 y-30.636 z-0.300
x55.061 y-30.633 z-0.300
x55.103 y-30.628 z-0.300
x55.145 y-30.621 z-0.300
x55.186 y-30.612 z-0.300
x55.227 y-30.601 z-0.300
x55.268 y-30.588 z-0.300
x55.307 y-30.574 z-0.300
x55.346 y-30.557 z-0.300
x55.385 y-30.539 z-0.300
x55.422 y-30.519 z-0.300
x55.458 y-30.497 z-0.300
x55.494 y-30.473 z-0.300
x55.528 y-30.448 z-0.300
x55.561 y-30.421 z-0.300
x55.592 y-30.393 z-0.300
x56.832 y-29.152 z-0.300
x56.822 y-29.164 z-0.300
x56.796 y-29.197 z-0.300
x56.771 y-29.232 z-0.300
x56.748 y-29.267 z-0.300
x56.727 y-29.304 z-0.300
x56.707 y-29.342 z-0.300
x56.690 y-29.380 z-0.300
x56.674 y-29.420 z-0.300
x56.660 y-29.460 z-0.300
x56.648 y-29.500 z-0.300
x56.637 y-29.542 z-0.300
x56.629 y-29.583 z-0.300
x56.623 y-29.625 z-0.300
x56.619 y-29.667 z-0.300
x56.616 y-29.710 z-0.300
x56.616 y-30.508 z-0.300
x56.001 y-31.123 z-0.300
x36.053 y-31.123 z-0.300
x36.011 y-31.124 z-0.300
x35.968 y-31.127 z-0.300
x35.926 y-31.132 z-0.300
x35.884 y-31.139 z-0.300
x35.843 y-31.148 z-0.300
x35.802 y-31.159 z-0.300
x35.761 y-31.172 z-0.300
x35.722 y-31.186 z-0.300
x35.683 y-31.203 z-0.300
x35.644 y-31.221 z-0.300
x35.607 y-31.241 z-0.300
x35.571 y-31.263 z-0.300
x35.535 y-31.287 z-0.300
x35.501 y-31.312 z-0.300
x35.468 y-31.339 z-0.300
x35.437 y-31.367 z-0.300
x21.417 y-45.387 z-0.300
x21.390 y-45.419 z-0.300
x21.363 y-45.453 z-0.300
x21.339 y-45.487 z-0.300
x21.316 y-45.523 z-0.300
x21.294 y-45.560 z-0.300
x21.275 y-45.597 z-0.300
x21.257 y-45.636 z-0.300
x21.241 y-45.675 z-0.300
x21.227 y-45.715 z-0.300
x21.215 y-45.756 z-0.300
x21.205 y-45.797 z-0.300
x21.196 y-45.838 z-0.300
x21.190 y-45.880 z-0.300
x21.186 y-45.923 z-0.300
x21.183 y-45.965 z-0.300
x21.183 y-49.930 z-0.300
x21.184 y-49.972 z-0.300
x21.187 y-50.015 z-0.300
x21.192 y-50.057 z-0.300
x21.199 y-50.099 z-0.300
x21.208 y-50.140 z-0.300
x21.219 y-50.181 z-0.300
x21.232 y-50.222 z-0.300
x21.246 y-50.261 z-0.300
x21.263 y-50.300 z-0.300
x21.281 y-50.339 z-0.300
x21.301 y-50.376 z-0.300
x21.323 y-50.412 z-0.300
x21.347 y-50.448 z-0.300
x21.372 y-50.482 z-0.300
x21.399 y-50.515 z-0.300
x21.427 y-50.546 z-0.300
x21.457 y-50.577 z-0.300
x21.488 y-50.605 z-0.300
x21.521 y-50.633 z-0.300
x21.554 y-50.658 z-0.300
x21.589 y-50.682 z-0.300
x21.625 y-50.705 z-0.300
x21.662 y-50.726 z-0.300
x21.700 y-50.745 z-0.300
x21.739 y-50.762 z-0.300
x21.779 y-50.777 z-0.300
x21.819 y-50.790 z-0.300
x21.860 y-50.802 z-0.300
x21.901 y-50.811 z-0.300
x21.943 y-50.819 z-0.300
x21.985 y-50.825 z-0.300
x22.027 y-50.828 z-0.300
x22.069 y-50.830 z-0.300
x22.112 y-50.830 z-0.300
x22.154 y-50.827 z-0.300
x22.196 y-50.823 z-0.300

( Lift to 5.000 )
F2000 z5.000

( Percurso da ferramenta 7 )
( ------------------------- )

( Spindle on )
M3
S500

( Current depth = -0.300 )

( MoveToStartpoint2 )
F2000 G90 z5.000
F2000 x15.973 y-50.823 z5.000
F2000 x15.973 y-50.823 z0.000

( Loop )
G90 F500
x15.973 y-50.823 z-0.300
F500
x16.015 y-50.816 z-0.300
x16.057 y-50.808 z-0.300
x16.098 y-50.798 z-0.300
x16.139 y-50.786 z-0.300
x16.179 y-50.772 z-0.300
x16.218 y-50.756 z-0.300
x16.257 y-50.738 z-0.300
x16.294 y-50.718 z-0.300
x16.331 y-50.697 z-0.300
x16.366 y-50.674 z-0.300
x16.401 y-50.649 z-0.300
x16.434 y-50.623 z-0.300
x16.466 y-50.595 z-0.300
x16.497 y-50.566 z-0.300
x16.526 y-50.535 z-0.300
x16.554 y-50.503 z-0.300
x16.580 y-50.470 z-0.300
x16.605 y-50.435 z-0.300
x16.628 y-50.400 z-0.300
x16.649 y-50.363 z-0.300
x16.669 y-50.325 z-0.300
x16.686 y-50.287 z-0.300
x16.702 y-50.247 z-0.300
x16.716 y-50.207 z-0.300
x16.728 y-50.167 z-0.300
x16.739 y-50.125 z-0.300
x16.747 y-50.084 z-0.300
x16.753 y-50.042 z-0.300
x16.757 y-50.000 z-0.300
x16.760 y-49.957 z-0.300
x16.760 y-34.809 z-0.300
x16.761 y-34.808 z-0.300
x16.789 y-34.777 z-0.300
x16.817 y-34.744 z-0.300
x16.842 y-34.711 z-0.300
x16.866 y-34.676 z-0.300
x16.889 y-34.640 z-0.300
x16.910 y-34.603 z-0.300
x16.929 y-34.565 z-0.300
x16.946 y-34.526 z-0.300
x16.961 y-34.486 z-0.300
x16.974 y-34.446 z-0.300
x16.986 y-34.405 z-0.300
x16.995 y-34.364 z-0.300
x17.003 y-34.322 z-0.300
x17.009 y-34.280 z-0.300
x17.012 y-34.238 z-0.300
x17.014 y-34.196 z-0.300
x17.014 y-34.153 z-0.300
x17.011 y-34.111 z-0.300
x17.007 y-34.069 z-0.300
x17.000 y-34.027 z-0.300
x16.992 y-33.985 z-0.300
x16.982 y-33.944 z-0.300
x16.970 y-33.903 z-0.300
x16.956 y-33.863 z-0.300
x16.940 y-33.824 z-0.300
x16.922 y-33.785 z-0.300
x16.902 y-33.748 z-0.300
x16.881 y-33.711 z-0.300
x16.858 y-33.676 z-0.300
x16.833 y-33.641 z-0.300
x16.807 y-33.608 z-0.300
x16.779 y-33.576 z-0.300
x16.750 y-33.545 z-0.300
x16.719 y-33.516 z-0.300
x16.687 y-33.488 z-0.300
x16.654 y-33.462 z-0.300
x16.619 y-33.437 z-0.300
x16.584 y-33.414 z-0.300
x16.547 y-33.393 z-0.300
x16.509 y-33.373 z-0.300
x16.471 y-33.356 z-0.300
x16.431 y-33.340 z-0.300
x16.391 y-33.326 z-0.300
x16.351 y-33.314 z-0.300
x16.309 y-33.303 z-0.300
x16.268 y-33.295 z-0.300
x16.226 y-33.289 z-0.300
x16.184 y-33.285 z-0.300
x16.141 y-33.282 z-0.300
x15.860 y-33.282 z-0.300
x15.818 y-33.283 z-0.300
x15.775 y-33.286 z-0.300
x15.733 y-33.291 z-0.300
x15.691 y-33.298 z-0.300
x15.650 y-33.307 z-0.300
x15.609 y-33.318 z-0.300
x15.568 y-33.331 z-0.300
x15.529 y-33.345 z-0.300
x15.490 y-33.362 z-0.300
x15.451 y-33.380 z-0.300
x15.414 y-33.400 z-0.300
x15.378 y-33.422 z-0.300
x15.342 y-33.446 z-0.300
x15.308 y-33.471 z-0.300
x15.275 y-33.498 z-0.300
x15.244 y-33.526 z-0.300
x15.213 y-33.556 z-0.300
x15.185 y-33.587 z-0.300
x15.157 y-33.620 z-0.300
x15.132 y-33.653 z-0.300
x15.108 y-33.688 z-0.300
x15.085 y-33.724 z-0.300
x15.064 y-33.761 z-0.300
x15.045 y-33.799 z-0.300
x15.028 y-33.838 z-0.300
x15.013 y-33.878 z-0.300
x15.000 y-33.918 z-0.300
x14.988 y-33.959 z-0.300
x14.979 y-34.000 z-0.300
x14.971 y-34.042 z-0.300
x14.965 y-34.084 z-0.300
x14.962 y-34.126 z-0.300
x14.960 y-34.182 z-0.300
x14.960 y-49.930 z-0.300
x14.961 y-49.972 z-0.300
x14.964 y-50.015 z-0.300
x14.969 y-50.057 z-0.300
x14.976 y-50.099 z-0.300
x14.985 y-50.140 z-0.300
x14.996 y-50.181 z-0.300
x15.009 y-50.222 z-0.300
x15.023 y-50.261 z-0.300
x15.040 y-50.300 z-0.300
x15.058 y-50.339 z-0.300
x15.078 y-50.376 z-0.300
x15.100 y-50.412 z-0.300
x15.124 y-50.448 z-0.300
x15.149 y-50.482 z-0.300
x15.176 y-50.515 z-0.300
x15.204 y-50.546 z-0.300
x15.234 y-50.577 z-0.300
x15.265 y-50.605 z-0.300
x15.298 y-50.633 z-0.300
x15.331 y-50.658 z-0.300
x15.366 y-50.682 z-0.300
x15.402 y-50.705 z-0.300
x15.439 y-50.726 z-0.300
x15.477 y-50.745 z-0.300
x15.516 y-50.762 z-0.300
x15.556 y-50.777 z-0.300
x15.596 y-50.790 z-0.300
x15.637 y-50.802 z-0.300
x15.678 y-50.811 z-0.300
x15.720 y-50.819 z-0.300
x15.762 y-50.825 z-0.300
x15.804 y-50.828 z-0.300
x15.846 y-50.830 z-0.300
x15.889 y-50.830 z-0.300
x15.931 y-50.827 z-0.300
x15.973 y-50.823 z-0.300

( Lift to 5.000 )
F2000 z5.000

( Percurso da ferramenta 5 )
( ------------------------- )

( Spindle on )
M3
S500

( Current depth = -0.300 )

( MoveToStartpoint2 )
F2000 G90 z5.000
F2000 x13.433 y-50.823 z5.000
F2000 x13.433 y-50.823 z0.000

( Loop )
G90 F500
x13.433 y-50.823 z-0.300
F500
x13.475 y-50.816 z-0.300
x13.517 y-50.808 z-0.300
x13.558 y-50.798 z-0.300
x13.599 y-50.786 z-0.300
x13.639 y-50.772 z-0.300
x13.678 y-50.756 z-0.300
x13.717 y-50.738 z-0.300
x13.754 y-50.718 z-0.300
x13.791 y-50.697 z-0.300
x13.826 y-50.674 z-0.300
x13.861 y-50.649 z-0.300
x13.894 y-50.623 z-0.300
x13.926 y-50.595 z-0.300
x13.957 y-50.566 z-0.300
x13.986 y-50.535 z-0.300
x14.014 y-50.503 z-0.300
x14.040 y-50.470 z-0.300
x14.065 y-50.435 z-0.300
x14.088 y-50.400 z-0.300
x14.109 y-50.363 z-0.300
x14.129 y-50.325 z-0.300
x14.146 y-50.287 z-0.300
x14.162 y-50.247 z-0.300
x14.176 y-50.207 z-0.300
x14.188 y-50.167 z-0.300
x14.199 y-50.125 z-0.300
x14.207 y-50.084 z-0.300
x14.213 y-50.042 z-0.300
x14.217 y-50.000 z-0.300
x14.220 y-49.957 z-0.300
x14.220 y-34.808 z-0.300
x14.240 y-34.788 z-0.300
x14.267 y-34.756 z-0.300
x14.294 y-34.722 z-0.300
x14.318 y-34.688 z-0.300
x14.341 y-34.652 z-0.300
x14.363 y-34.615 z-0.300
x14.382 y-34.578 z-0.300
x14.400 y-34.539 z-0.300
x14.416 y-34.500 z-0.300
x14.430 y-34.460 z-0.300
x14.442 y-34.419 z-0.300
x14.452 y-34.378 z-0.300
x14.461 y-34.337 z-0.300
x14.467 y-34.295 z-0.300
x14.471 y-34.252 z-0.300
x14.474 y-34.210 z-0.300
x14.474 y-34.168 z-0.300
x14.472 y-34.125 z-0.300
x14.469 y-34.083 z-0.300
x14.463 y-34.041 z-0.300
x14.455 y-33.999 z-0.300
x14.446 y-33.958 z-0.300
x14.434 y-33.917 z-0.300
x14.421 y-33.877 z-0.300
x14.405 y-33.837 z-0.300
x14.388 y-33.798 z-0.300
x14.369 y-33.760 z-0.300
x14.348 y-33.723 z-0.300
x14.326 y-33.687 z-0.300
x14.302 y-33.653 z-0.300
x14.276 y-33.619 z-0.300
x14.249 y-33.586 z-0.300
x14.220 y-33.555 z-0.300
x14.190 y-33.526 z-0.300
x14.158 y-33.497 z-0.300
x14.125 y-33.471 z-0.300
x14.091 y-33.445 z-0.300
x14.056 y-33.422 z-0.300
x14.019 y-33.400 z-0.300
x13.982 y-33.380 z-0.300
x13.944 y-33.361 z-0.300
x13.905 y-33.345 z-0.300
x13.865 y-33.330 z-0.300
x13.824 y-33.318 z-0.300
x13.783 y-33.307 z-0.300
x13.742 y-33.298 z-0.300
x13.700 y-33.291 z-0.300
x13.658 y-33.286 z-0.300
x13.616 y-33.283 z-0.300
x13.573 y-33.282 z-0.300
x13.531 y-33.283 z-0.300
x13.488 y-33.286 z-0.300
x13.446 y-33.291 z-0.300
x13.405 y-33.298 z-0.300
x13.363 y-33.307 z-0.300
x13.322 y-33.318 z-0.300
x13.282 y-33.331 z-0.300
x13.242 y-33.346 z-0.300
x13.203 y-33.362 z-0.300
x13.165 y-33.381 z-0.300
x13.127 y-33.401 z-0.300
x13.091 y-33.423 z-0.300
x13.056 y-33.446 z-0.300
x13.022 y-33.471 z-0.300
x12.989 y-33.498 z-0.300
x12.957 y-33.527 z-0.300
x12.654 y-33.830 z-0.300
x12.627 y-33.862 z-0.300
x12.600 y-33.896 z-0.300
x12.576 y-33.930 z-0.300
x12.553 y-33.966 z-0.300
x12.531 y-34.003 z-0.300
x12.512 y-34.040 z-0.300
x12.494 y-34.079 z-0.300
x12.478 y-34.118 z-0.300
x12.464 y-34.158 z-0.300
x12.452 y-34.199 z-0.300
x12.442 y-34.240 z-0.300
x12.433 y-34.281 z-0.300
x12.427 y-34.323 z-0.300
x12.423 y-34.366 z-0.300
x12.420 y-34.408 z-0.300
x12.420 y-49.930 z-0.300
x12.421 y-49.972 z-0.300
x12.424 y-50.015 z-0.300
x12.429 y-50.057 z-0.300
x12.436 y-50.099 z-0.300
x12.445 y-50.140 z-0.300
x12.456 y-50.181 z-0.300
x12.469 y-50.222 z-0.300
x12.483 y-50.261 z-0.300
x12.500 y-50.300 z-0.300
x12.518 y-50.339 z-0.300
x12.538 y-50.376 z-0.300
x12.560 y-50.412 z-0.300
x12.584 y-50.448 z-0.300
x12.609 y-50.482 z-0.300
x12.636 y-50.515 z-0.300
x12.664 y-50.546 z-0.300
x12.694 y-50.577 z-0.300
x12.725 y-50.605 z-0.300
x12.758 y-50.633 z-0.300
x12.791 y-50.658 z-0.300
x12.826 y-50.682 z-0.300
x12.862 y-50.705 z-0.300
x12.899 y-50.726 z-0.300
x12.937 y-50.745 z-0.300
x12.976 y-50.762 z-0.300
x13.016 y-50.777 z-0.300
x13.056 y-50.790 z-0.300
x13.097 y-50.802 z-0.300
x13.138 y-50.811 z-0.300
x13.180 y-50.819 z-0.300
x13.222 y-50.825 z-0.300
x13.264 y-50.828 z-0.300
x13.306 y-50.830 z-0.300
x13.349 y-50.830 z-0.300
x13.391 y-50.827 z-0.300
x13.433 y-50.823 z-0.300

( Lift to 5.000 )
F2000 z5.000

( Program end, back to origin )
G90 F2000 z5.000

( Spindle off )
M5
F2000 x0.000 y0.000 z5.000
