( Created by GrblGru )
( 06.12.2023 13:20:54 )



( Additional commands from settings )
G1 F200 Z25
G4 P2

( Job: Solder Tracks  -> None 3.175mm )
( ------------------------------- )

( Job mode = 0, CUT )
( Type of tool = 0, SPINDLE )

( TransformationTyp = NONE )
( Plano de segurança = 5 )
( Soma da profundidade = 0.4 )
( Profundidade por passo = 0.4 )
( Rampa de Mergulho = 0 )
( Tamanho de partição = 2 )
( Avanço de corte = 500 )
( Avanço rápido = 2000 )
( Avanço de mergulho = 500 )
( Tool = V-carve 45° x 3.175 )
( Tool diameter = 3.175 )



G1 G90 F100

( Percurso da ferramenta )
( ------------------------- )

( Spindle on )
M3
S500

( Current depth = -0.400 )

( MoveToStartpoint2 )
F2000 G90 z5.000
F2000 x13.673 y-19.714 z5.000
F2000 x13.673 y-19.714 z0.000

( Loop )
G90 F500
x13.673 y-19.714 z-0.400
F500
x13.715 y-19.708 z-0.400
x13.757 y-19.700 z-0.400
x13.798 y-19.691 z-0.400
x13.839 y-19.679 z-0.400
x13.879 y-19.666 z-0.400
x13.919 y-19.650 z-0.400
x13.958 y-19.633 z-0.400
x13.996 y-19.614 z-0.400
x14.033 y-19.593 z-0.400
x14.069 y-19.571 z-0.400
x14.103 y-19.547 z-0.400
x14.137 y-19.521 z-0.400
x14.170 y-19.494 z-0.400
x14.201 y-19.465 z-0.400
x14.230 y-19.435 z-0.400
x14.259 y-19.403 z-0.400
x14.285 y-19.370 z-0.400
x14.311 y-19.336 z-0.400
x14.334 y-19.301 z-0.400
x14.356 y-19.264 z-0.400
x14.376 y-19.227 z-0.400
x14.395 y-19.189 z-0.400
x14.411 y-19.150 z-0.400
x14.426 y-19.110 z-0.400
x14.438 y-19.069 z-0.400
x14.449 y-19.028 z-0.400
x14.458 y-18.987 z-0.400
x14.465 y-18.945 z-0.400
x14.470 y-18.903 z-0.400
x14.473 y-18.861 z-0.400
x14.474 y-18.818 z-0.400
x14.473 y-18.776 z-0.400
x14.470 y-18.733 z-0.400
x14.465 y-18.691 z-0.400
x14.458 y-18.650 z-0.400
x14.449 y-18.608 z-0.400
x14.438 y-18.567 z-0.400
x14.425 y-18.527 z-0.400
x14.410 y-18.487 z-0.400
x14.394 y-18.448 z-0.400
x14.375 y-18.410 z-0.400
x14.355 y-18.372 z-0.400
x14.333 y-18.336 z-0.400
x14.310 y-18.301 z-0.400
x14.285 y-18.267 z-0.400
x14.258 y-18.234 z-0.400
x14.229 y-18.202 z-0.400
x14.220 y-18.193 z-0.400
x14.220 y-3.071 z-0.400
x14.219 y-3.029 z-0.400
x14.216 y-2.986 z-0.400
x14.211 y-2.944 z-0.400
x14.204 y-2.902 z-0.400
x14.195 y-2.861 z-0.400
x14.184 y-2.820 z-0.400
x14.171 y-2.779 z-0.400
x14.157 y-2.740 z-0.400
x14.140 y-2.701 z-0.400
x14.122 y-2.662 z-0.400
x14.102 y-2.625 z-0.400
x14.080 y-2.589 z-0.400
x14.056 y-2.553 z-0.400
x14.031 y-2.519 z-0.400
x14.004 y-2.486 z-0.400
x13.976 y-2.455 z-0.400
x13.946 y-2.424 z-0.400
x13.915 y-2.396 z-0.400
x13.882 y-2.368 z-0.400
x13.849 y-2.343 z-0.400
x13.814 y-2.319 z-0.400
x13.778 y-2.296 z-0.400
x13.741 y-2.275 z-0.400
x13.703 y-2.256 z-0.400
x13.664 y-2.239 z-0.400
x13.624 y-2.224 z-0.400
x13.584 y-2.211 z-0.400
x13.543 y-2.199 z-0.400
x13.502 y-2.190 z-0.400
x13.460 y-2.182 z-0.400
x13.418 y-2.176 z-0.400
x13.376 y-2.173 z-0.400
x13.334 y-2.171 z-0.400
x13.291 y-2.171 z-0.400
x13.249 y-2.174 z-0.400
x13.207 y-2.178 z-0.400
x13.165 y-2.185 z-0.400
x13.123 y-2.193 z-0.400
x13.082 y-2.203 z-0.400
x13.041 y-2.215 z-0.400
x13.001 y-2.229 z-0.400
x12.962 y-2.245 z-0.400
x12.923 y-2.263 z-0.400
x12.886 y-2.283 z-0.400
x12.849 y-2.304 z-0.400
x12.814 y-2.327 z-0.400
x12.779 y-2.352 z-0.400
x12.746 y-2.378 z-0.400
x12.714 y-2.406 z-0.400
x12.683 y-2.435 z-0.400
x12.654 y-2.466 z-0.400
x12.626 y-2.498 z-0.400
x12.600 y-2.531 z-0.400
x12.575 y-2.566 z-0.400
x12.552 y-2.601 z-0.400
x12.531 y-2.638 z-0.400
x12.511 y-2.676 z-0.400
x12.494 y-2.714 z-0.400
x12.478 y-2.754 z-0.400
x12.464 y-2.794 z-0.400
x12.452 y-2.834 z-0.400
x12.441 y-2.876 z-0.400
x12.433 y-2.917 z-0.400
x12.427 y-2.959 z-0.400
x12.423 y-3.001 z-0.400
x12.420 y-3.044 z-0.400
x12.420 y-18.565 z-0.400
x12.421 y-18.607 z-0.400
x12.424 y-18.650 z-0.400
x12.429 y-18.692 z-0.400
x12.436 y-18.734 z-0.400
x12.445 y-18.775 z-0.400
x12.456 y-18.816 z-0.400
x12.469 y-18.857 z-0.400
x12.483 y-18.896 z-0.400
x12.500 y-18.935 z-0.400
x12.518 y-18.974 z-0.400
x12.538 y-19.011 z-0.400
x12.560 y-19.047 z-0.400
x12.584 y-19.083 z-0.400
x12.609 y-19.117 z-0.400
x12.636 y-19.150 z-0.400
x12.664 y-19.181 z-0.400
x12.968 y-19.485 z-0.400
x13.000 y-19.512 z-0.400
x13.034 y-19.539 z-0.400
x13.068 y-19.563 z-0.400
x13.104 y-19.586 z-0.400
x13.141 y-19.608 z-0.400
x13.178 y-19.627 z-0.400
x13.217 y-19.645 z-0.400
x13.256 y-19.661 z-0.400
x13.296 y-19.675 z-0.400
x13.337 y-19.687 z-0.400
x13.378 y-19.697 z-0.400
x13.419 y-19.706 z-0.400
x13.461 y-19.712 z-0.400
x13.504 y-19.716 z-0.400
x13.546 y-19.719 z-0.400
x13.588 y-19.719 z-0.400
x13.631 y-19.717 z-0.400
x13.673 y-19.714 z-0.400

( Lift to 5.000 )
F2000 z5.000

( Percurso da ferramenta 0 )
( ------------------------- )

( Spindle on )
M3
S500

( Current depth = -0.400 )

( MoveToStartpoint2 )
F2000 G90 z5.000
F2000 x16.199 y-19.715 z5.000
F2000 x16.199 y-19.715 z0.000

( Loop )
G90 F500
x16.199 y-19.715 z-0.400
F500
x16.241 y-19.710 z-0.400
x16.283 y-19.703 z-0.400
x16.324 y-19.694 z-0.400
x16.365 y-19.683 z-0.400
x16.406 y-19.670 z-0.400
x16.445 y-19.656 z-0.400
x16.484 y-19.639 z-0.400
x16.523 y-19.621 z-0.400
x16.560 y-19.601 z-0.400
x16.596 y-19.579 z-0.400
x16.632 y-19.555 z-0.400
x16.666 y-19.530 z-0.400
x16.699 y-19.503 z-0.400
x16.730 y-19.475 z-0.400
x16.761 y-19.445 z-0.400
x16.789 y-19.414 z-0.400
x16.817 y-19.381 z-0.400
x16.842 y-19.348 z-0.400
x16.866 y-19.313 z-0.400
x16.889 y-19.277 z-0.400
x16.910 y-19.240 z-0.400
x16.929 y-19.202 z-0.400
x16.946 y-19.163 z-0.400
x16.961 y-19.123 z-0.400
x16.974 y-19.083 z-0.400
x16.986 y-19.042 z-0.400
x16.995 y-19.001 z-0.400
x17.003 y-18.959 z-0.400
x17.009 y-18.917 z-0.400
x17.012 y-18.875 z-0.400
x17.014 y-18.833 z-0.400
x17.014 y-18.790 z-0.400
x17.011 y-18.748 z-0.400
x17.007 y-18.706 z-0.400
x17.000 y-18.664 z-0.400
x16.992 y-18.622 z-0.400
x16.982 y-18.581 z-0.400
x16.970 y-18.540 z-0.400
x16.956 y-18.500 z-0.400
x16.940 y-18.461 z-0.400
x16.922 y-18.422 z-0.400
x16.902 y-18.385 z-0.400
x16.881 y-18.348 z-0.400
x16.858 y-18.313 z-0.400
x16.833 y-18.278 z-0.400
x16.807 y-18.245 z-0.400
x16.779 y-18.213 z-0.400
x16.760 y-18.193 z-0.400
x16.760 y-3.071 z-0.400
x16.759 y-3.029 z-0.400
x16.756 y-2.986 z-0.400
x16.751 y-2.944 z-0.400
x16.744 y-2.902 z-0.400
x16.735 y-2.861 z-0.400
x16.724 y-2.820 z-0.400
x16.711 y-2.779 z-0.400
x16.697 y-2.740 z-0.400
x16.680 y-2.701 z-0.400
x16.662 y-2.662 z-0.400
x16.642 y-2.625 z-0.400
x16.620 y-2.589 z-0.400
x16.596 y-2.553 z-0.400
x16.571 y-2.519 z-0.400
x16.544 y-2.486 z-0.400
x16.516 y-2.455 z-0.400
x16.486 y-2.424 z-0.400
x16.455 y-2.396 z-0.400
x16.422 y-2.368 z-0.400
x16.389 y-2.343 z-0.400
x16.354 y-2.319 z-0.400
x16.318 y-2.296 z-0.400
x16.281 y-2.275 z-0.400
x16.243 y-2.256 z-0.400
x16.204 y-2.239 z-0.400
x16.164 y-2.224 z-0.400
x16.124 y-2.211 z-0.400
x16.083 y-2.199 z-0.400
x16.042 y-2.190 z-0.400
x16.000 y-2.182 z-0.400
x15.958 y-2.176 z-0.400
x15.916 y-2.173 z-0.400
x15.874 y-2.171 z-0.400
x15.831 y-2.171 z-0.400
x15.789 y-2.174 z-0.400
x15.747 y-2.178 z-0.400
x15.705 y-2.185 z-0.400
x15.663 y-2.193 z-0.400
x15.622 y-2.203 z-0.400
x15.581 y-2.215 z-0.400
x15.541 y-2.229 z-0.400
x15.502 y-2.245 z-0.400
x15.463 y-2.263 z-0.400
x15.426 y-2.283 z-0.400
x15.389 y-2.304 z-0.400
x15.354 y-2.327 z-0.400
x15.319 y-2.352 z-0.400
x15.286 y-2.378 z-0.400
x15.254 y-2.406 z-0.400
x15.223 y-2.435 z-0.400
x15.194 y-2.466 z-0.400
x15.166 y-2.498 z-0.400
x15.140 y-2.531 z-0.400
x15.115 y-2.566 z-0.400
x15.092 y-2.601 z-0.400
x15.071 y-2.638 z-0.400
x15.051 y-2.676 z-0.400
x15.034 y-2.714 z-0.400
x15.018 y-2.754 z-0.400
x15.004 y-2.794 z-0.400
x14.992 y-2.834 z-0.400
x14.981 y-2.876 z-0.400
x14.973 y-2.917 z-0.400
x14.967 y-2.959 z-0.400
x14.963 y-3.001 z-0.400
x14.960 y-3.044 z-0.400
x14.960 y-18.819 z-0.400
x14.961 y-18.861 z-0.400
x14.964 y-18.904 z-0.400
x14.969 y-18.946 z-0.400
x14.976 y-18.988 z-0.400
x14.985 y-19.029 z-0.400
x14.996 y-19.070 z-0.400
x15.009 y-19.111 z-0.400
x15.023 y-19.150 z-0.400
x15.040 y-19.189 z-0.400
x15.058 y-19.228 z-0.400
x15.078 y-19.265 z-0.400
x15.100 y-19.301 z-0.400
x15.124 y-19.337 z-0.400
x15.149 y-19.371 z-0.400
x15.176 y-19.404 z-0.400
x15.204 y-19.435 z-0.400
x15.234 y-19.466 z-0.400
x15.265 y-19.494 z-0.400
x15.298 y-19.522 z-0.400
x15.331 y-19.547 z-0.400
x15.366 y-19.571 z-0.400
x15.402 y-19.594 z-0.400
x15.439 y-19.615 z-0.400
x15.477 y-19.634 z-0.400
x15.516 y-19.651 z-0.400
x15.556 y-19.666 z-0.400
x15.596 y-19.679 z-0.400
x15.637 y-19.691 z-0.400
x15.678 y-19.700 z-0.400
x15.720 y-19.708 z-0.400
x15.762 y-19.714 z-0.400
x15.804 y-19.717 z-0.400
x15.860 y-19.719 z-0.400
x16.114 y-19.719 z-0.400
x16.156 y-19.718 z-0.400
x16.199 y-19.715 z-0.400

( Lift to 5.000 )
F2000 z5.000

( Percurso da ferramenta 3 )
( ------------------------- )

( Spindle on )
M3
S500

( Current depth = -0.400 )

( MoveToStartpoint2 )
F2000 G90 z5.000
F2000 x39.087 y-19.712 z5.000
F2000 x39.087 y-19.712 z0.000

( Loop )
G90 F500
x39.087 y-19.712 z-0.400
F500
x39.129 y-19.705 z-0.400
x39.171 y-19.697 z-0.400
x39.212 y-19.687 z-0.400
x39.253 y-19.675 z-0.400
x39.293 y-19.661 z-0.400
x39.332 y-19.645 z-0.400
x39.371 y-19.627 z-0.400
x39.408 y-19.607 z-0.400
x39.445 y-19.586 z-0.400
x39.480 y-19.563 z-0.400
x39.515 y-19.538 z-0.400
x39.548 y-19.512 z-0.400
x39.580 y-19.484 z-0.400
x39.611 y-19.455 z-0.400
x39.640 y-19.424 z-0.400
x39.668 y-19.392 z-0.400
x39.694 y-19.359 z-0.400
x39.719 y-19.324 z-0.400
x39.742 y-19.289 z-0.400
x39.763 y-19.252 z-0.400
x39.783 y-19.214 z-0.400
x39.800 y-19.176 z-0.400
x39.816 y-19.136 z-0.400
x39.830 y-19.096 z-0.400
x39.842 y-19.056 z-0.400
x39.853 y-19.014 z-0.400
x39.861 y-18.973 z-0.400
x39.867 y-18.931 z-0.400
x39.871 y-18.889 z-0.400
x39.874 y-18.846 z-0.400
x39.874 y-14.091 z-0.400
x39.873 y-14.049 z-0.400
x39.870 y-14.006 z-0.400
x39.865 y-13.964 z-0.400
x39.858 y-13.922 z-0.400
x39.849 y-13.881 z-0.400
x39.838 y-13.840 z-0.400
x39.825 y-13.799 z-0.400
x39.811 y-13.760 z-0.400
x39.794 y-13.721 z-0.400
x39.776 y-13.682 z-0.400
x39.756 y-13.645 z-0.400
x39.734 y-13.609 z-0.400
x39.710 y-13.573 z-0.400
x39.685 y-13.539 z-0.400
x39.658 y-13.506 z-0.400
x39.630 y-13.475 z-0.400
x32.751 y-6.596 z-0.400
x32.719 y-6.569 z-0.400
x32.685 y-6.542 z-0.400
x32.651 y-6.518 z-0.400
x32.615 y-6.495 z-0.400
x32.578 y-6.473 z-0.400
x32.541 y-6.454 z-0.400
x32.502 y-6.436 z-0.400
x32.463 y-6.420 z-0.400
x32.423 y-6.406 z-0.400
x32.382 y-6.394 z-0.400
x32.341 y-6.384 z-0.400
x32.300 y-6.375 z-0.400
x32.258 y-6.369 z-0.400
x32.215 y-6.365 z-0.400
x32.163 y-6.362 z-0.400
x26.559 y-6.248 z-0.400
x25.482 y-2.803 z-0.400
x25.468 y-2.762 z-0.400
x25.453 y-2.723 z-0.400
x25.436 y-2.684 z-0.400
x25.415 y-2.646 z-0.400
x25.396 y-2.609 z-0.400
x25.372 y-2.573 z-0.400
x25.348 y-2.539 z-0.400
x25.323 y-2.505 z-0.400
x25.295 y-2.473 z-0.400
x25.266 y-2.442 z-0.400
x25.235 y-2.412 z-0.400
x25.204 y-2.384 z-0.400
x25.171 y-2.357 z-0.400
x25.137 y-2.332 z-0.400
x25.101 y-2.309 z-0.400
x25.064 y-2.287 z-0.400
x25.028 y-2.267 z-0.400
x24.989 y-2.249 z-0.400
x24.950 y-2.233 z-0.400
x24.910 y-2.218 z-0.400
x24.870 y-2.206 z-0.400
x24.829 y-2.195 z-0.400
x24.787 y-2.186 z-0.400
x24.745 y-2.179 z-0.400
x24.703 y-2.175 z-0.400
x24.661 y-2.172 z-0.400
x24.619 y-2.171 z-0.400
x24.576 y-2.172 z-0.400
x24.534 y-2.175 z-0.400
x24.492 y-2.181 z-0.400
x24.450 y-2.188 z-0.400
x24.409 y-2.197 z-0.400
x24.368 y-2.208 z-0.400
x24.327 y-2.221 z-0.400
x24.287 y-2.236 z-0.400
x24.248 y-2.253 z-0.400
x24.210 y-2.271 z-0.400
x24.173 y-2.292 z-0.400
x24.137 y-2.314 z-0.400
x24.102 y-2.337 z-0.400
x24.068 y-2.363 z-0.400
x24.035 y-2.390 z-0.400
x24.004 y-2.418 z-0.400
x23.973 y-2.448 z-0.400
x23.945 y-2.479 z-0.400
x23.918 y-2.512 z-0.400
x23.892 y-2.546 z-0.400
x23.868 y-2.581 z-0.400
x23.846 y-2.617 z-0.400
x23.825 y-2.654 z-0.400
x23.807 y-2.692 z-0.400
x23.790 y-2.731 z-0.400
x23.775 y-2.771 z-0.400
x23.761 y-2.811 z-0.400
x23.750 y-2.852 z-0.400
x23.741 y-2.893 z-0.400
x23.733 y-2.935 z-0.400
x23.728 y-2.977 z-0.400
x23.724 y-3.019 z-0.400
x23.723 y-3.062 z-0.400
x23.724 y-3.104 z-0.400
x23.726 y-3.147 z-0.400
x23.731 y-3.189 z-0.400
x23.737 y-3.231 z-0.400
x23.746 y-3.272 z-0.400
x23.756 y-3.313 z-0.400
x23.764 y-3.339 z-0.400
x25.034 y-7.403 z-0.400
x25.048 y-7.444 z-0.400
x25.063 y-7.483 z-0.400
x25.080 y-7.522 z-0.400
x25.100 y-7.560 z-0.400
x25.119 y-7.597 z-0.400
x25.143 y-7.633 z-0.400
x25.167 y-7.667 z-0.400
x25.192 y-7.701 z-0.400
x25.220 y-7.733 z-0.400
x25.250 y-7.764 z-0.400
x25.280 y-7.794 z-0.400
x25.311 y-7.822 z-0.400
x25.345 y-7.849 z-0.400
x25.378 y-7.874 z-0.400
x25.414 y-7.897 z-0.400
x25.451 y-7.919 z-0.400
x25.488 y-7.939 z-0.400
x25.527 y-7.957 z-0.400
x25.566 y-7.973 z-0.400
x25.606 y-7.988 z-0.400
x25.646 y-8.000 z-0.400
x25.686 y-8.011 z-0.400
x25.729 y-8.020 z-0.400
x25.771 y-8.027 z-0.400
x25.813 y-8.031 z-0.400
x25.875 y-8.035 z-0.400
x31.766 y-8.155 z-0.400
x38.074 y-14.463 z-0.400
x38.074 y-18.819 z-0.400
x38.075 y-18.861 z-0.400
x38.078 y-18.904 z-0.400
x38.083 y-18.946 z-0.400
x38.090 y-18.988 z-0.400
x38.099 y-19.029 z-0.400
x38.110 y-19.070 z-0.400
x38.123 y-19.111 z-0.400
x38.137 y-19.150 z-0.400
x38.154 y-19.189 z-0.400
x38.172 y-19.228 z-0.400
x38.192 y-19.265 z-0.400
x38.214 y-19.301 z-0.400
x38.238 y-19.337 z-0.400
x38.263 y-19.371 z-0.400
x38.290 y-19.404 z-0.400
x38.318 y-19.435 z-0.400
x38.348 y-19.466 z-0.400
x38.379 y-19.494 z-0.400
x38.412 y-19.522 z-0.400
x38.445 y-19.547 z-0.400
x38.480 y-19.571 z-0.400
x38.516 y-19.594 z-0.400
x38.553 y-19.615 z-0.400
x38.591 y-19.634 z-0.400
x38.630 y-19.651 z-0.400
x38.670 y-19.666 z-0.400
x38.710 y-19.679 z-0.400
x38.751 y-19.691 z-0.400
x38.792 y-19.700 z-0.400
x38.834 y-19.708 z-0.400
x38.876 y-19.714 z-0.400
x38.918 y-19.717 z-0.400
x38.960 y-19.719 z-0.400
x39.003 y-19.719 z-0.400
x39.045 y-19.716 z-0.400
x39.087 y-19.712 z-0.400

( Lift to 5.000 )
F2000 z5.000

( Percurso da ferramenta 2 )
( ------------------------- )

( Spindle on )
M3
S500

( Current depth = -0.400 )

( MoveToStartpoint2 )
F2000 G90 z5.000
F2000 x55.516 y-22.544 z5.000
F2000 x55.516 y-22.544 z0.000

( Loop )
G90 F500
x55.516 y-22.544 z-0.400
F500
x55.482 y-22.520 z-0.400
x55.446 y-22.497 z-0.400
x55.409 y-22.475 z-0.400
x55.372 y-22.456 z-0.400
x55.333 y-22.438 z-0.400
x55.294 y-22.422 z-0.400
x55.254 y-22.408 z-0.400
x55.213 y-22.396 z-0.400
x55.172 y-22.386 z-0.400
x55.131 y-22.377 z-0.400
x55.089 y-22.371 z-0.400
x55.046 y-22.367 z-0.400
x55.004 y-22.364 z-0.400
x52.436 y-22.364 z-0.400
x52.394 y-22.365 z-0.400
x52.351 y-22.368 z-0.400
x52.309 y-22.373 z-0.400
x52.267 y-22.380 z-0.400
x52.226 y-22.389 z-0.400
x52.185 y-22.400 z-0.400
x52.144 y-22.413 z-0.400
x52.105 y-22.427 z-0.400
x52.066 y-22.444 z-0.400
x52.027 y-22.462 z-0.400
x51.990 y-22.482 z-0.400
x51.954 y-22.504 z-0.400
x51.918 y-22.528 z-0.400
x51.884 y-22.553 z-0.400
x51.851 y-22.580 z-0.400
x51.820 y-22.608 z-0.400
x51.789 y-22.638 z-0.400
x51.761 y-22.669 z-0.400
x51.733 y-22.702 z-0.400
x51.708 y-22.735 z-0.400
x51.684 y-22.770 z-0.400
x51.661 y-22.806 z-0.400
x51.640 y-22.843 z-0.400
x51.621 y-22.881 z-0.400
x51.604 y-22.920 z-0.400
x51.589 y-22.960 z-0.400
x51.576 y-23.000 z-0.400
x51.564 y-23.041 z-0.400
x51.555 y-23.082 z-0.400
x51.547 y-23.124 z-0.400
x51.541 y-23.166 z-0.400
x51.538 y-23.208 z-0.400
x51.536 y-23.250 z-0.400
x51.536 y-23.293 z-0.400
x51.539 y-23.335 z-0.400
x51.543 y-23.377 z-0.400
x51.550 y-23.419 z-0.400
x51.558 y-23.461 z-0.400
x51.568 y-23.502 z-0.400
x51.580 y-23.543 z-0.400
x51.594 y-23.583 z-0.400
x51.610 y-23.622 z-0.400
x51.628 y-23.661 z-0.400
x51.648 y-23.698 z-0.400
x51.669 y-23.735 z-0.400
x51.692 y-23.770 z-0.400
x51.717 y-23.805 z-0.400
x51.743 y-23.838 z-0.400
x51.753 y-23.849 z-0.400
x50.502 y-22.598 z-0.400
x50.470 y-22.571 z-0.400
x50.436 y-22.544 z-0.400
x50.402 y-22.520 z-0.400
x50.366 y-22.497 z-0.400
x50.329 y-22.475 z-0.400
x50.292 y-22.456 z-0.400
x50.253 y-22.438 z-0.400
x50.214 y-22.422 z-0.400
x50.174 y-22.408 z-0.400
x50.133 y-22.396 z-0.400
x50.092 y-22.386 z-0.400
x50.051 y-22.377 z-0.400
x50.009 y-22.371 z-0.400
x49.966 y-22.367 z-0.400
x49.924 y-22.364 z-0.400
x49.882 y-22.364 z-0.400
x49.839 y-22.366 z-0.400
x49.797 y-22.369 z-0.400
x49.755 y-22.375 z-0.400
x49.713 y-22.383 z-0.400
x49.672 y-22.392 z-0.400
x49.631 y-22.404 z-0.400
x49.591 y-22.417 z-0.400
x49.551 y-22.433 z-0.400
x49.512 y-22.450 z-0.400
x49.474 y-22.469 z-0.400
x49.437 y-22.490 z-0.400
x49.401 y-22.512 z-0.400
x49.367 y-22.536 z-0.400
x49.333 y-22.562 z-0.400
x49.300 y-22.589 z-0.400
x49.269 y-22.618 z-0.400
x49.240 y-22.648 z-0.400
x49.211 y-22.680 z-0.400
x49.185 y-22.713 z-0.400
x49.159 y-22.747 z-0.400
x49.136 y-22.782 z-0.400
x49.114 y-22.819 z-0.400
x49.094 y-22.856 z-0.400
x49.075 y-22.894 z-0.400
x49.059 y-22.933 z-0.400
x49.044 y-22.973 z-0.400
x49.032 y-23.014 z-0.400
x49.021 y-23.055 z-0.400
x49.012 y-23.096 z-0.400
x49.005 y-23.138 z-0.400
x49.000 y-23.180 z-0.400
x48.997 y-23.222 z-0.400
x48.996 y-23.265 z-0.400
x48.997 y-23.307 z-0.400
x49.000 y-23.350 z-0.400
x49.005 y-23.392 z-0.400
x49.012 y-23.433 z-0.400
x49.021 y-23.475 z-0.400
x49.032 y-23.516 z-0.400
x49.045 y-23.556 z-0.400
x49.060 y-23.596 z-0.400
x49.076 y-23.635 z-0.400
x49.095 y-23.673 z-0.400
x49.115 y-23.711 z-0.400
x49.137 y-23.747 z-0.400
x49.160 y-23.782 z-0.400
x49.185 y-23.816 z-0.400
x49.212 y-23.849 z-0.400
x49.241 y-23.881 z-0.400
x54.076 y-28.716 z-0.400
x54.076 y-30.884 z-0.400
x54.077 y-30.926 z-0.400
x54.080 y-30.969 z-0.400
x54.085 y-31.011 z-0.400
x54.092 y-31.053 z-0.400
x54.101 y-31.094 z-0.400
x54.112 y-31.135 z-0.400
x54.125 y-31.176 z-0.400
x54.139 y-31.215 z-0.400
x54.156 y-31.254 z-0.400
x54.174 y-31.293 z-0.400
x54.194 y-31.330 z-0.400
x54.216 y-31.366 z-0.400
x54.240 y-31.402 z-0.400
x54.265 y-31.436 z-0.400
x54.292 y-31.469 z-0.400
x54.320 y-31.500 z-0.400
x54.350 y-31.531 z-0.400
x54.381 y-31.559 z-0.400
x54.414 y-31.587 z-0.400
x54.447 y-31.612 z-0.400
x54.482 y-31.636 z-0.400
x54.518 y-31.659 z-0.400
x54.555 y-31.680 z-0.400
x54.593 y-31.699 z-0.400
x54.632 y-31.716 z-0.400
x54.672 y-31.731 z-0.400
x54.712 y-31.744 z-0.400
x54.753 y-31.756 z-0.400
x54.794 y-31.765 z-0.400
x54.836 y-31.773 z-0.400
x54.878 y-31.779 z-0.400
x54.920 y-31.782 z-0.400
x54.976 y-31.784 z-0.400
x66.065 y-31.784 z-0.400
x66.107 y-31.783 z-0.400
x66.150 y-31.780 z-0.400
x66.192 y-31.775 z-0.400
x66.234 y-31.768 z-0.400
x66.275 y-31.759 z-0.400
x66.316 y-31.748 z-0.400
x66.357 y-31.735 z-0.400
x66.396 y-31.721 z-0.400
x66.435 y-31.704 z-0.400
x66.474 y-31.686 z-0.400
x66.511 y-31.666 z-0.400
x66.547 y-31.644 z-0.400
x66.583 y-31.620 z-0.400
x66.617 y-31.595 z-0.400
x66.650 y-31.568 z-0.400
x66.681 y-31.540 z-0.400
x67.032 y-31.189 z-0.400
x74.026 y-31.189 z-0.400
x74.068 y-31.188 z-0.400
x74.111 y-31.185 z-0.400
x74.153 y-31.180 z-0.400
x74.195 y-31.173 z-0.400
x74.236 y-31.164 z-0.400
x74.277 y-31.153 z-0.400
x74.318 y-31.140 z-0.400
x74.357 y-31.126 z-0.400
x74.396 y-31.109 z-0.400
x74.435 y-31.091 z-0.400
x74.472 y-31.071 z-0.400
x74.508 y-31.049 z-0.400
x74.544 y-31.025 z-0.400
x74.578 y-31.000 z-0.400
x74.611 y-30.973 z-0.400
x74.642 y-30.945 z-0.400
x75.073 y-30.514 z-0.400
x75.100 y-30.482 z-0.400
x75.127 y-30.448 z-0.400
x75.151 y-30.414 z-0.400
x75.174 y-30.378 z-0.400
x75.196 y-30.341 z-0.400
x75.215 y-30.304 z-0.400
x75.233 y-30.265 z-0.400
x75.249 y-30.226 z-0.400
x75.263 y-30.186 z-0.400
x75.275 y-30.145 z-0.400
x75.285 y-30.104 z-0.400
x75.294 y-30.063 z-0.400
x75.300 y-30.021 z-0.400
x75.304 y-29.978 z-0.400
x75.307 y-29.936 z-0.400
x75.307 y-29.894 z-0.400
x75.305 y-29.851 z-0.400
x75.302 y-29.809 z-0.400
x75.296 y-29.767 z-0.400
x75.288 y-29.725 z-0.400
x75.279 y-29.684 z-0.400
x75.267 y-29.643 z-0.400
x75.254 y-29.603 z-0.400
x75.238 y-29.563 z-0.400
x75.221 y-29.524 z-0.400
x75.202 y-29.486 z-0.400
x75.181 y-29.449 z-0.400
x75.159 y-29.413 z-0.400
x75.135 y-29.379 z-0.400
x75.109 y-29.345 z-0.400
x75.082 y-29.312 z-0.400
x75.053 y-29.281 z-0.400
x75.023 y-29.252 z-0.400
x74.991 y-29.223 z-0.400
x74.958 y-29.197 z-0.400
x74.924 y-29.171 z-0.400
x74.889 y-29.148 z-0.400
x74.852 y-29.126 z-0.400
x74.815 y-29.106 z-0.400
x74.777 y-29.087 z-0.400
x74.738 y-29.071 z-0.400
x74.698 y-29.056 z-0.400
x74.657 y-29.044 z-0.400
x74.616 y-29.033 z-0.400
x74.575 y-29.024 z-0.400
x74.533 y-29.017 z-0.400
x74.491 y-29.012 z-0.400
x74.449 y-29.009 z-0.400
x74.406 y-29.008 z-0.400
x74.364 y-29.009 z-0.400
x74.321 y-29.012 z-0.400
x74.279 y-29.017 z-0.400
x74.238 y-29.024 z-0.400
x74.196 y-29.033 z-0.400
x74.155 y-29.044 z-0.400
x74.115 y-29.057 z-0.400
x74.075 y-29.072 z-0.400
x74.036 y-29.088 z-0.400
x73.998 y-29.107 z-0.400
x73.960 y-29.127 z-0.400
x73.924 y-29.149 z-0.400
x73.889 y-29.172 z-0.400
x73.855 y-29.197 z-0.400
x73.822 y-29.224 z-0.400
x73.790 y-29.253 z-0.400
x73.654 y-29.389 z-0.400
x66.660 y-29.389 z-0.400
x66.618 y-29.390 z-0.400
x66.575 y-29.393 z-0.400
x66.533 y-29.398 z-0.400
x66.491 y-29.405 z-0.400
x66.450 y-29.414 z-0.400
x66.409 y-29.425 z-0.400
x66.368 y-29.438 z-0.400
x66.329 y-29.452 z-0.400
x66.290 y-29.469 z-0.400
x66.251 y-29.487 z-0.400
x66.214 y-29.507 z-0.400
x66.178 y-29.529 z-0.400
x66.142 y-29.553 z-0.400
x66.108 y-29.578 z-0.400
x66.075 y-29.605 z-0.400
x66.044 y-29.633 z-0.400
x65.693 y-29.984 z-0.400
x55.876 y-29.984 z-0.400
x55.876 y-28.344 z-0.400
x55.875 y-28.302 z-0.400
x55.872 y-28.259 z-0.400
x55.867 y-28.217 z-0.400
x55.860 y-28.175 z-0.400
x55.851 y-28.134 z-0.400
x55.840 y-28.093 z-0.400
x55.827 y-28.052 z-0.400
x55.813 y-28.013 z-0.400
x55.796 y-27.974 z-0.400
x55.778 y-27.935 z-0.400
x55.758 y-27.898 z-0.400
x55.736 y-27.862 z-0.400
x55.712 y-27.826 z-0.400
x55.687 y-27.792 z-0.400
x55.660 y-27.759 z-0.400
x55.632 y-27.728 z-0.400
x51.855 y-23.951 z-0.400
x51.863 y-23.958 z-0.400
x51.896 y-23.984 z-0.400
x51.931 y-24.009 z-0.400
x51.966 y-24.032 z-0.400
x52.003 y-24.053 z-0.400
x52.041 y-24.073 z-0.400
x52.079 y-24.090 z-0.400
x52.119 y-24.106 z-0.400
x52.159 y-24.120 z-0.400
x52.199 y-24.132 z-0.400
x52.241 y-24.143 z-0.400
x52.282 y-24.151 z-0.400
x52.324 y-24.157 z-0.400
x52.366 y-24.161 z-0.400
x52.409 y-24.164 z-0.400
x54.604 y-24.164 z-0.400
x56.226 y-25.786 z-0.400
x56.258 y-25.813 z-0.400
x56.292 y-25.840 z-0.400
x56.326 y-25.864 z-0.400
x56.362 y-25.887 z-0.400
x56.399 y-25.909 z-0.400
x56.436 y-25.928 z-0.400
x56.475 y-25.946 z-0.400
x56.514 y-25.962 z-0.400
x56.554 y-25.976 z-0.400
x56.595 y-25.988 z-0.400
x56.636 y-25.998 z-0.400
x56.677 y-26.007 z-0.400
x56.719 y-26.013 z-0.400
x56.762 y-26.017 z-0.400
x56.804 y-26.020 z-0.400
x59.821 y-26.020 z-0.400
x59.863 y-26.019 z-0.400
x59.906 y-26.016 z-0.400
x59.948 y-26.011 z-0.400
x59.990 y-26.004 z-0.400
x60.031 y-25.995 z-0.400
x60.072 y-25.984 z-0.400
x60.113 y-25.971 z-0.400
x60.152 y-25.957 z-0.400
x60.191 y-25.940 z-0.400
x60.230 y-25.922 z-0.400
x60.267 y-25.902 z-0.400
x60.303 y-25.880 z-0.400
x60.339 y-25.856 z-0.400
x60.373 y-25.831 z-0.400
x60.406 y-25.804 z-0.400
x60.437 y-25.776 z-0.400
x60.457 y-25.756 z-0.400
x78.194 y-8.020 z-0.400
x78.227 y-7.998 z-0.400
x78.261 y-7.973 z-0.400
x78.294 y-7.946 z-0.400
x78.326 y-7.917 z-0.400
x78.356 y-7.888 z-0.400
x78.385 y-7.856 z-0.400
x78.412 y-7.824 z-0.400
x78.438 y-7.790 z-0.400
x78.462 y-7.755 z-0.400
x78.484 y-7.719 z-0.400
x78.505 y-7.682 z-0.400
x78.524 y-7.644 z-0.400
x78.541 y-7.605 z-0.400
x78.556 y-7.566 z-0.400
x78.570 y-7.526 z-0.400
x78.581 y-7.485 z-0.400
x78.591 y-7.443 z-0.400
x78.598 y-7.402 z-0.400
x78.604 y-7.360 z-0.400
x78.607 y-7.317 z-0.400
x78.609 y-7.290 z-0.400
x78.736 y-3.226 z-0.400
x78.736 y-3.184 z-0.400
x78.734 y-3.141 z-0.400
x78.731 y-3.099 z-0.400
x78.725 y-3.057 z-0.400
x78.717 y-3.015 z-0.400
x78.708 y-2.974 z-0.400
x78.696 y-2.933 z-0.400
x78.683 y-2.893 z-0.400
x78.667 y-2.853 z-0.400
x78.650 y-2.815 z-0.400
x78.631 y-2.777 z-0.400
x78.610 y-2.740 z-0.400
x78.588 y-2.704 z-0.400
x78.564 y-2.669 z-0.400
x78.538 y-2.635 z-0.400
x78.511 y-2.603 z-0.400
x78.482 y-2.571 z-0.400
x78.452 y-2.542 z-0.400
x78.420 y-2.513 z-0.400
x78.387 y-2.487 z-0.400
x78.353 y-2.461 z-0.400
x78.318 y-2.438 z-0.400
x78.281 y-2.416 z-0.400
x78.244 y-2.396 z-0.400
x78.206 y-2.378 z-0.400
x78.167 y-2.361 z-0.400
x78.127 y-2.346 z-0.400
x78.087 y-2.334 z-0.400
x78.045 y-2.323 z-0.400
x78.004 y-2.314 z-0.400
x77.962 y-2.307 z-0.400
x77.920 y-2.302 z-0.400
x77.878 y-2.299 z-0.400
x77.836 y-2.298 z-0.400
x27.289 y-2.298 z-0.400
x27.247 y-2.299 z-0.400
x27.204 y-2.302 z-0.400
x27.162 y-2.307 z-0.400
x27.120 y-2.314 z-0.400
x27.079 y-2.323 z-0.400
x27.038 y-2.334 z-0.400
x26.997 y-2.347 z-0.400
x26.958 y-2.361 z-0.400
x26.919 y-2.378 z-0.400
x26.880 y-2.396 z-0.400
x26.843 y-2.416 z-0.400
x26.807 y-2.438 z-0.400
x26.771 y-2.462 z-0.400
x26.737 y-2.487 z-0.400
x26.704 y-2.514 z-0.400
x26.673 y-2.542 z-0.400
x26.642 y-2.572 z-0.400
x26.614 y-2.603 z-0.400
x26.586 y-2.636 z-0.400
x26.561 y-2.669 z-0.400
x26.537 y-2.704 z-0.400
x26.514 y-2.740 z-0.400
x26.493 y-2.777 z-0.400
x26.474 y-2.815 z-0.400
x26.457 y-2.854 z-0.400
x26.442 y-2.894 z-0.400
x26.429 y-2.934 z-0.400
x26.417 y-2.975 z-0.400
x26.408 y-3.016 z-0.400
x26.400 y-3.058 z-0.400
x26.394 y-3.100 z-0.400
x26.391 y-3.142 z-0.400
x26.389 y-3.184 z-0.400
x26.389 y-3.227 z-0.400
x26.392 y-3.269 z-0.400
x26.396 y-3.311 z-0.400
x26.403 y-3.353 z-0.400
x26.411 y-3.395 z-0.400
x26.421 y-3.436 z-0.400
x26.433 y-3.477 z-0.400
x26.447 y-3.517 z-0.400
x26.463 y-3.556 z-0.400
x26.481 y-3.595 z-0.400
x26.501 y-3.632 z-0.400
x26.522 y-3.669 z-0.400
x26.545 y-3.704 z-0.400
x26.570 y-3.739 z-0.400
x26.596 y-3.772 z-0.400
x26.624 y-3.804 z-0.400
x26.653 y-3.835 z-0.400
x26.684 y-3.864 z-0.400
x26.716 y-3.892 z-0.400
x26.749 y-3.918 z-0.400
x26.784 y-3.943 z-0.400
x26.819 y-3.966 z-0.400
x26.856 y-3.987 z-0.400
x26.894 y-4.007 z-0.400
x26.932 y-4.024 z-0.400
x26.972 y-4.040 z-0.400
x27.012 y-4.054 z-0.400
x27.052 y-4.066 z-0.400
x27.094 y-4.077 z-0.400
x27.135 y-4.085 z-0.400
x27.177 y-4.091 z-0.400
x27.219 y-4.095 z-0.400
x27.262 y-4.098 z-0.400
x76.907 y-4.098 z-0.400
x76.821 y-6.849 z-0.400
x59.449 y-24.220 z-0.400
x57.203 y-24.220 z-0.400
x56.929 y-23.946 z-0.400
x56.954 y-23.967 z-0.400
x56.987 y-23.992 z-0.400
x57.022 y-24.016 z-0.400
x57.058 y-24.039 z-0.400
x57.095 y-24.060 z-0.400
x57.132 y-24.079 z-0.400
x57.172 y-24.096 z-0.400
x57.212 y-24.111 z-0.400
x57.251 y-24.124 z-0.400
x57.293 y-24.136 z-0.400
x57.334 y-24.145 z-0.400
x57.376 y-24.153 z-0.400
x57.418 y-24.159 z-0.400
x57.459 y-24.162 z-0.400
x57.501 y-24.164 z-0.400
x57.545 y-24.164 z-0.400
x57.587 y-24.161 z-0.400
x57.629 y-24.157 z-0.400
x57.671 y-24.150 z-0.400
x57.712 y-24.142 z-0.400
x57.754 y-24.132 z-0.400
x57.795 y-24.120 z-0.400
x57.834 y-24.106 z-0.400
x57.873 y-24.090 z-0.400
x57.913 y-24.072 z-0.400
x57.950 y-24.052 z-0.400
x57.986 y-24.031 z-0.400
x58.022 y-24.008 z-0.400
x58.057 y-23.983 z-0.400
x58.090 y-23.957 z-0.400
x58.122 y-23.929 z-0.400
x58.153 y-23.900 z-0.400
x58.182 y-23.869 z-0.400
x58.209 y-23.837 z-0.400
x58.236 y-23.804 z-0.400
x58.284 y-23.734 z-0.400
x58.305 y-23.697 z-0.400
x58.325 y-23.659 z-0.400
x58.342 y-23.621 z-0.400
x58.358 y-23.581 z-0.400
x58.372 y-23.541 z-0.400
x58.384 y-23.501 z-0.400
x58.394 y-23.459 z-0.400
x58.403 y-23.418 z-0.400
x58.409 y-23.376 z-0.400
x58.413 y-23.334 z-0.400
x58.416 y-23.291 z-0.400
x58.416 y-22.121 z-0.400
x58.415 y-22.079 z-0.400
x58.412 y-22.036 z-0.400
x58.407 y-21.994 z-0.400
x58.400 y-21.952 z-0.400
x58.391 y-21.911 z-0.400
x58.367 y-21.829 z-0.400
x58.352 y-21.790 z-0.400
x58.336 y-21.751 z-0.400
x58.318 y-21.712 z-0.400
x58.298 y-21.675 z-0.400
x58.275 y-21.639 z-0.400
x58.251 y-21.603 z-0.400
x58.227 y-21.569 z-0.400
x58.200 y-21.536 z-0.400
x58.172 y-21.505 z-0.400
x56.979 y-20.312 z-0.400
x56.947 y-20.285 z-0.400
x56.913 y-20.258 z-0.400
x56.879 y-20.234 z-0.400
x56.843 y-20.211 z-0.400
x56.806 y-20.189 z-0.400
x56.769 y-20.170 z-0.400
x56.730 y-20.152 z-0.400
x56.691 y-20.136 z-0.400
x56.651 y-20.122 z-0.400
x56.610 y-20.110 z-0.400
x56.569 y-20.100 z-0.400
x56.528 y-20.091 z-0.400
x56.486 y-20.085 z-0.400
x56.443 y-20.081 z-0.400
x56.401 y-20.078 z-0.400
x36.425 y-20.078 z-0.400
x22.983 y-6.636 z-0.400
x22.983 y-3.071 z-0.400
x22.982 y-3.029 z-0.400
x22.979 y-2.986 z-0.400
x22.974 y-2.944 z-0.400
x22.967 y-2.902 z-0.400
x22.958 y-2.861 z-0.400
x22.947 y-2.820 z-0.400
x22.934 y-2.779 z-0.400
x22.920 y-2.740 z-0.400
x22.903 y-2.701 z-0.400
x22.885 y-2.662 z-0.400
x22.865 y-2.625 z-0.400
x22.843 y-2.589 z-0.400
x22.819 y-2.553 z-0.400
x22.794 y-2.519 z-0.400
x22.767 y-2.486 z-0.400
x22.739 y-2.455 z-0.400
x22.709 y-2.424 z-0.400
x22.678 y-2.396 z-0.400
x22.645 y-2.368 z-0.400
x22.612 y-2.343 z-0.400
x22.577 y-2.319 z-0.400
x22.541 y-2.296 z-0.400
x22.504 y-2.275 z-0.400
x22.466 y-2.256 z-0.400
x22.427 y-2.239 z-0.400
x22.387 y-2.224 z-0.400
x22.347 y-2.211 z-0.400
x22.306 y-2.199 z-0.400
x22.265 y-2.190 z-0.400
x22.223 y-2.182 z-0.400
x22.181 y-2.176 z-0.400
x22.139 y-2.173 z-0.400
x22.097 y-2.171 z-0.400
x22.054 y-2.171 z-0.400
x22.012 y-2.174 z-0.400
x21.970 y-2.178 z-0.400
x21.928 y-2.185 z-0.400
x21.886 y-2.193 z-0.400
x21.845 y-2.203 z-0.400
x21.804 y-2.215 z-0.400
x21.764 y-2.229 z-0.400
x21.725 y-2.245 z-0.400
x21.686 y-2.263 z-0.400
x21.649 y-2.283 z-0.400
x21.612 y-2.304 z-0.400
x21.577 y-2.327 z-0.400
x21.542 y-2.352 z-0.400
x21.509 y-2.378 z-0.400
x21.477 y-2.406 z-0.400
x21.446 y-2.435 z-0.400
x21.417 y-2.466 z-0.400
x21.389 y-2.498 z-0.400
x21.363 y-2.531 z-0.400
x21.338 y-2.566 z-0.400
x21.315 y-2.601 z-0.400
x21.294 y-2.638 z-0.400
x21.274 y-2.676 z-0.400
x21.257 y-2.714 z-0.400
x21.241 y-2.754 z-0.400
x21.227 y-2.794 z-0.400
x21.215 y-2.834 z-0.400
x21.204 y-2.876 z-0.400
x21.196 y-2.917 z-0.400
x21.190 y-2.959 z-0.400
x21.186 y-3.001 z-0.400
x21.183 y-3.044 z-0.400
x21.183 y-7.008 z-0.400
x21.184 y-7.050 z-0.400
x21.187 y-7.093 z-0.400
x21.192 y-7.135 z-0.400
x21.199 y-7.177 z-0.400
x21.208 y-7.218 z-0.400
x21.219 y-7.259 z-0.400
x21.232 y-7.300 z-0.400
x21.246 y-7.339 z-0.400
x21.263 y-7.378 z-0.400
x21.281 y-7.417 z-0.400
x21.301 y-7.454 z-0.400
x21.323 y-7.490 z-0.400
x21.347 y-7.526 z-0.400
x21.372 y-7.560 z-0.400
x21.399 y-7.593 z-0.400
x21.427 y-7.624 z-0.400
x35.447 y-21.644 z-0.400
x35.479 y-21.671 z-0.400
x35.513 y-21.698 z-0.400
x35.547 y-21.722 z-0.400
x35.583 y-21.745 z-0.400
x35.620 y-21.767 z-0.400
x35.657 y-21.786 z-0.400
x35.696 y-21.804 z-0.400
x35.735 y-21.820 z-0.400
x35.775 y-21.834 z-0.400
x35.816 y-21.846 z-0.400
x35.857 y-21.856 z-0.400
x35.898 y-21.865 z-0.400
x35.940 y-21.871 z-0.400
x35.983 y-21.875 z-0.400
x36.025 y-21.878 z-0.400
x56.001 y-21.878 z-0.400
x56.616 y-22.493 z-0.400
x56.616 y-23.264 z-0.400
x56.617 y-23.306 z-0.400
x56.620 y-23.349 z-0.400
x56.625 y-23.391 z-0.400
x56.632 y-23.433 z-0.400
x56.641 y-23.474 z-0.400
x56.652 y-23.515 z-0.400
x56.665 y-23.556 z-0.400
x56.679 y-23.595 z-0.400
x56.696 y-23.634 z-0.400
x56.714 y-23.673 z-0.400
x56.734 y-23.710 z-0.400
x56.756 y-23.746 z-0.400
x56.780 y-23.782 z-0.400
x56.805 y-23.816 z-0.400
x56.832 y-23.849 z-0.400
x55.582 y-22.598 z-0.400
x55.550 y-22.571 z-0.400
x55.516 y-22.544 z-0.400

( Lift to 5.000 )
F2000 z5.000

( Percurso da ferramenta 4 )
( ------------------------- )

( Spindle on )
M3
S500

( Current depth = -0.400 )

( MoveToStartpoint2 )
F2000 G90 z5.000
F2000 x58.265 y-8.158 z5.000
F2000 x58.265 y-8.158 z0.000

( Loop )
G90 F500
x58.265 y-8.158 z-0.400
F500
x58.307 y-8.153 z-0.400
x58.349 y-8.146 z-0.400
x58.390 y-8.137 z-0.400
x58.431 y-8.126 z-0.400
x58.471 y-8.113 z-0.400
x58.510 y-8.099 z-0.400
x58.550 y-8.082 z-0.400
x58.589 y-8.064 z-0.400
x58.626 y-8.044 z-0.400
x58.662 y-8.022 z-0.400
x58.698 y-7.998 z-0.400
x58.732 y-7.973 z-0.400
x58.765 y-7.946 z-0.400
x58.796 y-7.918 z-0.400
x58.827 y-7.888 z-0.400
x58.855 y-7.857 z-0.400
x58.883 y-7.824 z-0.400
x58.908 y-7.791 z-0.400
x58.932 y-7.756 z-0.400
x58.955 y-7.720 z-0.400
x58.976 y-7.683 z-0.400
x58.995 y-7.645 z-0.400
x59.012 y-7.606 z-0.400
x59.027 y-7.566 z-0.400
x59.040 y-7.526 z-0.400
x59.052 y-7.485 z-0.400
x59.061 y-7.444 z-0.400
x59.069 y-7.402 z-0.400
x59.075 y-7.360 z-0.400
x59.078 y-7.318 z-0.400
x59.080 y-7.276 z-0.400
x59.080 y-7.233 z-0.400
x59.077 y-7.191 z-0.400
x59.073 y-7.149 z-0.400
x59.066 y-7.107 z-0.400
x59.058 y-7.065 z-0.400
x59.048 y-7.024 z-0.400
x59.036 y-6.983 z-0.400
x59.022 y-6.943 z-0.400
x59.006 y-6.904 z-0.400
x58.988 y-6.865 z-0.400
x58.968 y-6.828 z-0.400
x58.947 y-6.791 z-0.400
x58.924 y-6.756 z-0.400
x58.899 y-6.721 z-0.400
x58.873 y-6.688 z-0.400
x58.845 y-6.656 z-0.400
x58.816 y-6.625 z-0.400
x58.785 y-6.596 z-0.400
x58.753 y-6.568 z-0.400
x58.720 y-6.542 z-0.400
x58.685 y-6.517 z-0.400
x58.650 y-6.494 z-0.400
x58.613 y-6.473 z-0.400
x58.575 y-6.453 z-0.400
x58.537 y-6.436 z-0.400
x58.497 y-6.420 z-0.400
x58.456 y-6.406 z-0.400
x58.417 y-6.394 z-0.400
x58.375 y-6.383 z-0.400
x58.334 y-6.375 z-0.400
x58.292 y-6.369 z-0.400
x58.250 y-6.365 z-0.400
x58.206 y-6.362 z-0.400
x51.645 y-6.362 z-0.400
x51.603 y-6.363 z-0.400
x51.560 y-6.366 z-0.400
x51.518 y-6.371 z-0.400
x51.476 y-6.378 z-0.400
x51.435 y-6.387 z-0.400
x51.394 y-6.398 z-0.400
x51.353 y-6.411 z-0.400
x51.314 y-6.425 z-0.400
x51.275 y-6.442 z-0.400
x51.236 y-6.460 z-0.400
x51.199 y-6.480 z-0.400
x51.163 y-6.502 z-0.400
x51.127 y-6.526 z-0.400
x51.093 y-6.551 z-0.400
x51.060 y-6.578 z-0.400
x51.029 y-6.606 z-0.400
x50.998 y-6.636 z-0.400
x50.970 y-6.667 z-0.400
x50.942 y-6.700 z-0.400
x50.917 y-6.733 z-0.400
x50.893 y-6.768 z-0.400
x50.870 y-6.804 z-0.400
x50.849 y-6.841 z-0.400
x50.830 y-6.879 z-0.400
x50.813 y-6.918 z-0.400
x50.798 y-6.958 z-0.400
x50.785 y-6.998 z-0.400
x50.773 y-7.039 z-0.400
x50.764 y-7.080 z-0.400
x50.756 y-7.122 z-0.400
x50.750 y-7.164 z-0.400
x50.747 y-7.206 z-0.400
x50.745 y-7.248 z-0.400
x50.745 y-7.291 z-0.400
x50.748 y-7.333 z-0.400
x50.752 y-7.375 z-0.400
x50.759 y-7.417 z-0.400
x50.767 y-7.459 z-0.400
x50.777 y-7.500 z-0.400
x50.789 y-7.541 z-0.400
x50.803 y-7.581 z-0.400
x50.819 y-7.620 z-0.400
x50.837 y-7.659 z-0.400
x50.857 y-7.696 z-0.400
x50.878 y-7.733 z-0.400
x50.901 y-7.768 z-0.400
x50.926 y-7.803 z-0.400
x50.952 y-7.836 z-0.400
x50.980 y-7.868 z-0.400
x51.009 y-7.899 z-0.400
x51.040 y-7.928 z-0.400
x51.072 y-7.956 z-0.400
x51.105 y-7.982 z-0.400
x51.140 y-8.007 z-0.400
x51.175 y-8.030 z-0.400
x51.212 y-8.051 z-0.400
x51.250 y-8.071 z-0.400
x51.288 y-8.088 z-0.400
x51.328 y-8.104 z-0.400
x51.368 y-8.118 z-0.400
x51.408 y-8.130 z-0.400
x51.450 y-8.141 z-0.400
x51.491 y-8.149 z-0.400
x51.533 y-8.155 z-0.400
x51.575 y-8.159 z-0.400
x51.618 y-8.162 z-0.400
x58.180 y-8.162 z-0.400
x58.221 y-8.161 z-0.400
x58.265 y-8.158 z-0.400

( Lift to 5.000 )
F2000 z5.000

( Percurso da ferramenta 6 )
( ------------------------- )

( Spindle on )
M3
S500

( Current depth = -0.400 )

( MoveToStartpoint2 )
F2000 G90 z5.000
F2000 x39.273 y-41.813 z5.000
F2000 x39.273 y-41.813 z0.000

( Loop )
G90 F500
x39.273 y-41.813 z-0.400
F500
x39.315 y-41.808 z-0.400
x39.356 y-41.801 z-0.400
x39.398 y-41.792 z-0.400
x39.439 y-41.781 z-0.400
x39.479 y-41.768 z-0.400
x39.519 y-41.753 z-0.400
x39.558 y-41.737 z-0.400
x39.596 y-41.718 z-0.400
x39.634 y-41.698 z-0.400
x39.670 y-41.676 z-0.400
x39.705 y-41.653 z-0.400
x39.739 y-41.628 z-0.400
x39.772 y-41.601 z-0.400
x39.804 y-41.572 z-0.400
x39.940 y-41.436 z-0.400
x51.830 y-41.436 z-0.400
x51.872 y-41.435 z-0.400
x51.915 y-41.432 z-0.400
x51.957 y-41.427 z-0.400
x51.999 y-41.420 z-0.400
x52.040 y-41.411 z-0.400
x52.081 y-41.400 z-0.400
x52.122 y-41.387 z-0.400
x52.161 y-41.373 z-0.400
x52.200 y-41.356 z-0.400
x52.239 y-41.338 z-0.400
x52.276 y-41.318 z-0.400
x52.312 y-41.296 z-0.400
x52.348 y-41.272 z-0.400
x52.382 y-41.247 z-0.400
x52.415 y-41.220 z-0.400
x52.446 y-41.192 z-0.400
x53.102 y-40.536 z-0.400
x53.129 y-40.504 z-0.400
x53.156 y-40.470 z-0.400
x53.180 y-40.436 z-0.400
x53.203 y-40.400 z-0.400
x53.225 y-40.363 z-0.400
x53.244 y-40.326 z-0.400
x53.262 y-40.287 z-0.400
x53.278 y-40.248 z-0.400
x53.292 y-40.208 z-0.400
x53.304 y-40.167 z-0.400
x53.314 y-40.126 z-0.400
x53.323 y-40.085 z-0.400
x53.329 y-40.043 z-0.400
x53.333 y-40.000 z-0.400
x53.336 y-39.958 z-0.400
x53.336 y-30.884 z-0.400
x53.335 y-30.842 z-0.400
x53.332 y-30.799 z-0.400
x53.327 y-30.757 z-0.400
x53.320 y-30.715 z-0.400
x53.311 y-30.674 z-0.400
x53.300 y-30.633 z-0.400
x53.287 y-30.592 z-0.400
x53.273 y-30.553 z-0.400
x53.256 y-30.514 z-0.400
x53.238 y-30.475 z-0.400
x53.218 y-30.438 z-0.400
x53.196 y-30.402 z-0.400
x53.172 y-30.366 z-0.400
x53.147 y-30.332 z-0.400
x53.120 y-30.299 z-0.400
x53.092 y-30.268 z-0.400
x53.062 y-30.237 z-0.400
x53.031 y-30.209 z-0.400
x52.998 y-30.181 z-0.400
x52.965 y-30.156 z-0.400
x52.930 y-30.132 z-0.400
x52.894 y-30.109 z-0.400
x52.857 y-30.088 z-0.400
x52.819 y-30.069 z-0.400
x52.780 y-30.052 z-0.400
x52.740 y-30.037 z-0.400
x52.700 y-30.024 z-0.400
x52.659 y-30.012 z-0.400
x52.618 y-30.003 z-0.400
x52.576 y-29.995 z-0.400
x52.534 y-29.989 z-0.400
x52.492 y-29.986 z-0.400
x52.450 y-29.984 z-0.400
x52.407 y-29.984 z-0.400
x52.365 y-29.987 z-0.400
x52.323 y-29.991 z-0.400
x52.281 y-29.998 z-0.400
x52.239 y-30.006 z-0.400
x52.198 y-30.016 z-0.400
x52.157 y-30.028 z-0.400
x52.117 y-30.042 z-0.400
x52.078 y-30.058 z-0.400
x52.039 y-30.076 z-0.400
x52.002 y-30.096 z-0.400
x51.965 y-30.117 z-0.400
x51.930 y-30.140 z-0.400
x51.895 y-30.165 z-0.400
x51.862 y-30.191 z-0.400
x51.830 y-30.219 z-0.400
x51.799 y-30.248 z-0.400
x51.770 y-30.279 z-0.400
x51.742 y-30.311 z-0.400
x51.716 y-30.344 z-0.400
x51.691 y-30.379 z-0.400
x51.668 y-30.414 z-0.400
x51.647 y-30.451 z-0.400
x51.627 y-30.489 z-0.400
x51.610 y-30.527 z-0.400
x51.594 y-30.567 z-0.400
x51.580 y-30.607 z-0.400
x51.568 y-30.647 z-0.400
x51.557 y-30.689 z-0.400
x51.549 y-30.730 z-0.400
x51.543 y-30.772 z-0.400
x51.539 y-30.814 z-0.400
x51.536 y-30.857 z-0.400
x51.536 y-39.558 z-0.400
x51.458 y-39.636 z-0.400
x39.568 y-39.636 z-0.400
x39.526 y-39.637 z-0.400
x39.483 y-39.640 z-0.400
x39.441 y-39.645 z-0.400
x39.399 y-39.652 z-0.400
x39.358 y-39.661 z-0.400
x39.317 y-39.672 z-0.400
x39.276 y-39.685 z-0.400
x39.237 y-39.699 z-0.400
x39.198 y-39.716 z-0.400
x39.159 y-39.734 z-0.400
x39.122 y-39.754 z-0.400
x39.086 y-39.776 z-0.400
x39.050 y-39.800 z-0.400
x39.016 y-39.825 z-0.400
x38.983 y-39.852 z-0.400
x38.952 y-39.880 z-0.400
x38.521 y-40.311 z-0.400
x38.494 y-40.343 z-0.400
x38.467 y-40.377 z-0.400
x38.443 y-40.411 z-0.400
x38.420 y-40.447 z-0.400
x38.398 y-40.484 z-0.400
x38.379 y-40.521 z-0.400
x38.361 y-40.560 z-0.400
x38.345 y-40.599 z-0.400
x38.331 y-40.639 z-0.400
x38.319 y-40.680 z-0.400
x38.309 y-40.721 z-0.400
x38.300 y-40.762 z-0.400
x38.294 y-40.804 z-0.400
x38.290 y-40.847 z-0.400
x38.287 y-40.889 z-0.400
x38.287 y-40.931 z-0.400
x38.289 y-40.974 z-0.400
x38.292 y-41.016 z-0.400
x38.298 y-41.058 z-0.400
x38.306 y-41.100 z-0.400
x38.315 y-41.141 z-0.400
x38.327 y-41.182 z-0.400
x38.340 y-41.222 z-0.400
x38.356 y-41.262 z-0.400
x38.373 y-41.301 z-0.400
x38.392 y-41.339 z-0.400
x38.413 y-41.376 z-0.400
x38.435 y-41.412 z-0.400
x38.459 y-41.446 z-0.400
x38.485 y-41.480 z-0.400
x38.512 y-41.513 z-0.400
x38.541 y-41.544 z-0.400
x38.571 y-41.573 z-0.400
x38.603 y-41.602 z-0.400
x38.636 y-41.628 z-0.400
x38.670 y-41.654 z-0.400
x38.705 y-41.677 z-0.400
x38.742 y-41.699 z-0.400
x38.779 y-41.719 z-0.400
x38.817 y-41.738 z-0.400
x38.856 y-41.754 z-0.400
x38.896 y-41.769 z-0.400
x38.937 y-41.781 z-0.400
x38.978 y-41.792 z-0.400
x39.019 y-41.801 z-0.400
x39.061 y-41.808 z-0.400
x39.103 y-41.813 z-0.400
x39.145 y-41.816 z-0.400
x39.188 y-41.817 z-0.400
x39.230 y-41.816 z-0.400
x39.273 y-41.813 z-0.400

( Lift to 5.000 )
F2000 z5.000

( Percurso da ferramenta 5 )
( ------------------------- )

( Spindle on )
M3
S500

( Current depth = -0.400 )

( MoveToStartpoint2 )
F2000 G90 z5.000
F2000 x34.284 y-41.812 z5.000
F2000 x34.284 y-41.812 z0.000

( Loop )
G90 F500
x34.284 y-41.812 z-0.400
F500
x34.326 y-41.806 z-0.400
x34.368 y-41.799 z-0.400
x34.409 y-41.789 z-0.400
x34.450 y-41.778 z-0.400
x34.490 y-41.764 z-0.400
x34.530 y-41.749 z-0.400
x34.569 y-41.732 z-0.400
x34.607 y-41.713 z-0.400
x34.644 y-41.692 z-0.400
x34.680 y-41.670 z-0.400
x34.715 y-41.646 z-0.400
x34.749 y-41.620 z-0.400
x34.781 y-41.593 z-0.400
x34.812 y-41.564 z-0.400
x34.842 y-41.534 z-0.400
x34.870 y-41.503 z-0.400
x34.897 y-41.470 z-0.400
x34.923 y-41.436 z-0.400
x34.946 y-41.400 z-0.400
x34.968 y-41.364 z-0.400
x34.988 y-41.327 z-0.400
x35.007 y-41.289 z-0.400
x35.023 y-41.250 z-0.400
x35.038 y-41.210 z-0.400
x35.051 y-41.169 z-0.400
x35.062 y-41.128 z-0.400
x35.071 y-41.087 z-0.400
x35.078 y-41.045 z-0.400
x35.083 y-41.003 z-0.400
x35.086 y-40.961 z-0.400
x35.087 y-40.918 z-0.400
x35.086 y-40.876 z-0.400
x35.083 y-40.833 z-0.400
x35.078 y-40.791 z-0.400
x35.071 y-40.749 z-0.400
x35.062 y-40.708 z-0.400
x35.052 y-40.667 z-0.400
x35.039 y-40.626 z-0.400
x35.024 y-40.587 z-0.400
x35.008 y-40.548 z-0.400
x34.989 y-40.509 z-0.400
x34.969 y-40.472 z-0.400
x34.947 y-40.436 z-0.400
x34.924 y-40.400 z-0.400
x34.899 y-40.366 z-0.400
x34.872 y-40.333 z-0.400
x34.859 y-40.319 z-0.400
x34.859 y-34.431 z-0.400
x37.506 y-31.784 z-0.400
x49.896 y-31.784 z-0.400
x49.938 y-31.783 z-0.400
x49.981 y-31.780 z-0.400
x50.023 y-31.775 z-0.400
x50.065 y-31.768 z-0.400
x50.106 y-31.759 z-0.400
x50.147 y-31.748 z-0.400
x50.188 y-31.735 z-0.400
x50.227 y-31.721 z-0.400
x50.266 y-31.704 z-0.400
x50.305 y-31.686 z-0.400
x50.342 y-31.666 z-0.400
x50.378 y-31.644 z-0.400
x50.414 y-31.620 z-0.400
x50.448 y-31.595 z-0.400
x50.481 y-31.568 z-0.400
x50.512 y-31.540 z-0.400
x50.543 y-31.510 z-0.400
x50.571 y-31.479 z-0.400
x50.599 y-31.446 z-0.400
x50.624 y-31.413 z-0.400
x50.648 y-31.378 z-0.400
x50.671 y-31.342 z-0.400
x50.692 y-31.305 z-0.400
x50.711 y-31.267 z-0.400
x50.728 y-31.228 z-0.400
x50.743 y-31.188 z-0.400
x50.756 y-31.148 z-0.400
x50.768 y-31.107 z-0.400
x50.777 y-31.066 z-0.400
x50.785 y-31.024 z-0.400
x50.791 y-30.982 z-0.400
x50.794 y-30.940 z-0.400
x50.796 y-30.898 z-0.400
x50.796 y-30.855 z-0.400
x50.793 y-30.813 z-0.400
x50.789 y-30.771 z-0.400
x50.782 y-30.729 z-0.400
x50.774 y-30.687 z-0.400
x50.764 y-30.646 z-0.400
x50.752 y-30.605 z-0.400
x50.738 y-30.565 z-0.400
x50.722 y-30.526 z-0.400
x50.704 y-30.487 z-0.400
x50.684 y-30.450 z-0.400
x50.663 y-30.413 z-0.400
x50.640 y-30.378 z-0.400
x50.615 y-30.343 z-0.400
x50.589 y-30.310 z-0.400
x50.561 y-30.278 z-0.400
x50.532 y-30.247 z-0.400
x50.501 y-30.218 z-0.400
x50.469 y-30.190 z-0.400
x50.436 y-30.164 z-0.400
x50.401 y-30.139 z-0.400
x50.366 y-30.116 z-0.400
x50.329 y-30.095 z-0.400
x50.291 y-30.075 z-0.400
x50.253 y-30.058 z-0.400
x50.213 y-30.042 z-0.400
x50.173 y-30.028 z-0.400
x50.133 y-30.016 z-0.400
x50.091 y-30.005 z-0.400
x50.050 y-29.997 z-0.400
x50.008 y-29.991 z-0.400
x49.966 y-29.987 z-0.400
x49.923 y-29.984 z-0.400
x37.134 y-29.984 z-0.400
x37.092 y-29.985 z-0.400
x37.049 y-29.988 z-0.400
x37.007 y-29.993 z-0.400
x36.965 y-30.000 z-0.400
x36.924 y-30.009 z-0.400
x36.883 y-30.020 z-0.400
x36.842 y-30.033 z-0.400
x36.803 y-30.047 z-0.400
x36.764 y-30.064 z-0.400
x36.725 y-30.082 z-0.400
x36.688 y-30.102 z-0.400
x36.652 y-30.124 z-0.400
x36.616 y-30.148 z-0.400
x36.582 y-30.173 z-0.400
x36.549 y-30.200 z-0.400
x36.518 y-30.228 z-0.400
x33.492 y-33.254 z-0.400
x33.485 y-33.257 z-0.400
x33.448 y-33.277 z-0.400
x33.412 y-33.299 z-0.400
x33.376 y-33.323 z-0.400
x33.342 y-33.348 z-0.400
x33.309 y-33.375 z-0.400
x33.278 y-33.403 z-0.400
x33.247 y-33.433 z-0.400
x33.219 y-33.464 z-0.400
x33.191 y-33.497 z-0.400
x33.166 y-33.530 z-0.400
x33.142 y-33.565 z-0.400
x33.119 y-33.601 z-0.400
x33.098 y-33.638 z-0.400
x33.079 y-33.676 z-0.400
x33.062 y-33.715 z-0.400
x33.047 y-33.755 z-0.400
x33.034 y-33.795 z-0.400
x33.022 y-33.836 z-0.400
x33.013 y-33.877 z-0.400
x33.005 y-33.919 z-0.400
x32.999 y-33.961 z-0.400
x32.996 y-34.003 z-0.400
x32.994 y-34.045 z-0.400
x32.994 y-34.088 z-0.400
x32.997 y-34.130 z-0.400
x33.001 y-34.172 z-0.400
x33.008 y-34.214 z-0.400
x33.016 y-34.256 z-0.400
x33.026 y-34.297 z-0.400
x33.038 y-34.338 z-0.400
x33.052 y-34.378 z-0.400
x33.059 y-34.395 z-0.400
x33.059 y-40.688 z-0.400
x33.060 y-40.730 z-0.400
x33.063 y-40.773 z-0.400
x33.068 y-40.815 z-0.400
x33.075 y-40.857 z-0.400
x33.084 y-40.898 z-0.400
x33.095 y-40.939 z-0.400
x33.108 y-40.980 z-0.400
x33.122 y-41.019 z-0.400
x33.139 y-41.058 z-0.400
x33.157 y-41.097 z-0.400
x33.177 y-41.134 z-0.400
x33.199 y-41.170 z-0.400
x33.223 y-41.206 z-0.400
x33.248 y-41.240 z-0.400
x33.275 y-41.273 z-0.400
x33.303 y-41.304 z-0.400
x33.321 y-41.323 z-0.400
x33.549 y-41.552 z-0.400
x33.580 y-41.581 z-0.400
x33.612 y-41.609 z-0.400
x33.645 y-41.636 z-0.400
x33.680 y-41.660 z-0.400
x33.715 y-41.683 z-0.400
x33.752 y-41.705 z-0.400
x33.789 y-41.724 z-0.400
x33.828 y-41.742 z-0.400
x33.867 y-41.758 z-0.400
x33.907 y-41.772 z-0.400
x33.948 y-41.785 z-0.400
x33.989 y-41.795 z-0.400
x34.031 y-41.803 z-0.400
x34.072 y-41.810 z-0.400
x34.115 y-41.814 z-0.400
x34.157 y-41.817 z-0.400
x34.199 y-41.817 z-0.400
x34.242 y-41.815 z-0.400
x34.284 y-41.812 z-0.400

( Lift to 5.000 )
F2000 z5.000

( Percurso da ferramenta 7 )
( ------------------------- )

( Spindle on )
M3
S500

( Current depth = -0.400 )

( MoveToStartpoint2 )
F2000 G90 z5.000
F2000 x29.464 y-49.176 z5.000
F2000 x29.464 y-49.176 z0.000

( Loop )
G90 F500
x29.464 y-49.176 z-0.400
F500
x29.506 y-49.169 z-0.400
x29.548 y-49.161 z-0.400
x29.589 y-49.151 z-0.400
x29.630 y-49.139 z-0.400
x29.670 y-49.125 z-0.400
x29.709 y-49.109 z-0.400
x29.748 y-49.091 z-0.400
x29.785 y-49.071 z-0.400
x29.822 y-49.050 z-0.400
x29.857 y-49.027 z-0.400
x29.892 y-49.002 z-0.400
x29.925 y-48.976 z-0.400
x29.957 y-48.948 z-0.400
x29.988 y-48.919 z-0.400
x30.017 y-48.888 z-0.400
x30.045 y-48.856 z-0.400
x30.071 y-48.823 z-0.400
x30.096 y-48.788 z-0.400
x30.119 y-48.753 z-0.400
x30.140 y-48.716 z-0.400
x30.160 y-48.678 z-0.400
x30.177 y-48.640 z-0.400
x30.193 y-48.600 z-0.400
x30.207 y-48.560 z-0.400
x30.219 y-48.520 z-0.400
x30.230 y-48.478 z-0.400
x30.238 y-48.437 z-0.400
x30.244 y-48.395 z-0.400
x30.248 y-48.353 z-0.400
x30.251 y-48.310 z-0.400
x30.251 y-34.596 z-0.400
x30.250 y-34.554 z-0.400
x30.247 y-34.511 z-0.400
x30.242 y-34.469 z-0.400
x30.235 y-34.427 z-0.400
x30.226 y-34.386 z-0.400
x30.215 y-34.345 z-0.400
x30.202 y-34.304 z-0.400
x30.188 y-34.265 z-0.400
x30.171 y-34.226 z-0.400
x30.153 y-34.187 z-0.400
x30.133 y-34.150 z-0.400
x30.111 y-34.114 z-0.400
x30.087 y-34.078 z-0.400
x30.062 y-34.044 z-0.400
x30.035 y-34.011 z-0.400
x30.007 y-33.980 z-0.400
x29.420 y-33.393 z-0.400
x29.388 y-33.366 z-0.400
x29.354 y-33.339 z-0.400
x29.320 y-33.315 z-0.400
x29.284 y-33.292 z-0.400
x29.247 y-33.270 z-0.400
x29.210 y-33.251 z-0.400
x29.171 y-33.233 z-0.400
x29.132 y-33.217 z-0.400
x29.092 y-33.203 z-0.400
x29.051 y-33.191 z-0.400
x29.010 y-33.181 z-0.400
x28.969 y-33.172 z-0.400
x28.927 y-33.166 z-0.400
x28.884 y-33.162 z-0.400
x28.842 y-33.159 z-0.400
x28.800 y-33.159 z-0.400
x28.757 y-33.161 z-0.400
x28.715 y-33.164 z-0.400
x28.673 y-33.170 z-0.400
x28.631 y-33.178 z-0.400
x28.590 y-33.187 z-0.400
x28.549 y-33.199 z-0.400
x28.509 y-33.212 z-0.400
x28.469 y-33.228 z-0.400
x28.430 y-33.245 z-0.400
x28.392 y-33.264 z-0.400
x28.355 y-33.285 z-0.400
x28.319 y-33.307 z-0.400
x28.285 y-33.331 z-0.400
x28.251 y-33.357 z-0.400
x28.218 y-33.384 z-0.400
x28.187 y-33.413 z-0.400
x28.158 y-33.443 z-0.400
x28.129 y-33.475 z-0.400
x28.103 y-33.508 z-0.400
x28.077 y-33.542 z-0.400
x28.054 y-33.577 z-0.400
x28.032 y-33.614 z-0.400
x28.012 y-33.651 z-0.400
x27.993 y-33.689 z-0.400
x27.977 y-33.728 z-0.400
x27.962 y-33.768 z-0.400
x27.950 y-33.809 z-0.400
x27.939 y-33.850 z-0.400
x27.930 y-33.891 z-0.400
x27.923 y-33.933 z-0.400
x27.918 y-33.975 z-0.400
x27.915 y-34.017 z-0.400
x27.914 y-34.060 z-0.400
x27.915 y-34.102 z-0.400
x27.918 y-34.145 z-0.400
x27.923 y-34.187 z-0.400
x27.930 y-34.228 z-0.400
x27.939 y-34.270 z-0.400
x27.950 y-34.311 z-0.400
x27.963 y-34.351 z-0.400
x27.978 y-34.391 z-0.400
x27.994 y-34.430 z-0.400
x28.013 y-34.468 z-0.400
x28.033 y-34.506 z-0.400
x28.055 y-34.542 z-0.400
x28.078 y-34.577 z-0.400
x28.103 y-34.611 z-0.400
x28.130 y-34.644 z-0.400
x28.159 y-34.676 z-0.400
x28.451 y-34.968 z-0.400
x28.451 y-48.283 z-0.400
x28.452 y-48.325 z-0.400
x28.455 y-48.368 z-0.400
x28.460 y-48.410 z-0.400
x28.467 y-48.452 z-0.400
x28.476 y-48.493 z-0.400
x28.487 y-48.534 z-0.400
x28.500 y-48.575 z-0.400
x28.514 y-48.614 z-0.400
x28.531 y-48.653 z-0.400
x28.549 y-48.692 z-0.400
x28.569 y-48.729 z-0.400
x28.591 y-48.765 z-0.400
x28.615 y-48.801 z-0.400
x28.640 y-48.835 z-0.400
x28.667 y-48.868 z-0.400
x28.695 y-48.899 z-0.400
x28.725 y-48.930 z-0.400
x28.756 y-48.958 z-0.400
x28.789 y-48.986 z-0.400
x28.822 y-49.011 z-0.400
x28.857 y-49.035 z-0.400
x28.893 y-49.058 z-0.400
x28.930 y-49.079 z-0.400
x28.968 y-49.098 z-0.400
x29.007 y-49.115 z-0.400
x29.047 y-49.130 z-0.400
x29.087 y-49.143 z-0.400
x29.128 y-49.155 z-0.400
x29.169 y-49.164 z-0.400
x29.211 y-49.172 z-0.400
x29.253 y-49.178 z-0.400
x29.295 y-49.181 z-0.400
x29.337 y-49.183 z-0.400
x29.380 y-49.183 z-0.400
x29.422 y-49.180 z-0.400
x29.464 y-49.176 z-0.400

( Lift to 5.000 )
F2000 z5.000

( Percurso da ferramenta 8 )
( ------------------------- )

( Spindle on )
M3
S500

( Current depth = -0.400 )

( MoveToStartpoint2 )
F2000 G90 z5.000
F2000 x48.937 y-49.179 z5.000
F2000 x48.937 y-49.179 z0.000

( Loop )
G90 F500
x48.937 y-49.179 z-0.400
F500
x48.979 y-49.174 z-0.400
x49.020 y-49.167 z-0.400
x49.062 y-49.158 z-0.400
x49.103 y-49.147 z-0.400
x49.143 y-49.134 z-0.400
x49.183 y-49.119 z-0.400
x49.222 y-49.103 z-0.400
x49.260 y-49.084 z-0.400
x49.298 y-49.064 z-0.400
x49.334 y-49.042 z-0.400
x49.369 y-49.019 z-0.400
x49.403 y-48.994 z-0.400
x49.436 y-48.967 z-0.400
x49.468 y-48.938 z-0.400
x56.970 y-41.436 z-0.400
x71.330 y-41.436 z-0.400
x71.372 y-41.435 z-0.400
x71.415 y-41.432 z-0.400
x71.457 y-41.427 z-0.400
x71.499 y-41.420 z-0.400
x71.540 y-41.411 z-0.400
x71.581 y-41.400 z-0.400
x71.622 y-41.387 z-0.400
x71.661 y-41.373 z-0.400
x71.700 y-41.356 z-0.400
x71.739 y-41.338 z-0.400
x71.776 y-41.318 z-0.400
x71.812 y-41.296 z-0.400
x71.848 y-41.272 z-0.400
x71.882 y-41.247 z-0.400
x71.915 y-41.220 z-0.400
x71.946 y-41.192 z-0.400
x71.977 y-41.162 z-0.400
x72.005 y-41.131 z-0.400
x72.033 y-41.098 z-0.400
x72.058 y-41.065 z-0.400
x72.082 y-41.030 z-0.400
x72.105 y-40.994 z-0.400
x72.126 y-40.957 z-0.400
x72.145 y-40.919 z-0.400
x72.162 y-40.880 z-0.400
x72.177 y-40.840 z-0.400
x72.190 y-40.800 z-0.400
x72.202 y-40.759 z-0.400
x72.211 y-40.718 z-0.400
x72.219 y-40.676 z-0.400
x72.225 y-40.634 z-0.400
x72.228 y-40.592 z-0.400
x72.230 y-40.550 z-0.400
x72.230 y-40.507 z-0.400
x72.227 y-40.465 z-0.400
x72.223 y-40.423 z-0.400
x72.216 y-40.381 z-0.400
x72.208 y-40.339 z-0.400
x72.198 y-40.298 z-0.400
x72.186 y-40.257 z-0.400
x72.172 y-40.217 z-0.400
x72.156 y-40.178 z-0.400
x72.138 y-40.139 z-0.400
x72.118 y-40.102 z-0.400
x72.097 y-40.065 z-0.400
x72.074 y-40.030 z-0.400
x72.049 y-39.995 z-0.400
x72.023 y-39.962 z-0.400
x71.995 y-39.930 z-0.400
x71.966 y-39.900 z-0.400
x68.255 y-36.189 z-0.400
x74.026 y-36.189 z-0.400
x74.068 y-36.188 z-0.400
x74.111 y-36.185 z-0.400
x74.153 y-36.180 z-0.400
x74.195 y-36.173 z-0.400
x74.236 y-36.164 z-0.400
x74.277 y-36.153 z-0.400
x74.318 y-36.140 z-0.400
x74.357 y-36.126 z-0.400
x74.396 y-36.109 z-0.400
x74.435 y-36.091 z-0.400
x74.472 y-36.071 z-0.400
x74.508 y-36.049 z-0.400
x74.544 y-36.025 z-0.400
x74.578 y-36.000 z-0.400
x74.611 y-35.973 z-0.400
x74.642 y-35.945 z-0.400
x75.073 y-35.514 z-0.400
x75.100 y-35.482 z-0.400
x75.127 y-35.448 z-0.400
x75.151 y-35.414 z-0.400
x75.174 y-35.378 z-0.400
x75.196 y-35.341 z-0.400
x75.215 y-35.304 z-0.400
x75.233 y-35.265 z-0.400
x75.249 y-35.226 z-0.400
x75.263 y-35.186 z-0.400
x75.275 y-35.145 z-0.400
x75.285 y-35.104 z-0.400
x75.294 y-35.063 z-0.400
x75.300 y-35.021 z-0.400
x75.304 y-34.978 z-0.400
x75.307 y-34.936 z-0.400
x75.307 y-34.894 z-0.400
x75.305 y-34.851 z-0.400
x75.302 y-34.809 z-0.400
x75.296 y-34.767 z-0.400
x75.288 y-34.725 z-0.400
x75.279 y-34.684 z-0.400
x75.267 y-34.643 z-0.400
x75.254 y-34.603 z-0.400
x75.238 y-34.563 z-0.400
x75.221 y-34.524 z-0.400
x75.202 y-34.486 z-0.400
x75.181 y-34.449 z-0.400
x75.159 y-34.413 z-0.400
x75.135 y-34.379 z-0.400
x75.109 y-34.345 z-0.400
x75.082 y-34.312 z-0.400
x75.053 y-34.281 z-0.400
x75.023 y-34.252 z-0.400
x74.991 y-34.223 z-0.400
x74.958 y-34.197 z-0.400
x74.924 y-34.171 z-0.400
x74.889 y-34.148 z-0.400
x74.852 y-34.126 z-0.400
x74.815 y-34.106 z-0.400
x74.777 y-34.087 z-0.400
x74.738 y-34.071 z-0.400
x74.698 y-34.056 z-0.400
x74.657 y-34.044 z-0.400
x74.616 y-34.033 z-0.400
x74.575 y-34.024 z-0.400
x74.533 y-34.017 z-0.400
x74.491 y-34.012 z-0.400
x74.449 y-34.009 z-0.400
x74.406 y-34.008 z-0.400
x74.364 y-34.009 z-0.400
x74.321 y-34.012 z-0.400
x74.279 y-34.017 z-0.400
x74.238 y-34.024 z-0.400
x74.196 y-34.033 z-0.400
x74.155 y-34.044 z-0.400
x74.115 y-34.057 z-0.400
x74.075 y-34.072 z-0.400
x74.036 y-34.088 z-0.400
x73.998 y-34.107 z-0.400
x73.960 y-34.127 z-0.400
x73.924 y-34.149 z-0.400
x73.889 y-34.172 z-0.400
x73.855 y-34.197 z-0.400
x73.822 y-34.224 z-0.400
x73.790 y-34.253 z-0.400
x73.654 y-34.389 z-0.400
x66.660 y-34.389 z-0.400
x66.618 y-34.390 z-0.400
x66.575 y-34.393 z-0.400
x66.533 y-34.398 z-0.400
x66.491 y-34.405 z-0.400
x66.450 y-34.414 z-0.400
x66.409 y-34.425 z-0.400
x66.368 y-34.438 z-0.400
x66.329 y-34.452 z-0.400
x66.290 y-34.469 z-0.400
x66.251 y-34.487 z-0.400
x66.214 y-34.507 z-0.400
x66.178 y-34.529 z-0.400
x66.142 y-34.553 z-0.400
x66.108 y-34.578 z-0.400
x66.075 y-34.605 z-0.400
x66.044 y-34.633 z-0.400
x66.013 y-34.663 z-0.400
x65.985 y-34.694 z-0.400
x65.957 y-34.727 z-0.400
x65.932 y-34.760 z-0.400
x65.908 y-34.795 z-0.400
x65.885 y-34.831 z-0.400
x65.864 y-34.868 z-0.400
x65.845 y-34.906 z-0.400
x65.828 y-34.945 z-0.400
x65.813 y-34.985 z-0.400
x65.800 y-35.025 z-0.400
x65.788 y-35.066 z-0.400
x65.779 y-35.107 z-0.400
x65.771 y-35.149 z-0.400
x65.765 y-35.191 z-0.400
x65.762 y-35.233 z-0.400
x65.760 y-35.289 z-0.400
x65.760 y-35.866 z-0.400
x65.761 y-35.908 z-0.400
x65.764 y-35.951 z-0.400
x65.769 y-35.993 z-0.400
x65.776 y-36.035 z-0.400
x65.785 y-36.076 z-0.400
x65.796 y-36.117 z-0.400
x65.809 y-36.158 z-0.400
x65.823 y-36.197 z-0.400
x65.840 y-36.236 z-0.400
x65.858 y-36.275 z-0.400
x65.878 y-36.312 z-0.400
x65.900 y-36.348 z-0.400
x65.924 y-36.384 z-0.400
x65.949 y-36.418 z-0.400
x65.976 y-36.451 z-0.400
x66.004 y-36.482 z-0.400
x69.158 y-39.636 z-0.400
x56.598 y-39.636 z-0.400
x56.556 y-39.637 z-0.400
x56.513 y-39.640 z-0.400
x56.471 y-39.645 z-0.400
x56.429 y-39.652 z-0.400
x56.388 y-39.661 z-0.400
x56.347 y-39.672 z-0.400
x56.306 y-39.685 z-0.400
x56.267 y-39.699 z-0.400
x56.228 y-39.716 z-0.400
x56.189 y-39.734 z-0.400
x56.152 y-39.754 z-0.400
x56.116 y-39.776 z-0.400
x56.080 y-39.800 z-0.400
x56.046 y-39.825 z-0.400
x56.013 y-39.852 z-0.400
x55.982 y-39.880 z-0.400
x48.185 y-47.677 z-0.400
x48.158 y-47.709 z-0.400
x48.131 y-47.743 z-0.400
x48.107 y-47.777 z-0.400
x48.084 y-47.813 z-0.400
x48.062 y-47.850 z-0.400
x48.043 y-47.887 z-0.400
x48.025 y-47.926 z-0.400
x48.009 y-47.965 z-0.400
x47.995 y-48.005 z-0.400
x47.983 y-48.046 z-0.400
x47.973 y-48.087 z-0.400
x47.964 y-48.128 z-0.400
x47.958 y-48.170 z-0.400
x47.954 y-48.213 z-0.400
x47.951 y-48.255 z-0.400
x47.951 y-48.297 z-0.400
x47.953 y-48.340 z-0.400
x47.956 y-48.382 z-0.400
x47.962 y-48.424 z-0.400
x47.970 y-48.466 z-0.400
x47.979 y-48.507 z-0.400
x47.991 y-48.548 z-0.400
x48.004 y-48.588 z-0.400
x48.020 y-48.628 z-0.400
x48.037 y-48.667 z-0.400
x48.056 y-48.705 z-0.400
x48.077 y-48.742 z-0.400
x48.099 y-48.778 z-0.400
x48.123 y-48.812 z-0.400
x48.149 y-48.846 z-0.400
x48.176 y-48.879 z-0.400
x48.205 y-48.910 z-0.400
x48.235 y-48.939 z-0.400
x48.267 y-48.968 z-0.400
x48.300 y-48.994 z-0.400
x48.334 y-49.020 z-0.400
x48.369 y-49.043 z-0.400
x48.406 y-49.065 z-0.400
x48.443 y-49.085 z-0.400
x48.481 y-49.104 z-0.400
x48.520 y-49.120 z-0.400
x48.560 y-49.135 z-0.400
x48.601 y-49.147 z-0.400
x48.642 y-49.158 z-0.400
x48.683 y-49.167 z-0.400
x48.725 y-49.174 z-0.400
x48.767 y-49.179 z-0.400
x48.809 y-49.182 z-0.400
x48.852 y-49.183 z-0.400
x48.894 y-49.182 z-0.400
x48.937 y-49.179 z-0.400

( Lift to 5.000 )
F2000 z5.000

( Program end, back to origin )
G90 F2000 z5.000

( Spindle off )
M5
F2000 x0.000 y0.000 z5.000
