( Created by GrblGru )
( 17.04.2024 17:28:55 )



( Additional commands from settings )
G1 F200 Z25
G4 P2

( Job: Job Percurso da ferramenta 15 + 54 -> Bohrung 3.175mm )
( ------------------------------- )

( Job mode = 2, DRILL )
( Type of tool = 0, SPINDLE )

( Plano de segurança = 1 )
( Soma da profundidade = 2.5 )
( Profundidade por passo = 2.5 )
( Rampa de Mergulho = 0 )
( Tamanho de partição = 2 )
( Avanço de corte = 800 )
( Avanço rápido = 2000 )
( Avanço de mergulho = 100 )
( Tool = Drill bit 2mm )
( Tool diameter = 2 )



G1 G90 F100

( Spindle on )
M3
S1000

( MoveToStartpoint )
F2000 G90 z1.000
F2000 x12.896 y-4.108 z1.000
F100 x12.896 y-4.108 z-2.500

F2000 x12.896 y-4.108 z1.000

( MoveToStartpoint )
F2000 G90 z1.000
F2000 x15.454 y-4.091 z1.000
F100 x15.454 y-4.091 z-2.500

F2000 x15.454 y-4.091 z1.000

( MoveToStartpoint )
F2000 G90 z1.000
F2000 x21.648 y-3.950 z1.000
F100 x21.648 y-3.950 z-2.500

F2000 x21.648 y-3.950 z1.000

( MoveToStartpoint )
F2000 G90 z1.000
F2000 x24.197 y-3.950 z1.000
F100 x24.197 y-3.950 z-2.500

F2000 x24.197 y-3.950 z1.000

( MoveToStartpoint )
F2000 G90 z1.000
F2000 x26.737 y-3.952 z1.000
F100 x26.737 y-3.952 z-2.500

F2000 x26.737 y-3.952 z1.000

( MoveToStartpoint )
F2000 G90 z1.000
F2000 x29.834 y-5.863 z1.000
F100 x29.834 y-5.863 z-2.500

F2000 x29.834 y-5.863 z1.000

( MoveToStartpoint )
F2000 G90 z1.000
F2000 x26.118 y-11.437 z1.000
F100 x26.118 y-11.437 z-2.500

F2000 x26.118 y-11.437 z1.000

( MoveToStartpoint )
F2000 G90 z1.000
F2000 x26.051 y-15.494 z1.000
F100 x26.051 y-15.494 z-2.500

F2000 x26.051 y-15.494 z1.000

( MoveToStartpoint )
F2000 G90 z1.000
F2000 x23.511 y-15.494 z1.000
F100 x23.511 y-15.494 z-2.500

F2000 x23.511 y-15.494 z1.000

( MoveToStartpoint )
F2000 G90 z1.000
F2000 x20.971 y-15.494 z1.000
F100 x20.971 y-15.494 z-2.500

F2000 x20.971 y-15.494 z1.000

( MoveToStartpoint )
F2000 G90 z1.000
F2000 x18.431 y-15.494 z1.000
F100 x18.431 y-15.494 z-2.500

F2000 x18.431 y-15.494 z1.000

( MoveToStartpoint )
F2000 G90 z1.000
F2000 x15.769 y-15.494 z1.000
F100 x15.769 y-15.494 z-2.500

F2000 x15.769 y-15.494 z1.000

( MoveToStartpoint )
F2000 G90 z1.000
F2000 x13.352 y-15.474 z1.000
F100 x13.352 y-15.474 z-2.500

F2000 x13.352 y-15.474 z1.000

( MoveToStartpoint )
F2000 G90 z1.000
F2000 x10.811 y-15.494 z1.000
F100 x10.811 y-15.494 z-2.500

F2000 x10.811 y-15.494 z1.000

( MoveToStartpoint )
F2000 G90 z1.000
F2000 x8.271 y-15.494 z1.000
F100 x8.271 y-15.494 z-2.500

F2000 x8.271 y-15.494 z1.000

( MoveToStartpoint )
F2000 G90 z1.000
F2000 x5.731 y-15.494 z1.000
F100 x5.731 y-15.494 z-2.500

F2000 x5.731 y-15.494 z1.000

( MoveToStartpoint )
F2000 G90 z1.000
F2000 x5.731 y-30.734 z1.000
F100 x5.731 y-30.734 z-2.500

F2000 x5.731 y-30.734 z1.000

( MoveToStartpoint )
F2000 G90 z1.000
F2000 x8.271 y-30.734 z1.000
F100 x8.271 y-30.734 z-2.500

F2000 x8.271 y-30.734 z1.000

( MoveToStartpoint )
F2000 G90 z1.000
F2000 x10.811 y-30.734 z1.000
F100 x10.811 y-30.734 z-2.500

F2000 x10.811 y-30.734 z1.000

( MoveToStartpoint )
F2000 G90 z1.000
F2000 x13.351 y-30.734 z1.000
F100 x13.351 y-30.734 z-2.500

F2000 x13.351 y-30.734 z1.000

( MoveToStartpoint )
F2000 G90 z1.000
F2000 x15.891 y-30.734 z1.000
F100 x15.891 y-30.734 z-2.500

F2000 x15.891 y-30.734 z1.000

( MoveToStartpoint )
F2000 G90 z1.000
F2000 x18.431 y-30.734 z1.000
F100 x18.431 y-30.734 z-2.500

F2000 x18.431 y-30.734 z1.000

( MoveToStartpoint )
F2000 G90 z1.000
F2000 x20.971 y-30.734 z1.000
F100 x20.971 y-30.734 z-2.500

F2000 x20.971 y-30.734 z1.000

( MoveToStartpoint )
F2000 G90 z1.000
F2000 x23.511 y-30.734 z1.000
F100 x23.511 y-30.734 z-2.500

F2000 x23.511 y-30.734 z1.000

( MoveToStartpoint )
F2000 G90 z1.000
F2000 x26.051 y-30.734 z1.000
F100 x26.051 y-30.734 z-2.500

F2000 x26.051 y-30.734 z1.000

( MoveToStartpoint )
F2000 G90 z1.000
F2000 x28.548 y-30.704 z1.000
F100 x28.548 y-30.704 z-2.500

F2000 x28.548 y-30.704 z1.000

( MoveToStartpoint )
F2000 G90 z1.000
F2000 x31.131 y-30.734 z1.000
F100 x31.131 y-30.734 z-2.500

F2000 x31.131 y-30.734 z1.000

( MoveToStartpoint )
F2000 G90 z1.000
F2000 x33.551 y-30.726 z1.000
F100 x33.551 y-30.726 z-2.500

F2000 x33.551 y-30.726 z1.000

( MoveToStartpoint )
F2000 G90 z1.000
F2000 x36.211 y-30.734 z1.000
F100 x36.211 y-30.734 z-2.500

F2000 x36.211 y-30.734 z1.000

( MoveToStartpoint )
F2000 G90 z1.000
F2000 x38.751 y-30.734 z1.000
F100 x38.751 y-30.734 z-2.500

F2000 x38.751 y-30.734 z1.000

( MoveToStartpoint )
F2000 G90 z1.000
F2000 x41.289 y-30.734 z1.000
F100 x41.289 y-30.734 z-2.500

F2000 x41.289 y-30.734 z1.000

( MoveToStartpoint )
F2000 G90 z1.000
F2000 x38.733 y-36.510 z1.000
F100 x38.733 y-36.510 z-2.500

F2000 x38.733 y-36.510 z1.000

( MoveToStartpoint )
F2000 G90 z1.000
F2000 x33.716 y-36.501 z1.000
F100 x33.716 y-36.501 z-2.500

F2000 x33.716 y-36.501 z1.000

( MoveToStartpoint )
F2000 G90 z1.000
F2000 x28.429 y-41.427 z1.000
F100 x28.429 y-41.427 z-2.500

F2000 x28.429 y-41.427 z1.000

( MoveToStartpoint )
F2000 G90 z1.000
F2000 x48.030 y-41.402 z1.000
F100 x48.030 y-41.402 z-2.500

F2000 x48.030 y-41.402 z1.000

( MoveToStartpoint )
F2000 G90 z1.000
F2000 x51.571 y-36.618 z1.000
F100 x51.571 y-36.618 z-2.500

F2000 x51.571 y-36.618 z1.000

( MoveToStartpoint )
F2000 G90 z1.000
F2000 x51.601 y-29.966 z1.000
F100 x51.601 y-29.966 z-2.500

F2000 x51.601 y-29.966 z1.000

( MoveToStartpoint )
F2000 G90 z1.000
F2000 x54.201 y-29.966 z1.000
F100 x54.201 y-29.966 z-2.500

F2000 x54.201 y-29.966 z1.000

( MoveToStartpoint )
F2000 G90 z1.000
F2000 x56.556 y-30.031 z1.000
F100 x56.556 y-30.031 z-2.500

F2000 x56.556 y-30.031 z1.000

( MoveToStartpoint )
F2000 G90 z1.000
F2000 x49.051 y-29.966 z1.000
F100 x49.051 y-29.966 z-2.500

F2000 x49.051 y-29.966 z1.000

( MoveToStartpoint )
F2000 G90 z1.000
F2000 x49.042 y-22.385 z1.000
F100 x49.042 y-22.385 z-2.500

F2000 x49.042 y-22.385 z1.000

( MoveToStartpoint )
F2000 G90 z1.000
F2000 x51.528 y-22.375 z1.000
F100 x51.528 y-22.375 z-2.500

F2000 x51.528 y-22.375 z1.000

( MoveToStartpoint )
F2000 G90 z1.000
F2000 x54.042 y-22.385 z1.000
F100 x54.042 y-22.385 z-2.500

F2000 x54.042 y-22.385 z1.000

( MoveToStartpoint )
F2000 G90 z1.000
F2000 x56.742 y-22.385 z1.000
F100 x56.742 y-22.385 z-2.500

F2000 x56.742 y-22.385 z1.000

( MoveToStartpoint )
F2000 G90 z1.000
F2000 x66.418 y-26.952 z1.000
F100 x66.418 y-26.952 z-2.500

F2000 x66.418 y-26.952 z1.000

( MoveToStartpoint )
F2000 G90 z1.000
F2000 x66.399 y-31.951 z1.000
F100 x66.399 y-31.951 z-2.500

F2000 x66.399 y-31.951 z1.000

( MoveToStartpoint )
F2000 G90 z1.000
F2000 x71.078 y-36.725 z1.000
F100 x71.078 y-36.725 z-2.500

F2000 x71.078 y-36.725 z1.000

( MoveToStartpoint )
F2000 G90 z1.000
F2000 x74.109 y-31.611 z1.000
F100 x74.109 y-31.611 z-2.500

F2000 x74.109 y-31.611 z1.000

( MoveToStartpoint )
F2000 G90 z1.000
F2000 x74.235 y-26.632 z1.000
F100 x74.235 y-26.632 z-2.500

F2000 x74.235 y-26.632 z1.000

( MoveToStartpoint )
F2000 G90 z1.000
F2000 x49.308 y-5.858 z1.000
F100 x49.308 y-5.858 z-2.500

F2000 x49.308 y-5.858 z1.000

( MoveToStartpoint )
F2000 G90 z1.000
F2000 x45.653 y-11.452 z1.000
F100 x45.653 y-11.452 z-2.500

F2000 x45.653 y-11.452 z1.000

( MoveToStartpoint )
F2000 G90 z1.000
F2000 x41.289 y-15.494 z1.000
F100 x41.289 y-15.494 z-2.500

F2000 x41.289 y-15.494 z1.000

( MoveToStartpoint )
F2000 G90 z1.000
F2000 x38.689 y-15.494 z1.000
F100 x38.689 y-15.494 z-2.500

F2000 x38.689 y-15.494 z1.000

( MoveToStartpoint )
F2000 G90 z1.000
F2000 x36.211 y-15.494 z1.000
F100 x36.211 y-15.494 z-2.500

F2000 x36.211 y-15.494 z1.000

( MoveToStartpoint )
F2000 G90 z1.000
F2000 x33.610 y-15.488 z1.000
F100 x33.610 y-15.488 z-2.500

F2000 x33.610 y-15.488 z1.000
F2000 z1.000

( Program end, back to origin )
G90 F2000 z1.000

( Spindle off )
M5
F2000 x0.000 y0.000 z1.000
