( Created by GrblGru )
( 27.11.2023 13:24:13 )



( Additional commands from settings )
G1 F200 Z25
G4 P2

( Job: Solder Tracks  -> None 3.175mm )
( ------------------------------- )

( Job mode = 0, CUT )
( Type of tool = 0, SPINDLE )

( TransformationTyp = NONE )
( Plano de segurança = 5 )
( Soma da profundidade = 0.3 )
( Profundidade por passo = 0.3 )
( Rampa de Mergulho = 0 )
( Tamanho de partição = 2 )
( Avanço de corte = 500 )
( Avanço rápido = 2000 )
( Avanço de mergulho = 500 )
( Tool = V-carve 45° x 3.175 )
( Tool diameter = 3.175 )



G1 G90 F100

( Percurso da ferramenta )
( ------------------------- )

( Spindle on )
M3
S500

( Current depth = -0.300 )

( MoveToStartpoint2 )
F2000 G90 z5.000
F2000 x9.431 y-3.908 z5.000
F2000 x9.431 y-3.908 z0.000

( Loop )
G90 F500
x9.431 y-3.908 z-0.300
F500
x9.476 y-3.903 z-0.300
x9.520 y-3.896 z-0.300
x9.564 y-3.887 z-0.300
x9.607 y-3.876 z-0.300
x9.650 y-3.863 z-0.300
x9.692 y-3.849 z-0.300
x9.734 y-3.832 z-0.300
x9.774 y-3.814 z-0.300
x9.814 y-3.793 z-0.300
x9.853 y-3.771 z-0.300
x9.891 y-3.748 z-0.300
x9.928 y-3.722 z-0.300
x9.964 y-3.695 z-0.300
x9.998 y-3.667 z-0.300
x10.031 y-3.637 z-0.300
x10.167 y-3.501 z-0.300
x10.198 y-3.469 z-0.300
x10.227 y-3.435 z-0.300
x10.255 y-3.400 z-0.300
x10.282 y-3.364 z-0.300
x10.306 y-3.327 z-0.300
x10.329 y-3.288 z-0.300
x10.351 y-3.249 z-0.300
x10.370 y-3.209 z-0.300
x10.388 y-3.168 z-0.300
x10.403 y-3.126 z-0.300
x10.417 y-3.083 z-0.300
x10.429 y-3.040 z-0.300
x10.439 y-2.997 z-0.300
x10.447 y-2.953 z-0.300
x10.453 y-2.908 z-0.300
x10.458 y-2.864 z-0.300
x10.460 y-2.819 z-0.300
x10.460 y-2.774 z-0.300
x10.458 y-2.730 z-0.300
x10.454 y-2.685 z-0.300
x10.448 y-2.641 z-0.300
x10.440 y-2.597 z-0.300
x10.431 y-2.553 z-0.300
x10.419 y-2.510 z-0.300
x10.405 y-2.467 z-0.300
x10.390 y-2.426 z-0.300
x10.372 y-2.384 z-0.300
x10.353 y-2.344 z-0.300
x10.332 y-2.304 z-0.300
x10.309 y-2.266 z-0.300
x10.285 y-2.229 z-0.300
x10.259 y-2.192 z-0.300
x10.231 y-2.157 z-0.300
x10.202 y-2.123 z-0.300
x10.171 y-2.091 z-0.300
x10.139 y-2.060 z-0.300
x10.105 y-2.030 z-0.300
x10.071 y-2.002 z-0.300
x10.035 y-1.976 z-0.300
x9.997 y-1.951 z-0.300
x9.959 y-1.927 z-0.300
x9.920 y-1.906 z-0.300
x9.880 y-1.886 z-0.300
x9.839 y-1.868 z-0.300
x9.797 y-1.852 z-0.300
x9.755 y-1.838 z-0.300
x9.712 y-1.826 z-0.300
x9.668 y-1.816 z-0.300
x9.624 y-1.808 z-0.300
x9.580 y-1.801 z-0.300
x9.535 y-1.797 z-0.300
x9.491 y-1.794 z-0.300
x9.446 y-1.794 z-0.300
x9.401 y-1.796 z-0.300
x9.357 y-1.799 z-0.300
x9.312 y-1.805 z-0.300
x9.268 y-1.813 z-0.300
x9.225 y-1.822 z-0.300
x9.181 y-1.834 z-0.300
x9.139 y-1.847 z-0.300
x9.097 y-1.862 z-0.300
x9.055 y-1.880 z-0.300
x9.015 y-1.899 z-0.300
x8.989 y-1.912 z-0.300
x2.954 y-1.912 z-0.300
x2.909 y-1.913 z-0.300
x2.865 y-1.916 z-0.300
x2.820 y-1.921 z-0.300
x2.776 y-1.928 z-0.300
x2.732 y-1.937 z-0.300
x2.689 y-1.948 z-0.300
x2.646 y-1.961 z-0.300
x2.604 y-1.975 z-0.300
x2.562 y-1.992 z-0.300
x2.522 y-2.010 z-0.300
x2.482 y-2.031 z-0.300
x2.443 y-2.053 z-0.300
x2.405 y-2.076 z-0.300
x2.368 y-2.102 z-0.300
x2.332 y-2.129 z-0.300
x2.298 y-2.157 z-0.300
x2.265 y-2.187 z-0.300
x2.233 y-2.219 z-0.300
x2.203 y-2.252 z-0.300
x2.174 y-2.286 z-0.300
x2.147 y-2.322 z-0.300
x2.121 y-2.358 z-0.300
x2.097 y-2.396 z-0.300
x2.075 y-2.435 z-0.300
x2.055 y-2.475 z-0.300
x2.036 y-2.515 z-0.300
x2.019 y-2.557 z-0.300
x2.004 y-2.599 z-0.300
x1.991 y-2.642 z-0.300
x1.980 y-2.685 z-0.300
x1.971 y-2.729 z-0.300
x1.964 y-2.773 z-0.300
x1.959 y-2.817 z-0.300
x1.955 y-2.862 z-0.300
x1.954 y-2.906 z-0.300
x1.955 y-2.951 z-0.300
x1.958 y-2.996 z-0.300
x1.962 y-3.040 z-0.300
x1.969 y-3.085 z-0.300
x1.978 y-3.128 z-0.300
x1.988 y-3.172 z-0.300
x2.001 y-3.215 z-0.300
x2.015 y-3.257 z-0.300
x2.031 y-3.299 z-0.300
x2.050 y-3.339 z-0.300
x2.070 y-3.379 z-0.300
x2.092 y-3.419 z-0.300
x2.115 y-3.457 z-0.300
x2.140 y-3.494 z-0.300
x2.167 y-3.529 z-0.300
x2.196 y-3.564 z-0.300
x2.226 y-3.597 z-0.300
x2.257 y-3.629 z-0.300
x2.290 y-3.659 z-0.300
x2.324 y-3.688 z-0.300
x2.359 y-3.716 z-0.300
x2.396 y-3.742 z-0.300
x2.433 y-3.766 z-0.300
x2.472 y-3.788 z-0.300
x2.512 y-3.809 z-0.300
x2.552 y-3.828 z-0.300
x2.593 y-3.845 z-0.300
x2.636 y-3.860 z-0.300
x2.678 y-3.873 z-0.300
x2.722 y-3.885 z-0.300
x2.765 y-3.894 z-0.300
x2.809 y-3.901 z-0.300
x2.854 y-3.907 z-0.300
x2.898 y-3.910 z-0.300
x2.954 y-3.912 z-0.300
x9.342 y-3.912 z-0.300
x9.387 y-3.911 z-0.300
x9.431 y-3.908 z-0.300

( Lift to 5.000 )
F2000 z5.000

( Percurso da ferramenta 2 )
( ------------------------- )

( Spindle on )
M3
S500

( Current depth = -0.300 )

( MoveToStartpoint2 )
F2000 G90 z5.000
F2000 x32.001 y-6.468 z5.000
F2000 x32.001 y-6.468 z0.000

( Loop )
G90 F500
x32.001 y-6.468 z-0.300
F500
x32.046 y-6.462 z-0.300
x32.052 y-6.461 z-0.300
x34.323 y-6.461 z-0.300
x34.368 y-6.460 z-0.300
x34.412 y-6.457 z-0.300
x34.457 y-6.452 z-0.300
x34.501 y-6.445 z-0.300
x34.545 y-6.436 z-0.300
x34.588 y-6.425 z-0.300
x34.631 y-6.412 z-0.300
x34.673 y-6.398 z-0.300
x34.715 y-6.381 z-0.300
x34.755 y-6.363 z-0.300
x34.795 y-6.342 z-0.300
x34.834 y-6.320 z-0.300
x34.872 y-6.297 z-0.300
x34.909 y-6.271 z-0.300
x34.945 y-6.244 z-0.300
x34.979 y-6.216 z-0.300
x35.012 y-6.186 z-0.300
x35.044 y-6.154 z-0.300
x35.074 y-6.121 z-0.300
x35.103 y-6.087 z-0.300
x35.130 y-6.051 z-0.300
x35.156 y-6.015 z-0.300
x35.180 y-5.977 z-0.300
x35.202 y-5.938 z-0.300
x35.222 y-5.898 z-0.300
x35.241 y-5.858 z-0.300
x35.258 y-5.816 z-0.300
x35.273 y-5.774 z-0.300
x35.286 y-5.731 z-0.300
x35.297 y-5.688 z-0.300
x35.306 y-5.644 z-0.300
x35.313 y-5.600 z-0.300
x35.318 y-5.556 z-0.300
x35.322 y-5.511 z-0.300
x35.323 y-5.467 z-0.300
x35.322 y-5.422 z-0.300
x35.319 y-5.377 z-0.300
x35.315 y-5.333 z-0.300
x35.308 y-5.288 z-0.300
x35.299 y-5.245 z-0.300
x35.289 y-5.201 z-0.300
x35.276 y-5.158 z-0.300
x35.262 y-5.116 z-0.300
x35.245 y-5.074 z-0.300
x35.227 y-5.034 z-0.300
x35.207 y-4.994 z-0.300
x35.185 y-4.954 z-0.300
x35.162 y-4.916 z-0.300
x35.137 y-4.879 z-0.300
x35.110 y-4.844 z-0.300
x35.081 y-4.809 z-0.300
x35.051 y-4.776 z-0.300
x35.020 y-4.744 z-0.300
x34.987 y-4.714 z-0.300
x34.953 y-4.685 z-0.300
x34.918 y-4.657 z-0.300
x34.881 y-4.631 z-0.300
x34.844 y-4.607 z-0.300
x34.805 y-4.585 z-0.300
x34.765 y-4.564 z-0.300
x34.725 y-4.545 z-0.300
x34.684 y-4.528 z-0.300
x34.641 y-4.513 z-0.300
x34.599 y-4.500 z-0.300
x34.555 y-4.488 z-0.300
x34.512 y-4.479 z-0.300
x34.468 y-4.472 z-0.300
x34.423 y-4.466 z-0.300
x34.379 y-4.463 z-0.300
x34.323 y-4.461 z-0.300
x31.922 y-4.461 z-0.300
x31.877 y-4.463 z-0.300
x31.833 y-4.466 z-0.300
x31.788 y-4.471 z-0.300
x2.954 y-4.471 z-0.300
x2.909 y-4.472 z-0.300
x2.865 y-4.475 z-0.300
x2.820 y-4.480 z-0.300
x2.776 y-4.487 z-0.300
x2.732 y-4.496 z-0.300
x2.689 y-4.507 z-0.300
x2.646 y-4.520 z-0.300
x2.604 y-4.534 z-0.300
x2.562 y-4.551 z-0.300
x2.522 y-4.569 z-0.300
x2.482 y-4.590 z-0.300
x2.443 y-4.612 z-0.300
x2.405 y-4.635 z-0.300
x2.368 y-4.661 z-0.300
x2.332 y-4.688 z-0.300
x2.298 y-4.716 z-0.300
x2.265 y-4.746 z-0.300
x2.233 y-4.778 z-0.300
x2.203 y-4.811 z-0.300
x2.174 y-4.845 z-0.300
x2.147 y-4.881 z-0.300
x2.121 y-4.917 z-0.300
x2.097 y-4.955 z-0.300
x2.075 y-4.994 z-0.300
x2.055 y-5.034 z-0.300
x2.036 y-5.074 z-0.300
x2.019 y-5.116 z-0.300
x2.004 y-5.158 z-0.300
x1.991 y-5.201 z-0.300
x1.980 y-5.244 z-0.300
x1.971 y-5.288 z-0.300
x1.964 y-5.332 z-0.300
x1.959 y-5.376 z-0.300
x1.955 y-5.421 z-0.300
x1.954 y-5.465 z-0.300
x1.955 y-5.510 z-0.300
x1.958 y-5.555 z-0.300
x1.962 y-5.599 z-0.300
x1.969 y-5.644 z-0.300
x1.978 y-5.687 z-0.300
x1.988 y-5.731 z-0.300
x2.001 y-5.774 z-0.300
x2.015 y-5.816 z-0.300
x2.031 y-5.858 z-0.300
x2.050 y-5.898 z-0.300
x2.070 y-5.938 z-0.300
x2.092 y-5.978 z-0.300
x2.115 y-6.016 z-0.300
x2.140 y-6.053 z-0.300
x2.167 y-6.088 z-0.300
x2.196 y-6.123 z-0.300
x2.226 y-6.156 z-0.300
x2.257 y-6.188 z-0.300
x2.290 y-6.218 z-0.300
x2.324 y-6.247 z-0.300
x2.359 y-6.275 z-0.300
x2.396 y-6.301 z-0.300
x2.433 y-6.325 z-0.300
x2.472 y-6.347 z-0.300
x2.512 y-6.368 z-0.300
x2.552 y-6.387 z-0.300
x2.593 y-6.404 z-0.300
x2.636 y-6.419 z-0.300
x2.678 y-6.432 z-0.300
x2.722 y-6.444 z-0.300
x2.765 y-6.453 z-0.300
x2.809 y-6.460 z-0.300
x2.854 y-6.466 z-0.300
x2.898 y-6.469 z-0.300
x2.954 y-6.472 z-0.300
x31.912 y-6.472 z-0.300
x31.957 y-6.470 z-0.300
x32.001 y-6.468 z-0.300

( Lift to 5.000 )
F2000 z5.000

( Percurso da ferramenta 0 )
( ------------------------- )

( Spindle on )
M3
S500

( Current depth = -0.300 )

( MoveToStartpoint2 )
F2000 G90 z5.000
F2000 x34.432 y-3.915 z5.000
F2000 x34.432 y-3.915 z0.000

( Loop )
G90 F500
x34.432 y-3.915 z-0.300
F500
x34.476 y-3.909 z-0.300
x34.520 y-3.901 z-0.300
x34.564 y-3.892 z-0.300
x34.607 y-3.880 z-0.300
x34.650 y-3.866 z-0.300
x34.691 y-3.851 z-0.300
x34.733 y-3.833 z-0.300
x34.773 y-3.814 z-0.300
x34.813 y-3.793 z-0.300
x34.851 y-3.770 z-0.300
x34.888 y-3.746 z-0.300
x34.925 y-3.720 z-0.300
x34.960 y-3.692 z-0.300
x34.994 y-3.663 z-0.300
x35.026 y-3.632 z-0.300
x35.057 y-3.600 z-0.300
x35.087 y-3.566 z-0.300
x35.115 y-3.532 z-0.300
x35.141 y-3.496 z-0.300
x35.166 y-3.458 z-0.300
x35.190 y-3.420 z-0.300
x35.211 y-3.381 z-0.300
x35.231 y-3.341 z-0.300
x35.249 y-3.300 z-0.300
x35.265 y-3.258 z-0.300
x35.279 y-3.216 z-0.300
x35.291 y-3.173 z-0.300
x35.301 y-3.129 z-0.300
x35.309 y-3.085 z-0.300
x35.316 y-3.041 z-0.300
x35.320 y-2.996 z-0.300
x35.323 y-2.952 z-0.300
x35.323 y-2.907 z-0.300
x35.321 y-2.862 z-0.300
x35.318 y-2.818 z-0.300
x35.312 y-2.773 z-0.300
x35.304 y-2.729 z-0.300
x35.295 y-2.686 z-0.300
x35.283 y-2.642 z-0.300
x35.270 y-2.600 z-0.300
x35.255 y-2.558 z-0.300
x35.237 y-2.516 z-0.300
x35.218 y-2.476 z-0.300
x35.198 y-2.436 z-0.300
x35.175 y-2.398 z-0.300
x35.151 y-2.360 z-0.300
x35.125 y-2.324 z-0.300
x35.097 y-2.288 z-0.300
x35.068 y-2.254 z-0.300
x35.030 y-2.214 z-0.300
x34.903 y-2.087 z-0.300
x34.871 y-2.056 z-0.300
x34.837 y-2.027 z-0.300
x34.802 y-1.999 z-0.300
x34.766 y-1.972 z-0.300
x34.729 y-1.948 z-0.300
x34.690 y-1.925 z-0.300
x34.651 y-1.903 z-0.300
x34.611 y-1.884 z-0.300
x34.570 y-1.866 z-0.300
x34.528 y-1.851 z-0.300
x34.485 y-1.837 z-0.300
x34.442 y-1.825 z-0.300
x34.399 y-1.815 z-0.300
x34.355 y-1.807 z-0.300
x34.310 y-1.801 z-0.300
x34.266 y-1.796 z-0.300
x34.221 y-1.794 z-0.300
x28.960 y-1.794 z-0.300
x28.915 y-1.795 z-0.300
x28.871 y-1.798 z-0.300
x28.826 y-1.803 z-0.300
x28.782 y-1.810 z-0.300
x28.738 y-1.819 z-0.300
x28.695 y-1.830 z-0.300
x28.652 y-1.843 z-0.300
x28.610 y-1.857 z-0.300
x28.568 y-1.874 z-0.300
x28.528 y-1.892 z-0.300
x28.488 y-1.913 z-0.300
x28.449 y-1.935 z-0.300
x28.411 y-1.958 z-0.300
x28.374 y-1.984 z-0.300
x28.338 y-2.011 z-0.300
x28.304 y-2.039 z-0.300
x28.271 y-2.069 z-0.300
x28.239 y-2.101 z-0.300
x28.209 y-2.134 z-0.300
x28.180 y-2.168 z-0.300
x28.153 y-2.204 z-0.300
x28.127 y-2.240 z-0.300
x28.103 y-2.278 z-0.300
x28.081 y-2.317 z-0.300
x28.061 y-2.357 z-0.300
x28.042 y-2.397 z-0.300
x28.025 y-2.439 z-0.300
x28.010 y-2.481 z-0.300
x27.997 y-2.524 z-0.300
x27.986 y-2.567 z-0.300
x27.977 y-2.611 z-0.300
x27.970 y-2.655 z-0.300
x27.965 y-2.699 z-0.300
x27.961 y-2.744 z-0.300
x27.960 y-2.788 z-0.300
x27.961 y-2.833 z-0.300
x27.964 y-2.878 z-0.300
x27.968 y-2.922 z-0.300
x27.975 y-2.967 z-0.300
x27.984 y-3.010 z-0.300
x27.994 y-3.054 z-0.300
x28.007 y-3.097 z-0.300
x28.021 y-3.139 z-0.300
x28.038 y-3.181 z-0.300
x28.056 y-3.221 z-0.300
x28.076 y-3.261 z-0.300
x28.098 y-3.301 z-0.300
x28.121 y-3.339 z-0.300
x28.146 y-3.376 z-0.300
x28.173 y-3.411 z-0.300
x28.202 y-3.446 z-0.300
x28.232 y-3.479 z-0.300
x28.263 y-3.511 z-0.300
x28.296 y-3.541 z-0.300
x28.330 y-3.570 z-0.300
x28.365 y-3.598 z-0.300
x28.402 y-3.624 z-0.300
x28.439 y-3.648 z-0.300
x28.478 y-3.670 z-0.300
x28.518 y-3.691 z-0.300
x28.558 y-3.710 z-0.300
x28.599 y-3.727 z-0.300
x28.642 y-3.742 z-0.300
x28.684 y-3.755 z-0.300
x28.728 y-3.767 z-0.300
x28.771 y-3.776 z-0.300
x28.815 y-3.783 z-0.300
x28.860 y-3.789 z-0.300
x28.904 y-3.792 z-0.300
x28.960 y-3.794 z-0.300
x33.836 y-3.794 z-0.300
x33.868 y-3.812 z-0.300
x33.908 y-3.831 z-0.300
x33.949 y-3.849 z-0.300
x33.991 y-3.864 z-0.300
x34.034 y-3.878 z-0.300
x34.077 y-3.890 z-0.300
x34.120 y-3.900 z-0.300
x34.164 y-3.908 z-0.300
x34.209 y-3.914 z-0.300
x34.253 y-3.919 z-0.300
x34.298 y-3.921 z-0.300
x34.343 y-3.921 z-0.300
x34.387 y-3.919 z-0.300
x34.432 y-3.915 z-0.300

( Lift to 5.000 )
F2000 z5.000

( Program end, back to origin )
G90 F2000 z5.000

( Spindle off )
M5
F2000 x0.000 y0.000 z5.000
