( Created by GrblGru )
( 24.11.2023 15:47:54 )



( Additional commands from settings )
G1 F200 Z25
G4 P2

( Job: Solder Tracks  -> Outside 3.175mm )
( ------------------------------- )

( Job mode = 0, CUT )
( Type of tool = 0, SPINDLE )

( TransformationTyp = NONE )
( Clearance Plane = 5 )
( Sum of depths = 0.4 )
( Depth per path = 0.4 )
( Diving Ramp = 0 )
( Splitting size = 2 )
( Cut Feedrate = 500 )
( Rapid Feedrate = 2000 )
( Plunge Feedrate = 500 )
( Tool = Endmill 2mm )
( Tool diameter = 2 )



G1 G90 F100

( Path )
( ------------------------- )

( Spindle on )
M3
S500

( Current depth = -0.400 )

( MoveToStartpoint2 )
F2000 G90 z5.000
F2000 x9.499 y-4.906 z5.000
F2000 x9.499 y-4.906 z0.000

( Loop )
G90 F500
x9.499 y-4.906 z-0.400
F500
x9.541 y-4.902 z-0.400
x9.586 y-4.897 z-0.400
x9.633 y-4.891 z-0.400
x9.677 y-4.884 z-0.400
x9.720 y-4.876 z-0.400
x9.764 y-4.867 z-0.400
x9.812 y-4.856 z-0.400
x9.855 y-4.845 z-0.400
x9.896 y-4.833 z-0.400
x9.939 y-4.820 z-0.400
x9.966 y-4.812 z-0.400
x10.008 y-4.798 z-0.400
x10.067 y-4.776 z-0.400
x10.109 y-4.759 z-0.400
x10.144 y-4.744 z-0.400
x10.184 y-4.726 z-0.400
x10.239 y-4.699 z-0.400
x10.279 y-4.678 z-0.400
x10.305 y-4.664 z-0.400
x10.344 y-4.642 z-0.400
x10.371 y-4.627 z-0.400
x10.409 y-4.604 z-0.400
x10.447 y-4.579 z-0.400
x10.466 y-4.566 z-0.400
x10.503 y-4.540 z-0.400
x10.528 y-4.522 z-0.400
x10.564 y-4.495 z-0.400
x10.600 y-4.467 z-0.400
x10.634 y-4.439 z-0.400
x10.671 y-4.407 z-0.400
x10.704 y-4.377 z-0.400
x10.738 y-4.344 z-0.400
x10.885 y-4.197 z-0.400
x10.916 y-4.165 z-0.400
x10.959 y-4.118 z-0.400
x10.988 y-4.084 z-0.400
x11.008 y-4.060 z-0.400
x11.036 y-4.025 z-0.400
x11.055 y-4.000 z-0.400
x11.082 y-3.964 z-0.400
x11.108 y-3.928 z-0.400
x11.121 y-3.908 z-0.400
x11.145 y-3.871 z-0.400
x11.167 y-3.835 z-0.400
x11.190 y-3.796 z-0.400
x11.200 y-3.779 z-0.400
x11.222 y-3.740 z-0.400
x11.243 y-3.701 z-0.400
x11.254 y-3.678 z-0.400
x11.273 y-3.638 z-0.400
x11.286 y-3.611 z-0.400
x11.304 y-3.570 z-0.400
x11.321 y-3.529 z-0.400
x11.330 y-3.504 z-0.400
x11.345 y-3.462 z-0.400
x11.354 y-3.436 z-0.400
x11.368 y-3.393 z-0.400
x11.380 y-3.352 z-0.400
x11.392 y-3.309 z-0.400
x11.403 y-3.267 z-0.400
x11.413 y-3.224 z-0.400
x11.423 y-3.176 z-0.400
x11.431 y-3.132 z-0.400
x11.438 y-3.085 z-0.400
x11.444 y-3.040 z-0.400
x11.447 y-3.021 z-0.400
x11.452 y-2.977 z-0.400
x11.456 y-2.932 z-0.400
x11.457 y-2.908 z-0.400
x11.459 y-2.863 z-0.400
x11.460 y-2.819 z-0.400
x11.460 y-2.774 z-0.400
x11.459 y-2.729 z-0.400
x11.457 y-2.685 z-0.400
x11.454 y-2.641 z-0.400
x11.450 y-2.596 z-0.400
x11.445 y-2.550 z-0.400
x11.439 y-2.506 z-0.400
x11.432 y-2.462 z-0.400
x11.424 y-2.418 z-0.400
x11.420 y-2.397 z-0.400
x11.411 y-2.353 z-0.400
x11.401 y-2.309 z-0.400
x11.394 y-2.284 z-0.400
x11.382 y-2.241 z-0.400
x11.370 y-2.200 z-0.400
x11.356 y-2.157 z-0.400
x11.344 y-2.123 z-0.400
x11.329 y-2.082 z-0.400
x11.309 y-2.032 z-0.400
x11.291 y-1.990 z-0.400
x11.275 y-1.955 z-0.400
x11.256 y-1.915 z-0.400
x11.238 y-1.879 z-0.400
x11.217 y-1.839 z-0.400
x11.188 y-1.786 z-0.400
x11.165 y-1.748 z-0.400
x11.148 y-1.722 z-0.400
x11.124 y-1.685 z-0.400
x11.103 y-1.654 z-0.400
x11.077 y-1.617 z-0.400
x11.040 y-1.567 z-0.400
x11.012 y-1.532 z-0.400
x10.992 y-1.508 z-0.400
x10.963 y-1.474 z-0.400
x10.920 y-1.427 z-0.400
x10.889 y-1.395 z-0.400
x10.867 y-1.373 z-0.400
x10.835 y-1.342 z-0.400
x10.801 y-1.310 z-0.400
x10.767 y-1.280 z-0.400
x10.741 y-1.258 z-0.400
x10.707 y-1.230 z-0.400
x10.656 y-1.191 z-0.400
x10.620 y-1.165 z-0.400
x10.585 y-1.141 z-0.400
x10.547 y-1.116 z-0.400
x10.531 y-1.106 z-0.400
x10.455 y-1.058 z-0.400
x10.433 y-1.047 z-0.400
x10.394 y-1.026 z-0.400
x10.367 y-1.012 z-0.400
x10.327 y-0.992 z-0.400
x10.282 y-0.970 z-0.400
x10.241 y-0.952 z-0.400
x10.195 y-0.934 z-0.400
x10.153 y-0.918 z-0.400
x10.113 y-0.903 z-0.400
x10.071 y-0.889 z-0.400
x10.024 y-0.875 z-0.400
x9.981 y-0.863 z-0.400
x9.934 y-0.851 z-0.400
x9.890 y-0.841 z-0.400
x9.847 y-0.832 z-0.400
x9.781 y-0.820 z-0.400
x9.737 y-0.813 z-0.400
x9.693 y-0.807 z-0.400
x9.669 y-0.805 z-0.400
x9.624 y-0.801 z-0.400
x9.603 y-0.799 z-0.400
x9.559 y-0.796 z-0.400
x9.514 y-0.794 z-0.400
x9.446 y-0.794 z-0.400
x9.402 y-0.795 z-0.400
x9.357 y-0.797 z-0.400
x9.333 y-0.798 z-0.400
x9.289 y-0.801 z-0.400
x9.225 y-0.808 z-0.400
x9.180 y-0.814 z-0.400
x9.133 y-0.821 z-0.400
x9.089 y-0.829 z-0.400
x9.063 y-0.834 z-0.400
x9.020 y-0.843 z-0.400
x8.962 y-0.857 z-0.400
x8.918 y-0.869 z-0.400
x8.885 y-0.879 z-0.400
x8.843 y-0.892 z-0.400
x8.803 y-0.905 z-0.400
x8.783 y-0.912 z-0.400
x2.932 y-0.912 z-0.400
x2.887 y-0.913 z-0.400
x2.841 y-0.915 z-0.400
x2.797 y-0.918 z-0.400
x2.755 y-0.922 z-0.400
x2.710 y-0.927 z-0.400
x2.663 y-0.933 z-0.400
x2.619 y-0.940 z-0.400
x2.576 y-0.948 z-0.400
x2.532 y-0.957 z-0.400
x2.484 y-0.968 z-0.400
x2.441 y-0.979 z-0.400
x2.400 y-0.991 z-0.400
x2.357 y-1.004 z-0.400
x2.330 y-1.012 z-0.400
x2.288 y-1.026 z-0.400
x2.229 y-1.048 z-0.400
x2.187 y-1.065 z-0.400
x2.152 y-1.080 z-0.400
x2.112 y-1.098 z-0.400
x2.057 y-1.125 z-0.400
x2.017 y-1.146 z-0.400
x1.991 y-1.160 z-0.400
x1.952 y-1.182 z-0.400
x1.925 y-1.197 z-0.400
x1.887 y-1.220 z-0.400
x1.849 y-1.245 z-0.400
x1.830 y-1.258 z-0.400
x1.793 y-1.284 z-0.400
x1.768 y-1.302 z-0.400
x1.732 y-1.329 z-0.400
x1.696 y-1.357 z-0.400
x1.662 y-1.385 z-0.400
x1.625 y-1.417 z-0.400
x1.592 y-1.447 z-0.400
x1.558 y-1.480 z-0.400
x1.526 y-1.512 z-0.400
x1.493 y-1.546 z-0.400
x1.463 y-1.579 z-0.400
x1.442 y-1.603 z-0.400
x1.413 y-1.637 z-0.400
x1.374 y-1.686 z-0.400
x1.347 y-1.722 z-0.400
x1.336 y-1.737 z-0.400
x1.310 y-1.773 z-0.400
x1.276 y-1.824 z-0.400
x1.252 y-1.862 z-0.400
x1.226 y-1.905 z-0.400
x1.204 y-1.944 z-0.400
x1.181 y-1.988 z-0.400
x1.152 y-2.046 z-0.400
x1.133 y-2.086 z-0.400
x1.109 y-2.140 z-0.400
x1.092 y-2.182 z-0.400
x1.077 y-2.221 z-0.400
x1.062 y-2.263 z-0.400
x1.047 y-2.310 z-0.400
x1.034 y-2.353 z-0.400
x1.022 y-2.394 z-0.400
x1.011 y-2.437 z-0.400
x1.000 y-2.485 z-0.400
x0.991 y-2.529 z-0.400
x0.983 y-2.572 z-0.400
x0.976 y-2.616 z-0.400
x0.970 y-2.660 z-0.400
x0.965 y-2.704 z-0.400
x0.963 y-2.728 z-0.400
x0.959 y-2.773 z-0.400
x0.955 y-2.839 z-0.400
x0.954 y-2.883 z-0.400
x0.954 y-2.928 z-0.400
x0.955 y-2.973 z-0.400
x0.957 y-3.018 z-0.400
x0.960 y-3.063 z-0.400
x0.962 y-3.087 z-0.400
x0.966 y-3.131 z-0.400
x0.974 y-3.194 z-0.400
x0.981 y-3.239 z-0.400
x0.990 y-3.290 z-0.400
x0.999 y-3.333 z-0.400
x1.003 y-3.350 z-0.400
x1.013 y-3.394 z-0.400
x1.024 y-3.437 z-0.400
x1.031 y-3.461 z-0.400
x1.044 y-3.504 z-0.400
x1.052 y-3.531 z-0.400
x1.066 y-3.573 z-0.400
x1.081 y-3.613 z-0.400
x1.097 y-3.655 z-0.400
x1.113 y-3.696 z-0.400
x1.128 y-3.728 z-0.400
x1.147 y-3.768 z-0.400
x1.176 y-3.826 z-0.400
x1.194 y-3.861 z-0.400
x1.216 y-3.901 z-0.400
x1.236 y-3.937 z-0.400
x1.259 y-3.975 z-0.400
x1.286 y-4.017 z-0.400
x1.311 y-4.054 z-0.400
x1.348 y-4.105 z-0.400
x1.375 y-4.140 z-0.400
x1.397 y-4.167 z-0.400
x1.426 y-4.202 z-0.400
x1.456 y-4.237 z-0.400
x1.486 y-4.270 z-0.400
x1.508 y-4.293 z-0.400
x1.539 y-4.325 z-0.400
x1.584 y-4.369 z-0.400
x1.617 y-4.399 z-0.400
x1.641 y-4.420 z-0.400
x1.675 y-4.449 z-0.400
x1.699 y-4.469 z-0.400
x1.734 y-4.497 z-0.400
x1.784 y-4.534 z-0.400
x1.821 y-4.560 z-0.400
x1.852 y-4.581 z-0.400
x1.889 y-4.605 z-0.400
x1.942 y-4.637 z-0.400
x1.981 y-4.659 z-0.400
x2.007 y-4.673 z-0.400
x2.047 y-4.694 z-0.400
x2.083 y-4.712 z-0.400
x2.123 y-4.731 z-0.400
x2.169 y-4.752 z-0.400
x2.210 y-4.769 z-0.400
x2.264 y-4.789 z-0.400
x2.307 y-4.804 z-0.400
x2.340 y-4.815 z-0.400
x2.382 y-4.828 z-0.400
x2.415 y-4.838 z-0.400
x2.459 y-4.850 z-0.400
x2.517 y-4.864 z-0.400
x2.560 y-4.873 z-0.400
x2.608 y-4.882 z-0.400
x2.652 y-4.889 z-0.400
x2.677 y-4.892 z-0.400
x2.722 y-4.898 z-0.400
x2.786 y-4.905 z-0.400
x2.830 y-4.908 z-0.400
x2.862 y-4.909 z-0.400
x2.918 y-4.911 z-0.400
x2.954 y-4.912 z-0.400
x9.364 y-4.912 z-0.400
x9.409 y-4.911 z-0.400
x9.455 y-4.909 z-0.400
x9.499 y-4.906 z-0.400

( Lift to 5.000 )
F2000 z5.000

( Path 2 )
( ------------------------- )

( Spindle on )
M3
S500

( Current depth = -0.400 )

( MoveToStartpoint2 )
F2000 G90 z5.000
F2000 x32.091 y-7.464 z5.000
F2000 x32.091 y-7.464 z0.000

( Loop )
G90 F500
x32.091 y-7.464 z-0.400
F500
x32.116 y-7.461 z-0.400
x34.345 y-7.461 z-0.400
x34.390 y-7.460 z-0.400
x34.436 y-7.458 z-0.400
x34.480 y-7.455 z-0.400
x34.522 y-7.451 z-0.400
x34.567 y-7.446 z-0.400
x34.614 y-7.440 z-0.400
x34.658 y-7.433 z-0.400
x34.701 y-7.425 z-0.400
x34.745 y-7.416 z-0.400
x34.793 y-7.405 z-0.400
x34.836 y-7.394 z-0.400
x34.877 y-7.382 z-0.400
x34.920 y-7.369 z-0.400
x34.947 y-7.361 z-0.400
x34.989 y-7.347 z-0.400
x35.048 y-7.325 z-0.400
x35.090 y-7.308 z-0.400
x35.125 y-7.293 z-0.400
x35.165 y-7.275 z-0.400
x35.220 y-7.248 z-0.400
x35.260 y-7.227 z-0.400
x35.286 y-7.213 z-0.400
x35.325 y-7.191 z-0.400
x35.352 y-7.176 z-0.400
x35.390 y-7.153 z-0.400
x35.428 y-7.128 z-0.400
x35.447 y-7.115 z-0.400
x35.484 y-7.089 z-0.400
x35.509 y-7.071 z-0.400
x35.545 y-7.044 z-0.400
x35.581 y-7.016 z-0.400
x35.615 y-6.988 z-0.400
x35.652 y-6.956 z-0.400
x35.685 y-6.926 z-0.400
x35.719 y-6.893 z-0.400
x35.751 y-6.861 z-0.400
x35.784 y-6.827 z-0.400
x35.814 y-6.794 z-0.400
x35.835 y-6.770 z-0.400
x35.864 y-6.736 z-0.400
x35.903 y-6.687 z-0.400
x35.930 y-6.651 z-0.400
x35.941 y-6.636 z-0.400
x35.967 y-6.600 z-0.400
x36.001 y-6.549 z-0.400
x36.025 y-6.511 z-0.400
x36.051 y-6.468 z-0.400
x36.073 y-6.429 z-0.400
x36.096 y-6.385 z-0.400
x36.125 y-6.327 z-0.400
x36.144 y-6.287 z-0.400
x36.168 y-6.233 z-0.400
x36.185 y-6.191 z-0.400
x36.200 y-6.152 z-0.400
x36.215 y-6.110 z-0.400
x36.230 y-6.063 z-0.400
x36.243 y-6.020 z-0.400
x36.255 y-5.979 z-0.400
x36.266 y-5.936 z-0.400
x36.277 y-5.888 z-0.400
x36.286 y-5.844 z-0.400
x36.294 y-5.801 z-0.400
x36.301 y-5.757 z-0.400
x36.307 y-5.713 z-0.400
x36.312 y-5.669 z-0.400
x36.314 y-5.645 z-0.400
x36.318 y-5.600 z-0.400
x36.322 y-5.534 z-0.400
x36.323 y-5.490 z-0.400
x36.323 y-5.445 z-0.400
x36.322 y-5.400 z-0.400
x36.320 y-5.355 z-0.400
x36.317 y-5.310 z-0.400
x36.315 y-5.286 z-0.400
x36.311 y-5.242 z-0.400
x36.303 y-5.179 z-0.400
x36.296 y-5.134 z-0.400
x36.287 y-5.083 z-0.400
x36.278 y-5.040 z-0.400
x36.274 y-5.023 z-0.400
x36.264 y-4.979 z-0.400
x36.253 y-4.936 z-0.400
x36.246 y-4.912 z-0.400
x36.233 y-4.869 z-0.400
x36.225 y-4.842 z-0.400
x36.211 y-4.800 z-0.400
x36.189 y-4.741 z-0.400
x36.172 y-4.699 z-0.400
x36.157 y-4.664 z-0.400
x36.139 y-4.624 z-0.400
x36.121 y-4.587 z-0.400
x36.101 y-4.547 z-0.400
x36.083 y-4.512 z-0.400
x36.061 y-4.472 z-0.400
x36.041 y-4.436 z-0.400
x36.018 y-4.398 z-0.400
x35.991 y-4.356 z-0.400
x35.966 y-4.319 z-0.400
x35.929 y-4.268 z-0.400
x35.902 y-4.233 z-0.400
x35.880 y-4.206 z-0.400
x35.851 y-4.171 z-0.400
x35.821 y-4.136 z-0.400
x35.791 y-4.103 z-0.400
x35.769 y-4.080 z-0.400
x35.738 y-4.048 z-0.400
x35.693 y-4.004 z-0.400
x35.660 y-3.974 z-0.400
x35.636 y-3.953 z-0.400
x35.602 y-3.924 z-0.400
x35.578 y-3.904 z-0.400
x35.543 y-3.876 z-0.400
x35.493 y-3.839 z-0.400
x35.456 y-3.813 z-0.400
x35.425 y-3.792 z-0.400
x35.388 y-3.768 z-0.400
x35.335 y-3.736 z-0.400
x35.296 y-3.714 z-0.400
x35.270 y-3.700 z-0.400
x35.230 y-3.679 z-0.400
x35.194 y-3.661 z-0.400
x35.154 y-3.642 z-0.400
x35.108 y-3.621 z-0.400
x35.067 y-3.604 z-0.400
x35.013 y-3.584 z-0.400
x34.970 y-3.569 z-0.400
x34.937 y-3.558 z-0.400
x34.895 y-3.545 z-0.400
x34.862 y-3.535 z-0.400
x34.818 y-3.523 z-0.400
x34.760 y-3.509 z-0.400
x34.717 y-3.500 z-0.400
x34.669 y-3.491 z-0.400
x34.625 y-3.484 z-0.400
x34.600 y-3.481 z-0.400
x34.555 y-3.475 z-0.400
x34.491 y-3.468 z-0.400
x34.447 y-3.465 z-0.400
x34.415 y-3.464 z-0.400
x34.359 y-3.462 z-0.400
x34.323 y-3.461 z-0.400
x31.922 y-3.461 z-0.400
x31.878 y-3.462 z-0.400
x31.833 y-3.464 z-0.400
x31.809 y-3.465 z-0.400
x31.765 y-3.468 z-0.400
x31.733 y-3.471 z-0.400
x2.932 y-3.471 z-0.400
x2.887 y-3.472 z-0.400
x2.841 y-3.474 z-0.400
x2.797 y-3.477 z-0.400
x2.755 y-3.481 z-0.400
x2.710 y-3.486 z-0.400
x2.663 y-3.492 z-0.400
x2.619 y-3.499 z-0.400
x2.576 y-3.507 z-0.400
x2.532 y-3.516 z-0.400
x2.484 y-3.527 z-0.400
x2.441 y-3.538 z-0.400
x2.400 y-3.550 z-0.400
x2.357 y-3.563 z-0.400
x2.330 y-3.571 z-0.400
x2.288 y-3.585 z-0.400
x2.229 y-3.607 z-0.400
x2.187 y-3.624 z-0.400
x2.152 y-3.639 z-0.400
x2.112 y-3.657 z-0.400
x2.057 y-3.684 z-0.400
x2.017 y-3.705 z-0.400
x1.991 y-3.719 z-0.400
x1.952 y-3.741 z-0.400
x1.925 y-3.756 z-0.400
x1.887 y-3.779 z-0.400
x1.849 y-3.804 z-0.400
x1.830 y-3.817 z-0.400
x1.793 y-3.843 z-0.400
x1.768 y-3.861 z-0.400
x1.732 y-3.888 z-0.400
x1.696 y-3.916 z-0.400
x1.662 y-3.944 z-0.400
x1.625 y-3.976 z-0.400
x1.592 y-4.006 z-0.400
x1.558 y-4.039 z-0.400
x1.526 y-4.071 z-0.400
x1.493 y-4.105 z-0.400
x1.463 y-4.138 z-0.400
x1.442 y-4.162 z-0.400
x1.413 y-4.196 z-0.400
x1.374 y-4.245 z-0.400
x1.347 y-4.281 z-0.400
x1.336 y-4.296 z-0.400
x1.310 y-4.332 z-0.400
x1.276 y-4.383 z-0.400
x1.252 y-4.421 z-0.400
x1.226 y-4.464 z-0.400
x1.204 y-4.503 z-0.400
x1.181 y-4.547 z-0.400
x1.152 y-4.605 z-0.400
x1.133 y-4.645 z-0.400
x1.109 y-4.699 z-0.400
x1.092 y-4.741 z-0.400
x1.077 y-4.780 z-0.400
x1.062 y-4.822 z-0.400
x1.047 y-4.869 z-0.400
x1.034 y-4.912 z-0.400
x1.022 y-4.953 z-0.400
x1.011 y-4.996 z-0.400
x1.000 y-5.044 z-0.400
x0.991 y-5.088 z-0.400
x0.983 y-5.131 z-0.400
x0.976 y-5.175 z-0.400
x0.970 y-5.219 z-0.400
x0.965 y-5.263 z-0.400
x0.963 y-5.287 z-0.400
x0.959 y-5.332 z-0.400
x0.955 y-5.398 z-0.400
x0.954 y-5.442 z-0.400
x0.954 y-5.487 z-0.400
x0.955 y-5.532 z-0.400
x0.957 y-5.577 z-0.400
x0.960 y-5.622 z-0.400
x0.962 y-5.646 z-0.400
x0.966 y-5.690 z-0.400
x0.974 y-5.753 z-0.400
x0.981 y-5.798 z-0.400
x0.990 y-5.849 z-0.400
x0.999 y-5.892 z-0.400
x1.003 y-5.909 z-0.400
x1.013 y-5.953 z-0.400
x1.024 y-5.996 z-0.400
x1.031 y-6.020 z-0.400
x1.044 y-6.063 z-0.400
x1.052 y-6.090 z-0.400
x1.066 y-6.132 z-0.400
x1.081 y-6.172 z-0.400
x1.097 y-6.214 z-0.400
x1.113 y-6.255 z-0.400
x1.128 y-6.287 z-0.400
x1.147 y-6.327 z-0.400
x1.176 y-6.385 z-0.400
x1.194 y-6.420 z-0.400
x1.216 y-6.460 z-0.400
x1.236 y-6.496 z-0.400
x1.259 y-6.534 z-0.400
x1.286 y-6.576 z-0.400
x1.311 y-6.613 z-0.400
x1.348 y-6.664 z-0.400
x1.375 y-6.699 z-0.400
x1.397 y-6.726 z-0.400
x1.426 y-6.761 z-0.400
x1.456 y-6.796 z-0.400
x1.486 y-6.829 z-0.400
x1.508 y-6.852 z-0.400
x1.539 y-6.884 z-0.400
x1.584 y-6.928 z-0.400
x1.617 y-6.958 z-0.400
x1.641 y-6.979 z-0.400
x1.675 y-7.008 z-0.400
x1.699 y-7.028 z-0.400
x1.734 y-7.056 z-0.400
x1.784 y-7.093 z-0.400
x1.821 y-7.119 z-0.400
x1.852 y-7.140 z-0.400
x1.889 y-7.164 z-0.400
x1.942 y-7.196 z-0.400
x1.981 y-7.218 z-0.400
x2.007 y-7.232 z-0.400
x2.047 y-7.253 z-0.400
x2.083 y-7.271 z-0.400
x2.123 y-7.290 z-0.400
x2.169 y-7.311 z-0.400
x2.210 y-7.328 z-0.400
x2.264 y-7.348 z-0.400
x2.307 y-7.363 z-0.400
x2.340 y-7.374 z-0.400
x2.382 y-7.387 z-0.400
x2.415 y-7.397 z-0.400
x2.459 y-7.409 z-0.400
x2.517 y-7.423 z-0.400
x2.560 y-7.432 z-0.400
x2.608 y-7.441 z-0.400
x2.652 y-7.448 z-0.400
x2.677 y-7.451 z-0.400
x2.722 y-7.457 z-0.400
x2.786 y-7.464 z-0.400
x2.830 y-7.467 z-0.400
x2.845 y-7.468 z-0.400
x2.901 y-7.471 z-0.400
x2.954 y-7.472 z-0.400
x31.912 y-7.472 z-0.400
x31.956 y-7.471 z-0.400
x32.001 y-7.469 z-0.400
x32.002 y-7.469 z-0.400
x32.046 y-7.467 z-0.400
x32.091 y-7.464 z-0.400

( Lift to 5.000 )
F2000 z5.000

( Path 0 )
( ------------------------- )

( Spindle on )
M3
S500

( Current depth = -0.400 )

( MoveToStartpoint2 )
F2000 G90 z5.000
F2000 x34.521 y-4.911 z5.000
F2000 x34.521 y-4.911 z0.000

( Loop )
G90 F500
x34.521 y-4.911 z-0.400
F500
x34.567 y-4.906 z-0.400
x34.611 y-4.900 z-0.400
x34.655 y-4.893 z-0.400
x34.699 y-4.885 z-0.400
x34.720 y-4.881 z-0.400
x34.764 y-4.872 z-0.400
x34.808 y-4.862 z-0.400
x34.833 y-4.855 z-0.400
x34.876 y-4.843 z-0.400
x34.917 y-4.831 z-0.400
x34.960 y-4.817 z-0.400
x34.994 y-4.805 z-0.400
x35.035 y-4.790 z-0.400
x35.085 y-4.770 z-0.400
x35.127 y-4.752 z-0.400
x35.162 y-4.736 z-0.400
x35.202 y-4.717 z-0.400
x35.238 y-4.699 z-0.400
x35.278 y-4.678 z-0.400
x35.331 y-4.649 z-0.400
x35.369 y-4.626 z-0.400
x35.395 y-4.609 z-0.400
x35.432 y-4.585 z-0.400
x35.463 y-4.564 z-0.400
x35.500 y-4.538 z-0.400
x35.550 y-4.501 z-0.400
x35.585 y-4.473 z-0.400
x35.609 y-4.453 z-0.400
x35.643 y-4.424 z-0.400
x35.690 y-4.381 z-0.400
x35.722 y-4.350 z-0.400
x35.744 y-4.328 z-0.400
x35.775 y-4.296 z-0.400
x35.807 y-4.262 z-0.400
x35.837 y-4.228 z-0.400
x35.859 y-4.202 z-0.400
x35.887 y-4.168 z-0.400
x35.926 y-4.117 z-0.400
x35.952 y-4.081 z-0.400
x35.976 y-4.046 z-0.400
x36.001 y-4.008 z-0.400
x36.011 y-3.992 z-0.400
x36.059 y-3.916 z-0.400
x36.070 y-3.894 z-0.400
x36.091 y-3.855 z-0.400
x36.105 y-3.828 z-0.400
x36.125 y-3.788 z-0.400
x36.147 y-3.743 z-0.400
x36.165 y-3.702 z-0.400
x36.183 y-3.656 z-0.400
x36.199 y-3.614 z-0.400
x36.214 y-3.574 z-0.400
x36.228 y-3.532 z-0.400
x36.242 y-3.485 z-0.400
x36.254 y-3.442 z-0.400
x36.266 y-3.395 z-0.400
x36.276 y-3.351 z-0.400
x36.285 y-3.308 z-0.400
x36.297 y-3.242 z-0.400
x36.304 y-3.198 z-0.400
x36.310 y-3.154 z-0.400
x36.312 y-3.130 z-0.400
x36.316 y-3.085 z-0.400
x36.318 y-3.064 z-0.400
x36.321 y-3.020 z-0.400
x36.323 y-2.975 z-0.400
x36.323 y-2.907 z-0.400
x36.322 y-2.863 z-0.400
x36.320 y-2.818 z-0.400
x36.319 y-2.794 z-0.400
x36.316 y-2.750 z-0.400
x36.309 y-2.686 z-0.400
x36.303 y-2.641 z-0.400
x36.296 y-2.594 z-0.400
x36.288 y-2.550 z-0.400
x36.283 y-2.524 z-0.400
x36.274 y-2.481 z-0.400
x36.260 y-2.423 z-0.400
x36.248 y-2.379 z-0.400
x36.238 y-2.346 z-0.400
x36.225 y-2.304 z-0.400
x36.212 y-2.264 z-0.400
x36.197 y-2.222 z-0.400
x36.174 y-2.164 z-0.400
x36.156 y-2.122 z-0.400
x36.140 y-2.087 z-0.400
x36.121 y-2.047 z-0.400
x36.072 y-1.949 z-0.400
x36.054 y-1.918 z-0.400
x36.031 y-1.880 z-0.400
x36.020 y-1.864 z-0.400
x35.996 y-1.826 z-0.400
x35.962 y-1.775 z-0.400
x35.936 y-1.739 z-0.400
x35.914 y-1.710 z-0.400
x35.886 y-1.674 z-0.400
x35.858 y-1.639 z-0.400
x35.829 y-1.605 z-0.400
x35.793 y-1.565 z-0.400
x35.755 y-1.525 z-0.400
x35.599 y-1.369 z-0.400
x35.567 y-1.338 z-0.400
x35.520 y-1.295 z-0.400
x35.486 y-1.266 z-0.400
x35.462 y-1.246 z-0.400
x35.427 y-1.218 z-0.400
x35.402 y-1.199 z-0.400
x35.366 y-1.172 z-0.400
x35.330 y-1.146 z-0.400
x35.310 y-1.133 z-0.400
x35.273 y-1.109 z-0.400
x35.237 y-1.087 z-0.400
x35.198 y-1.064 z-0.400
x35.181 y-1.054 z-0.400
x35.142 y-1.032 z-0.400
x35.103 y-1.011 z-0.400
x35.080 y-1.000 z-0.400
x35.040 y-0.981 z-0.400
x35.013 y-0.968 z-0.400
x34.972 y-0.950 z-0.400
x34.931 y-0.933 z-0.400
x34.906 y-0.924 z-0.400
x34.864 y-0.909 z-0.400
x34.838 y-0.900 z-0.400
x34.795 y-0.886 z-0.400
x34.754 y-0.874 z-0.400
x34.711 y-0.862 z-0.400
x34.669 y-0.851 z-0.400
x34.626 y-0.841 z-0.400
x34.578 y-0.831 z-0.400
x34.534 y-0.823 z-0.400
x34.487 y-0.816 z-0.400
x34.442 y-0.810 z-0.400
x34.423 y-0.807 z-0.400
x34.379 y-0.802 z-0.400
x34.334 y-0.798 z-0.400
x34.310 y-0.797 z-0.400
x34.265 y-0.795 z-0.400
x34.221 y-0.794 z-0.400
x28.938 y-0.794 z-0.400
x28.893 y-0.795 z-0.400
x28.847 y-0.797 z-0.400
x28.803 y-0.800 z-0.400
x28.761 y-0.804 z-0.400
x28.716 y-0.809 z-0.400
x28.669 y-0.815 z-0.400
x28.625 y-0.822 z-0.400
x28.582 y-0.830 z-0.400
x28.538 y-0.839 z-0.400
x28.490 y-0.850 z-0.400
x28.447 y-0.861 z-0.400
x28.406 y-0.873 z-0.400
x28.363 y-0.886 z-0.400
x28.336 y-0.894 z-0.400
x28.294 y-0.908 z-0.400
x28.235 y-0.930 z-0.400
x28.193 y-0.947 z-0.400
x28.158 y-0.962 z-0.400
x28.118 y-0.980 z-0.400
x28.063 y-1.007 z-0.400
x28.023 y-1.028 z-0.400
x27.997 y-1.042 z-0.400
x27.958 y-1.064 z-0.400
x27.931 y-1.079 z-0.400
x27.893 y-1.102 z-0.400
x27.855 y-1.127 z-0.400
x27.836 y-1.140 z-0.400
x27.799 y-1.166 z-0.400
x27.774 y-1.184 z-0.400
x27.738 y-1.211 z-0.400
x27.702 y-1.239 z-0.400
x27.668 y-1.267 z-0.400
x27.631 y-1.299 z-0.400
x27.598 y-1.329 z-0.400
x27.564 y-1.362 z-0.400
x27.532 y-1.394 z-0.400
x27.499 y-1.428 z-0.400
x27.469 y-1.461 z-0.400
x27.448 y-1.485 z-0.400
x27.419 y-1.519 z-0.400
x27.380 y-1.568 z-0.400
x27.353 y-1.604 z-0.400
x27.342 y-1.619 z-0.400
x27.316 y-1.655 z-0.400
x27.282 y-1.706 z-0.400
x27.258 y-1.744 z-0.400
x27.232 y-1.787 z-0.400
x27.210 y-1.826 z-0.400
x27.187 y-1.870 z-0.400
x27.158 y-1.928 z-0.400
x27.139 y-1.968 z-0.400
x27.115 y-2.022 z-0.400
x27.098 y-2.064 z-0.400
x27.083 y-2.103 z-0.400
x27.068 y-2.145 z-0.400
x27.053 y-2.192 z-0.400
x27.040 y-2.235 z-0.400
x27.028 y-2.276 z-0.400
x27.017 y-2.319 z-0.400
x27.006 y-2.367 z-0.400
x26.997 y-2.411 z-0.400
x26.989 y-2.454 z-0.400
x26.982 y-2.498 z-0.400
x26.976 y-2.542 z-0.400
x26.971 y-2.586 z-0.400
x26.969 y-2.610 z-0.400
x26.965 y-2.655 z-0.400
x26.961 y-2.721 z-0.400
x26.960 y-2.765 z-0.400
x26.960 y-2.810 z-0.400
x26.961 y-2.855 z-0.400
x26.963 y-2.900 z-0.400
x26.966 y-2.945 z-0.400
x26.968 y-2.969 z-0.400
x26.972 y-3.013 z-0.400
x26.980 y-3.076 z-0.400
x26.987 y-3.121 z-0.400
x26.996 y-3.172 z-0.400
x27.005 y-3.215 z-0.400
x27.009 y-3.232 z-0.400
x27.019 y-3.276 z-0.400
x27.030 y-3.319 z-0.400
x27.037 y-3.343 z-0.400
x27.050 y-3.386 z-0.400
x27.058 y-3.413 z-0.400
x27.072 y-3.455 z-0.400
x27.094 y-3.514 z-0.400
x27.111 y-3.556 z-0.400
x27.126 y-3.591 z-0.400
x27.144 y-3.631 z-0.400
x27.162 y-3.668 z-0.400
x27.182 y-3.708 z-0.400
x27.200 y-3.743 z-0.400
x27.222 y-3.783 z-0.400
x27.242 y-3.819 z-0.400
x27.265 y-3.857 z-0.400
x27.292 y-3.899 z-0.400
x27.317 y-3.936 z-0.400
x27.354 y-3.987 z-0.400
x27.381 y-4.022 z-0.400
x27.403 y-4.049 z-0.400
x27.432 y-4.084 z-0.400
x27.462 y-4.119 z-0.400
x27.492 y-4.152 z-0.400
x27.514 y-4.175 z-0.400
x27.545 y-4.207 z-0.400
x27.590 y-4.251 z-0.400
x27.623 y-4.281 z-0.400
x27.647 y-4.302 z-0.400
x27.681 y-4.331 z-0.400
x27.705 y-4.351 z-0.400
x27.740 y-4.379 z-0.400
x27.790 y-4.416 z-0.400
x27.827 y-4.442 z-0.400
x27.858 y-4.463 z-0.400
x27.895 y-4.487 z-0.400
x27.948 y-4.519 z-0.400
x27.987 y-4.541 z-0.400
x28.013 y-4.555 z-0.400
x28.053 y-4.576 z-0.400
x28.089 y-4.594 z-0.400
x28.129 y-4.613 z-0.400
x28.175 y-4.634 z-0.400
x28.216 y-4.651 z-0.400
x28.270 y-4.671 z-0.400
x28.313 y-4.686 z-0.400
x28.346 y-4.697 z-0.400
x28.388 y-4.710 z-0.400
x28.421 y-4.720 z-0.400
x28.465 y-4.732 z-0.400
x28.523 y-4.746 z-0.400
x28.566 y-4.755 z-0.400
x28.614 y-4.764 z-0.400
x28.658 y-4.771 z-0.400
x28.683 y-4.774 z-0.400
x28.728 y-4.780 z-0.400
x28.792 y-4.787 z-0.400
x28.836 y-4.790 z-0.400
x28.868 y-4.791 z-0.400
x28.924 y-4.793 z-0.400
x28.960 y-4.794 z-0.400
x33.621 y-4.794 z-0.400
x33.655 y-4.806 z-0.400
x33.681 y-4.815 z-0.400
x33.724 y-4.829 z-0.400
x33.765 y-4.841 z-0.400
x33.808 y-4.853 z-0.400
x33.850 y-4.864 z-0.400
x33.893 y-4.874 z-0.400
x33.941 y-4.884 z-0.400
x33.985 y-4.892 z-0.400
x34.032 y-4.899 z-0.400
x34.077 y-4.905 z-0.400
x34.096 y-4.908 z-0.400
x34.140 y-4.913 z-0.400
x34.185 y-4.917 z-0.400
x34.209 y-4.918 z-0.400
x34.254 y-4.920 z-0.400
x34.298 y-4.921 z-0.400
x34.343 y-4.921 z-0.400
x34.388 y-4.920 z-0.400
x34.432 y-4.918 z-0.400
x34.476 y-4.915 z-0.400
x34.521 y-4.911 z-0.400

( Lift to 5.000 )
F2000 z5.000

( Program end, back to origin )
G90 F2000 z5.000

( Spindle off )
M5
F2000 x0.000 y0.000 z5.000
