( Created by GrblGru )
( 25.10.2023 16:08:24 )



( Additional commands from settings )
G1 F200 Z25
G4 P2

( Job: Solder Tracks  -> None 3.175mm )
( ------------------------------- )

( Job mode = 0, CUT )
( Type of tool = 0, SPINDLE )

( TransformationTyp = NONE )
( Plano de segurança = 5 )
( Soma da profundidade = 0.1 )
( Profundidade por passo = 0.1 )
( #jobdivingramp = 0 )
( Tamanho de partição = 2 )
( Avanço de corte = 500 )
( Avanço rápido = 2000 )
( Avanço de mergulho = 500 )
( Tool = Endmill 2mm )
( Tool diameter = 2 )



G1 G90 F100

( Trajeto da ferramenta )
( ------------------------- )

( Spindle on )
M3
S500

( Current depth = -0.100 )

( MoveToStartpoint2 )
F2000 G90 z5.000
F2000 x9.405 y-3.408 z5.000
F2000 x9.405 y-3.408 z0.000

( Loop )
G90 F500
x9.405 y-3.408 z-0.100
F500
x9.436 y-3.403 z-0.100
x9.467 y-3.396 z-0.100
x9.497 y-3.387 z-0.100
x9.527 y-3.376 z-0.100
x9.556 y-3.364 z-0.100
x9.584 y-3.349 z-0.100
x9.611 y-3.333 z-0.100
x9.638 y-3.315 z-0.100
x9.662 y-3.296 z-0.100
x9.696 y-3.266 z-0.100
x9.814 y-3.148 z-0.100
x9.835 y-3.124 z-0.100
x9.855 y-3.100 z-0.100
x9.874 y-3.075 z-0.100
x9.891 y-3.048 z-0.100
x9.906 y-3.020 z-0.100
x9.919 y-2.991 z-0.100
x9.931 y-2.962 z-0.100
x9.941 y-2.932 z-0.100
x9.948 y-2.901 z-0.100
x9.954 y-2.870 z-0.100
x9.958 y-2.839 z-0.100
x9.960 y-2.807 z-0.100
x9.960 y-2.776 z-0.100
x9.957 y-2.744 z-0.100
x9.953 y-2.713 z-0.100
x9.947 y-2.682 z-0.100
x9.939 y-2.651 z-0.100
x9.929 y-2.621 z-0.100
x9.917 y-2.592 z-0.100
x9.904 y-2.563 z-0.100
x9.888 y-2.536 z-0.100
x9.871 y-2.509 z-0.100
x9.852 y-2.484 z-0.100
x9.832 y-2.460 z-0.100
x9.810 y-2.437 z-0.100
x9.787 y-2.415 z-0.100
x9.762 y-2.396 z-0.100
x9.736 y-2.377 z-0.100
x9.709 y-2.361 z-0.100
x9.681 y-2.346 z-0.100
x9.653 y-2.333 z-0.100
x9.623 y-2.321 z-0.100
x9.593 y-2.312 z-0.100
x9.562 y-2.305 z-0.100
x9.531 y-2.299 z-0.100
x9.500 y-2.296 z-0.100
x9.468 y-2.294 z-0.100
x9.436 y-2.295 z-0.100
x9.405 y-2.297 z-0.100
x9.374 y-2.302 z-0.100
x9.343 y-2.308 z-0.100
x9.312 y-2.316 z-0.100
x9.282 y-2.327 z-0.100
x9.253 y-2.339 z-0.100
x9.225 y-2.353 z-0.100
x9.197 y-2.369 z-0.100
x9.171 y-2.386 z-0.100
x9.146 y-2.405 z-0.100
x9.138 y-2.412 z-0.100
x2.954 y-2.412 z-0.100
x2.922 y-2.413 z-0.100
x2.891 y-2.416 z-0.100
x2.860 y-2.421 z-0.100
x2.829 y-2.428 z-0.100
x2.799 y-2.437 z-0.100
x2.769 y-2.448 z-0.100
x2.740 y-2.460 z-0.100
x2.712 y-2.475 z-0.100
x2.685 y-2.491 z-0.100
x2.658 y-2.509 z-0.100
x2.634 y-2.528 z-0.100
x2.610 y-2.549 z-0.100
x2.588 y-2.572 z-0.100
x2.567 y-2.596 z-0.100
x2.548 y-2.621 z-0.100
x2.530 y-2.647 z-0.100
x2.514 y-2.674 z-0.100
x2.500 y-2.703 z-0.100
x2.488 y-2.732 z-0.100
x2.477 y-2.761 z-0.100
x2.469 y-2.792 z-0.100
x2.462 y-2.823 z-0.100
x2.457 y-2.854 z-0.100
x2.455 y-2.886 z-0.100
x2.454 y-2.917 z-0.100
x2.455 y-2.949 z-0.100
x2.459 y-2.980 z-0.100
x2.464 y-3.011 z-0.100
x2.471 y-3.042 z-0.100
x2.480 y-3.072 z-0.100
x2.492 y-3.102 z-0.100
x2.504 y-3.131 z-0.100
x2.519 y-3.159 z-0.100
x2.536 y-3.186 z-0.100
x2.554 y-3.212 z-0.100
x2.574 y-3.236 z-0.100
x2.595 y-3.260 z-0.100
x2.618 y-3.282 z-0.100
x2.642 y-3.302 z-0.100
x2.667 y-3.321 z-0.100
x2.693 y-3.339 z-0.100
x2.721 y-3.354 z-0.100
x2.749 y-3.368 z-0.100
x2.778 y-3.380 z-0.100
x2.808 y-3.390 z-0.100
x2.839 y-3.399 z-0.100
x2.870 y-3.405 z-0.100
x2.901 y-3.409 z-0.100
x2.933 y-3.412 z-0.100
x9.342 y-3.412 z-0.100
x9.374 y-3.411 z-0.100
x9.405 y-3.408 z-0.100

( Lift to 5.000 )
F2000 z5.000

( Trajeto da ferramenta 5 )
( ------------------------- )

( Spindle on )
M3
S500

( Current depth = -0.100 )

( MoveToStartpoint2 )
F2000 G90 z5.000
F2000 x31.975 y-5.967 z5.000
F2000 x31.975 y-5.967 z0.000

( Loop )
G90 F500
x31.975 y-5.967 z-0.100
F500
x32.006 y-5.962 z-0.100
x32.010 y-5.961 z-0.100
x34.323 y-5.961 z-0.100
x34.355 y-5.960 z-0.100
x34.386 y-5.957 z-0.100
x34.417 y-5.952 z-0.100
x34.448 y-5.945 z-0.100
x34.478 y-5.936 z-0.100
x34.508 y-5.925 z-0.100
x34.537 y-5.913 z-0.100
x34.565 y-5.898 z-0.100
x34.592 y-5.882 z-0.100
x34.619 y-5.864 z-0.100
x34.643 y-5.845 z-0.100
x34.667 y-5.824 z-0.100
x34.689 y-5.801 z-0.100
x34.710 y-5.777 z-0.100
x34.729 y-5.752 z-0.100
x34.747 y-5.726 z-0.100
x34.763 y-5.699 z-0.100
x34.777 y-5.670 z-0.100
x34.789 y-5.641 z-0.100
x34.800 y-5.612 z-0.100
x34.808 y-5.581 z-0.100
x34.815 y-5.550 z-0.100
x34.820 y-5.519 z-0.100
x34.822 y-5.487 z-0.100
x34.823 y-5.456 z-0.100
x34.822 y-5.424 z-0.100
x34.818 y-5.393 z-0.100
x34.813 y-5.362 z-0.100
x34.806 y-5.331 z-0.100
x34.797 y-5.301 z-0.100
x34.785 y-5.271 z-0.100
x34.773 y-5.242 z-0.100
x34.758 y-5.214 z-0.100
x34.741 y-5.187 z-0.100
x34.723 y-5.161 z-0.100
x34.703 y-5.137 z-0.100
x34.682 y-5.113 z-0.100
x34.659 y-5.091 z-0.100
x34.635 y-5.071 z-0.100
x34.610 y-5.052 z-0.100
x34.584 y-5.034 z-0.100
x34.556 y-5.019 z-0.100
x34.528 y-5.005 z-0.100
x34.499 y-4.993 z-0.100
x34.469 y-4.983 z-0.100
x34.438 y-4.974 z-0.100
x34.407 y-4.968 z-0.100
x34.376 y-4.964 z-0.100
x34.344 y-4.961 z-0.100
x31.922 y-4.961 z-0.100
x31.890 y-4.962 z-0.100
x31.859 y-4.965 z-0.100
x31.828 y-4.970 z-0.100
x31.824 y-4.971 z-0.100
x2.954 y-4.971 z-0.100
x2.922 y-4.972 z-0.100
x2.891 y-4.975 z-0.100
x2.860 y-4.980 z-0.100
x2.829 y-4.987 z-0.100
x2.799 y-4.996 z-0.100
x2.769 y-5.007 z-0.100
x2.740 y-5.019 z-0.100
x2.712 y-5.034 z-0.100
x2.685 y-5.050 z-0.100
x2.658 y-5.068 z-0.100
x2.634 y-5.087 z-0.100
x2.610 y-5.108 z-0.100
x2.588 y-5.131 z-0.100
x2.567 y-5.155 z-0.100
x2.548 y-5.180 z-0.100
x2.530 y-5.206 z-0.100
x2.514 y-5.233 z-0.100
x2.500 y-5.262 z-0.100
x2.488 y-5.291 z-0.100
x2.477 y-5.320 z-0.100
x2.469 y-5.351 z-0.100
x2.462 y-5.382 z-0.100
x2.457 y-5.413 z-0.100
x2.455 y-5.445 z-0.100
x2.454 y-5.476 z-0.100
x2.455 y-5.508 z-0.100
x2.459 y-5.539 z-0.100
x2.464 y-5.570 z-0.100
x2.471 y-5.601 z-0.100
x2.480 y-5.631 z-0.100
x2.492 y-5.661 z-0.100
x2.504 y-5.690 z-0.100
x2.519 y-5.718 z-0.100
x2.536 y-5.745 z-0.100
x2.554 y-5.771 z-0.100
x2.574 y-5.795 z-0.100
x2.595 y-5.819 z-0.100
x2.618 y-5.841 z-0.100
x2.642 y-5.861 z-0.100
x2.667 y-5.880 z-0.100
x2.693 y-5.898 z-0.100
x2.721 y-5.913 z-0.100
x2.749 y-5.927 z-0.100
x2.778 y-5.939 z-0.100
x2.808 y-5.949 z-0.100
x2.839 y-5.958 z-0.100
x2.870 y-5.964 z-0.100
x2.901 y-5.968 z-0.100
x2.933 y-5.971 z-0.100
x31.912 y-5.971 z-0.100
x31.944 y-5.970 z-0.100
x31.975 y-5.967 z-0.100

( Lift to 5.000 )
F2000 z5.000

( Trajeto da ferramenta 0 )
( ------------------------- )

( Spindle on )
M3
S500

( Current depth = -0.100 )

( MoveToStartpoint2 )
F2000 G90 z5.000
F2000 x34.404 y-3.414 z5.000
F2000 x34.404 y-3.414 z0.000

( Loop )
G90 F500
x34.404 y-3.414 z-0.100
F500
x34.435 y-3.408 z-0.100
x34.466 y-3.400 z-0.100
x34.496 y-3.390 z-0.100
x34.525 y-3.378 z-0.100
x34.554 y-3.365 z-0.100
x34.581 y-3.349 z-0.100
x34.608 y-3.332 z-0.100
x34.633 y-3.313 z-0.100
x34.657 y-3.293 z-0.100
x34.680 y-3.271 z-0.100
x34.702 y-3.248 z-0.100
x34.721 y-3.223 z-0.100
x34.740 y-3.197 z-0.100
x34.756 y-3.170 z-0.100
x34.771 y-3.142 z-0.100
x34.784 y-3.114 z-0.100
x34.796 y-3.084 z-0.100
x34.805 y-3.054 z-0.100
x34.812 y-3.023 z-0.100
x34.818 y-2.992 z-0.100
x34.821 y-2.961 z-0.100
x34.823 y-2.929 z-0.100
x34.822 y-2.897 z-0.100
x34.820 y-2.866 z-0.100
x34.815 y-2.835 z-0.100
x34.809 y-2.804 z-0.100
x34.801 y-2.773 z-0.100
x34.790 y-2.743 z-0.100
x34.778 y-2.714 z-0.100
x34.764 y-2.686 z-0.100
x34.748 y-2.658 z-0.100
x34.731 y-2.632 z-0.100
x34.712 y-2.607 z-0.100
x34.677 y-2.567 z-0.100
x34.550 y-2.440 z-0.100
x34.526 y-2.419 z-0.100
x34.502 y-2.399 z-0.100
x34.477 y-2.380 z-0.100
x34.450 y-2.363 z-0.100
x34.422 y-2.348 z-0.100
x34.393 y-2.335 z-0.100
x34.364 y-2.323 z-0.100
x34.334 y-2.313 z-0.100
x34.303 y-2.306 z-0.100
x34.272 y-2.300 z-0.100
x34.241 y-2.296 z-0.100
x34.196 y-2.294 z-0.100
x28.960 y-2.294 z-0.100
x28.928 y-2.295 z-0.100
x28.897 y-2.298 z-0.100
x28.866 y-2.303 z-0.100
x28.835 y-2.310 z-0.100
x28.805 y-2.319 z-0.100
x28.775 y-2.330 z-0.100
x28.746 y-2.342 z-0.100
x28.718 y-2.357 z-0.100
x28.691 y-2.373 z-0.100
x28.664 y-2.391 z-0.100
x28.640 y-2.410 z-0.100
x28.616 y-2.431 z-0.100
x28.594 y-2.454 z-0.100
x28.573 y-2.478 z-0.100
x28.554 y-2.503 z-0.100
x28.536 y-2.529 z-0.100
x28.520 y-2.556 z-0.100
x28.506 y-2.585 z-0.100
x28.494 y-2.614 z-0.100
x28.483 y-2.643 z-0.100
x28.475 y-2.674 z-0.100
x28.468 y-2.705 z-0.100
x28.463 y-2.736 z-0.100
x28.461 y-2.768 z-0.100
x28.460 y-2.799 z-0.100
x28.461 y-2.831 z-0.100
x28.465 y-2.862 z-0.100
x28.470 y-2.893 z-0.100
x28.477 y-2.924 z-0.100
x28.486 y-2.954 z-0.100
x28.498 y-2.984 z-0.100
x28.510 y-3.013 z-0.100
x28.525 y-3.041 z-0.100
x28.542 y-3.068 z-0.100
x28.560 y-3.094 z-0.100
x28.580 y-3.118 z-0.100
x28.601 y-3.142 z-0.100
x28.624 y-3.164 z-0.100
x28.648 y-3.184 z-0.100
x28.673 y-3.203 z-0.100
x28.699 y-3.221 z-0.100
x28.727 y-3.236 z-0.100
x28.755 y-3.250 z-0.100
x28.784 y-3.262 z-0.100
x28.814 y-3.272 z-0.100
x28.845 y-3.281 z-0.100
x28.876 y-3.287 z-0.100
x28.907 y-3.291 z-0.100
x28.939 y-3.294 z-0.100
x33.991 y-3.294 z-0.100
x33.993 y-3.296 z-0.100
x34.017 y-3.316 z-0.100
x34.042 y-3.335 z-0.100
x34.069 y-3.352 z-0.100
x34.097 y-3.367 z-0.100
x34.126 y-3.380 z-0.100
x34.155 y-3.392 z-0.100
x34.185 y-3.402 z-0.100
x34.216 y-3.409 z-0.100
x34.247 y-3.415 z-0.100
x34.278 y-3.419 z-0.100
x34.310 y-3.421 z-0.100
x34.341 y-3.421 z-0.100
x34.373 y-3.418 z-0.100
x34.404 y-3.414 z-0.100

( Lift to 5.000 )
F2000 z5.000

( Job: boardoutline  -> None 3.175mm )
( ------------------------------- )

( Job mode = 0, CUT )
( Type of tool = 0, SPINDLE )

( TransformationTyp = NONE )
( Plano de segurança = 5 )
( Soma da profundidade = 1.7 )
( Profundidade por passo = 1.7 )
( #jobdivingramp = 0 )
( #jobtabramp = 0 )
( Tamanho de partição = 2 )
( Avanço de corte = 500 )
( Avanço rápido = 2000 )
( Avanço de mergulho = 500 )
( Tool = Endmill 3.175mm )
( Tool diameter = 3.175 )



G1 G90 F100

( Trajeto da ferramenta 1 )
( ------------------------- )

( Spindle on )
M3
S500

( Current depth = -1.700 )

( MoveToStartpoint2 )
F2000 G90 z5.000
F2000 x0.000 y-6.510 z5.000
F2000 x0.000 y-6.510 z0.000

( Loop )
G90 F500
x0.000 y-6.510 z-1.700
F500
x0.000 y-7.239 z-1.700
x8.889 y-7.239 z-1.700
x8.989 y-7.239 z-0.700
x15.164 y-7.239 z-0.700
F500
x15.264 y-7.239 z-1.700
F500
x20.965 y-7.239 z-1.700
x21.065 y-7.239 z-0.700
x27.240 y-7.239 z-0.700
F500
x27.340 y-7.239 z-1.700
F500
x36.228 y-7.239 z-1.700
x36.228 y0.000 z-1.700
x27.340 y0.000 z-1.700
x27.240 y0.000 z-0.700
x21.065 y0.000 z-0.700
F500
x20.965 y0.000 z-1.700
F500
x15.264 y0.000 z-1.700
x15.164 y0.000 z-0.700
x8.989 y0.000 z-0.700
F500
x8.889 y0.000 z-1.700
F500
x0.000 y0.000 z-1.700
x0.000 y-6.510 z-1.700

( Lift to 5.000 )
F2000 z5.000

( Program end, back to origin )
G90 F2000 z5.000

( Spindle off )
M5
F2000 x0.000 y0.000 z5.000
