( Created by GrblGru )
( 24.11.2023 16:07:43 )



( Additional commands from settings )
G1 F200 Z25
G4 P2

( Job: ???  -> Outside 3.175mm )
( ------------------------------- )

( Job mode = 0, CUT )
( Type of tool = 0, SPINDLE )

( TransformationTyp = NONE )
( Clearance Plane = 5 )
( Sum of depths = 0.5 )
( Depth per path = 0.5 )
( Diving Ramp = 0 )
( Splitting size = 2 )
( Cut Feedrate = 500 )
( Rapid Feedrate = 2000 )
( Plunge Feedrate = 500 )
( Tool = Endmill 3.175mm )
( Tool diameter = 3.175 )



G1 G90 F100

( Path 0 )
( ------------------------- )

( Spindle on )
M3
S500

( Current depth = -0.500 )

( MoveToStartpoint2 )
F2000 G90 z5.000
F2000 x68.683 y-179.093 z5.000
F2000 x68.683 y-179.093 z0.000

( Loop )
G90 F500
x68.683 y-179.093 z-0.500
F500
x68.740 y-179.090 z-0.500
x68.796 y-179.085 z-0.500
x68.852 y-179.078 z-0.500
x68.907 y-179.069 z-0.500
x68.963 y-179.058 z-0.500
x69.017 y-179.045 z-0.500
x69.072 y-179.030 z-0.500
x69.126 y-179.013 z-0.500
x69.179 y-178.995 z-0.500
x69.231 y-178.974 z-0.500
x69.283 y-178.952 z-0.500
x69.334 y-178.927 z-0.500
x69.384 y-178.901 z-0.500
x69.433 y-178.874 z-0.500
x69.481 y-178.844 z-0.500
x69.528 y-178.813 z-0.500
x69.574 y-178.780 z-0.500
x69.618 y-178.746 z-0.500
x69.662 y-178.710 z-0.500
x69.704 y-178.673 z-0.500
x69.744 y-178.634 z-0.500
x69.784 y-178.593 z-0.500
x69.822 y-178.551 z-0.500
x69.858 y-178.508 z-0.500
x69.893 y-178.464 z-0.500
x69.926 y-178.419 z-0.500
x69.958 y-178.372 z-0.500
x69.987 y-178.324 z-0.500
x70.016 y-178.275 z-0.500
x70.042 y-178.226 z-0.500
x70.067 y-178.175 z-0.500
x70.090 y-178.123 z-0.500
x70.111 y-178.071 z-0.500
x70.130 y-178.018 z-0.500
x70.147 y-177.964 z-0.500
x70.162 y-177.910 z-0.500
x70.176 y-177.856 z-0.500
x70.187 y-177.800 z-0.500
x70.196 y-177.745 z-0.500
x70.204 y-177.689 z-0.500
x70.209 y-177.633 z-0.500
x70.213 y-177.577 z-0.500
x70.215 y-177.506 z-0.500
x70.215 y0.000 z-0.500
x70.214 y0.056 z-0.500
x70.211 y0.113 z-0.500
x70.206 y0.169 z-0.500
x70.199 y0.225 z-0.500
x70.190 y0.280 z-0.500
x70.179 y0.336 z-0.500
x70.166 y0.390 z-0.500
x70.151 y0.445 z-0.500
x70.134 y0.499 z-0.500
x70.116 y0.552 z-0.500
x70.095 y0.604 z-0.500
x70.073 y0.656 z-0.500
x70.048 y0.707 z-0.500
x70.022 y0.757 z-0.500
x69.995 y0.806 z-0.500
x69.965 y0.854 z-0.500
x69.934 y0.901 z-0.500
x69.901 y0.947 z-0.500
x69.867 y0.991 z-0.500
x69.831 y1.035 z-0.500
x69.794 y1.077 z-0.500
x69.755 y1.117 z-0.500
x69.714 y1.157 z-0.500
x69.672 y1.195 z-0.500
x69.629 y1.231 z-0.500
x69.585 y1.266 z-0.500
x69.540 y1.299 z-0.500
x69.493 y1.331 z-0.500
x69.445 y1.360 z-0.500
x69.396 y1.389 z-0.500
x69.347 y1.415 z-0.500
x69.296 y1.440 z-0.500
x69.244 y1.463 z-0.500
x69.192 y1.484 z-0.500
x69.139 y1.503 z-0.500
x69.085 y1.520 z-0.500
x69.031 y1.535 z-0.500
x68.977 y1.549 z-0.500
x68.921 y1.560 z-0.500
x68.866 y1.569 z-0.500
x68.810 y1.577 z-0.500
x68.754 y1.582 z-0.500
x68.698 y1.586 z-0.500
x68.627 y1.588 z-0.500
x0.000 y1.588 z-0.500
x-0.056 y1.587 z-0.500
x-0.113 y1.584 z-0.500
x-0.169 y1.579 z-0.500
x-0.225 y1.572 z-0.500
x-0.280 y1.563 z-0.500
x-0.336 y1.552 z-0.500
x-0.390 y1.539 z-0.500
x-0.445 y1.524 z-0.500
x-0.499 y1.507 z-0.500
x-0.552 y1.489 z-0.500
x-0.604 y1.468 z-0.500
x-0.656 y1.446 z-0.500
x-0.707 y1.421 z-0.500
x-0.757 y1.395 z-0.500
x-0.806 y1.368 z-0.500
x-0.854 y1.338 z-0.500
x-0.901 y1.307 z-0.500
x-0.947 y1.274 z-0.500
x-0.991 y1.240 z-0.500
x-1.035 y1.204 z-0.500
x-1.077 y1.167 z-0.500
x-1.117 y1.128 z-0.500
x-1.157 y1.087 z-0.500
x-1.195 y1.045 z-0.500
x-1.231 y1.002 z-0.500
x-1.266 y0.958 z-0.500
x-1.299 y0.913 z-0.500
x-1.331 y0.866 z-0.500
x-1.360 y0.818 z-0.500
x-1.389 y0.769 z-0.500
x-1.415 y0.720 z-0.500
x-1.440 y0.669 z-0.500
x-1.463 y0.617 z-0.500
x-1.484 y0.565 z-0.500
x-1.503 y0.512 z-0.500
x-1.520 y0.458 z-0.500
x-1.535 y0.404 z-0.500
x-1.549 y0.350 z-0.500
x-1.560 y0.294 z-0.500
x-1.569 y0.239 z-0.500
x-1.577 y0.183 z-0.500
x-1.582 y0.127 z-0.500
x-1.586 y0.071 z-0.500
x-1.588 y0.000 z-0.500
x-1.588 y-177.506 z-0.500
x-1.587 y-177.562 z-0.500
x-1.584 y-177.619 z-0.500
x-1.579 y-177.675 z-0.500
x-1.572 y-177.731 z-0.500
x-1.563 y-177.786 z-0.500
x-1.552 y-177.842 z-0.500
x-1.539 y-177.896 z-0.500
x-1.524 y-177.951 z-0.500
x-1.507 y-178.005 z-0.500
x-1.489 y-178.058 z-0.500
x-1.468 y-178.110 z-0.500
x-1.446 y-178.162 z-0.500
x-1.421 y-178.213 z-0.500
x-1.395 y-178.263 z-0.500
x-1.368 y-178.312 z-0.500
x-1.338 y-178.360 z-0.500
x-1.307 y-178.407 z-0.500
x-1.274 y-178.453 z-0.500
x-1.240 y-178.497 z-0.500
x-1.204 y-178.541 z-0.500
x-1.167 y-178.583 z-0.500
x-1.128 y-178.623 z-0.500
x-1.087 y-178.663 z-0.500
x-1.045 y-178.701 z-0.500
x-1.002 y-178.737 z-0.500
x-0.958 y-178.772 z-0.500
x-0.913 y-178.805 z-0.500
x-0.866 y-178.837 z-0.500
x-0.818 y-178.866 z-0.500
x-0.769 y-178.895 z-0.500
x-0.720 y-178.921 z-0.500
x-0.669 y-178.946 z-0.500
x-0.617 y-178.969 z-0.500
x-0.565 y-178.990 z-0.500
x-0.512 y-179.009 z-0.500
x-0.458 y-179.026 z-0.500
x-0.404 y-179.041 z-0.500
x-0.350 y-179.055 z-0.500
x-0.294 y-179.066 z-0.500
x-0.239 y-179.075 z-0.500
x-0.183 y-179.083 z-0.500
x-0.127 y-179.088 z-0.500
x-0.071 y-179.092 z-0.500
x0.000 y-179.094 z-0.500
x68.627 y-179.094 z-0.500
x68.683 y-179.093 z-0.500

( Lift to 5.000 )
F2000 z5.000

( Path 1 )
( ------------------------- )

( Spindle on )
M3
S500

( Current depth = -0.500 )

( MoveToStartpoint2 )
F2000 G90 z5.000
F2000 x23.531 y-156.258 z5.000
F2000 x23.531 y-156.258 z0.000

( Loop )
G90 F500
x23.531 y-156.258 z-0.500
F500
x23.570 y-156.298 z-0.500
x23.600 y-156.328 z-0.500
x23.642 y-156.366 z-0.500
x23.684 y-156.403 z-0.500
x23.728 y-156.438 z-0.500
x23.774 y-156.472 z-0.500
x23.776 y-156.473 z-0.500
x23.785 y-156.480 z-0.500
x23.832 y-156.512 z-0.500
x23.880 y-156.541 z-0.500
x23.916 y-156.563 z-0.500
x23.929 y-156.570 z-0.500
x23.978 y-156.596 z-0.500
x24.016 y-156.615 z-0.500
x24.067 y-156.638 z-0.500
x24.072 y-156.640 z-0.500
x24.081 y-156.644 z-0.500
x24.133 y-156.665 z-0.500
x24.186 y-156.684 z-0.500
x24.204 y-156.690 z-0.500
x24.226 y-156.697 z-0.500
x24.240 y-156.701 z-0.500
x24.294 y-156.716 z-0.500
x24.348 y-156.730 z-0.500
x24.404 y-156.741 z-0.500
x24.429 y-156.745 z-0.500
x24.445 y-156.748 z-0.500
x24.515 y-156.758 z-0.500
x24.543 y-156.761 z-0.500
x24.627 y-156.767 z-0.500
x24.698 y-156.769 z-0.500
x26.617 y-156.769 z-0.500
x26.673 y-156.768 z-0.500
x26.730 y-156.765 z-0.500
x26.786 y-156.760 z-0.500
x26.842 y-156.753 z-0.500
x26.897 y-156.744 z-0.500
x26.953 y-156.733 z-0.500
x27.007 y-156.720 z-0.500
x27.062 y-156.705 z-0.500
x27.116 y-156.688 z-0.500
x27.169 y-156.670 z-0.500
x27.221 y-156.649 z-0.500
x27.273 y-156.627 z-0.500
x27.324 y-156.602 z-0.500
x27.374 y-156.576 z-0.500
x27.423 y-156.549 z-0.500
x27.471 y-156.519 z-0.500
x27.518 y-156.488 z-0.500
x27.564 y-156.455 z-0.500
x27.608 y-156.421 z-0.500
x27.652 y-156.385 z-0.500
x27.694 y-156.348 z-0.500
x27.734 y-156.309 z-0.500
x27.774 y-156.268 z-0.500
x27.812 y-156.226 z-0.500
x27.848 y-156.183 z-0.500
x27.883 y-156.139 z-0.500
x27.916 y-156.094 z-0.500
x27.948 y-156.047 z-0.500
x27.977 y-155.999 z-0.500
x28.006 y-155.950 z-0.500
x28.032 y-155.901 z-0.500
x28.057 y-155.850 z-0.500
x28.080 y-155.798 z-0.500
x28.101 y-155.746 z-0.500
x28.120 y-155.693 z-0.500
x28.137 y-155.639 z-0.500
x28.152 y-155.585 z-0.500
x28.166 y-155.531 z-0.500
x28.177 y-155.475 z-0.500
x28.186 y-155.420 z-0.500
x28.194 y-155.364 z-0.500
x28.199 y-155.308 z-0.500
x28.203 y-155.252 z-0.500
x28.205 y-155.181 z-0.500
x28.205 y-145.111 z-0.500
x28.204 y-145.055 z-0.500
x28.201 y-144.998 z-0.500
x28.196 y-144.942 z-0.500
x28.189 y-144.886 z-0.500
x28.180 y-144.831 z-0.500
x28.169 y-144.775 z-0.500
x28.156 y-144.721 z-0.500
x28.141 y-144.666 z-0.500
x28.124 y-144.612 z-0.500
x28.106 y-144.559 z-0.500
x28.085 y-144.507 z-0.500
x28.063 y-144.455 z-0.500
x28.038 y-144.404 z-0.500
x28.012 y-144.354 z-0.500
x27.985 y-144.305 z-0.500
x27.955 y-144.257 z-0.500
x27.924 y-144.210 z-0.500
x27.891 y-144.164 z-0.500
x27.857 y-144.120 z-0.500
x27.821 y-144.076 z-0.500
x27.784 y-144.034 z-0.500
x27.745 y-143.994 z-0.500
x27.704 y-143.954 z-0.500
x27.662 y-143.916 z-0.500
x27.619 y-143.880 z-0.500
x27.575 y-143.845 z-0.500
x27.530 y-143.812 z-0.500
x27.483 y-143.780 z-0.500
x27.435 y-143.751 z-0.500
x27.386 y-143.722 z-0.500
x27.337 y-143.696 z-0.500
x27.286 y-143.671 z-0.500
x27.234 y-143.648 z-0.500
x27.182 y-143.627 z-0.500
x27.129 y-143.608 z-0.500
x27.075 y-143.591 z-0.500
x27.021 y-143.576 z-0.500
x26.967 y-143.562 z-0.500
x26.911 y-143.551 z-0.500
x26.856 y-143.542 z-0.500
x26.800 y-143.534 z-0.500
x26.744 y-143.529 z-0.500
x26.688 y-143.525 z-0.500
x26.617 y-143.524 z-0.500
x24.642 y-143.524 z-0.500
x24.585 y-143.527 z-0.500
x24.529 y-143.532 z-0.500
x24.473 y-143.539 z-0.500
x24.418 y-143.548 z-0.500
x24.362 y-143.559 z-0.500
x24.308 y-143.572 z-0.500
x24.253 y-143.587 z-0.500
x24.199 y-143.604 z-0.500
x24.146 y-143.622 z-0.500
x24.094 y-143.643 z-0.500
x24.042 y-143.665 z-0.500
x23.991 y-143.690 z-0.500
x23.941 y-143.716 z-0.500
x23.892 y-143.743 z-0.500
x23.844 y-143.773 z-0.500
x23.797 y-143.804 z-0.500
x23.751 y-143.837 z-0.500
x23.707 y-143.871 z-0.500
x23.663 y-143.907 z-0.500
x23.621 y-143.944 z-0.500
x23.581 y-143.983 z-0.500
x23.541 y-144.024 z-0.500
x23.503 y-144.066 z-0.500
x23.467 y-144.109 z-0.500
x23.432 y-144.153 z-0.500
x23.399 y-144.198 z-0.500
x23.367 y-144.245 z-0.500
x23.338 y-144.293 z-0.500
x23.309 y-144.342 z-0.500
x23.283 y-144.391 z-0.500
x23.258 y-144.442 z-0.500
x23.235 y-144.494 z-0.500
x23.214 y-144.546 z-0.500
x23.195 y-144.599 z-0.500
x23.178 y-144.653 z-0.500
x23.163 y-144.707 z-0.500
x23.149 y-144.761 z-0.500
x23.138 y-144.817 z-0.500
x23.129 y-144.872 z-0.500
x23.121 y-144.928 z-0.500
x23.116 y-144.984 z-0.500
x23.112 y-145.040 z-0.500
x23.111 y-145.111 z-0.500
x23.111 y-155.237 z-0.500
x23.114 y-155.294 z-0.500
x23.119 y-155.350 z-0.500
x23.126 y-155.406 z-0.500
x23.135 y-155.461 z-0.500
x23.146 y-155.517 z-0.500
x23.159 y-155.571 z-0.500
x23.174 y-155.626 z-0.500
x23.178 y-155.639 z-0.500
x23.186 y-155.666 z-0.500
x23.191 y-155.680 z-0.500
x23.209 y-155.733 z-0.500
x23.230 y-155.785 z-0.500
x23.235 y-155.798 z-0.500
x23.246 y-155.824 z-0.500
x23.270 y-155.875 z-0.500
x23.296 y-155.925 z-0.500
x23.323 y-155.974 z-0.500
x23.330 y-155.987 z-0.500
x23.343 y-156.008 z-0.500
x23.352 y-156.023 z-0.500
x23.383 y-156.070 z-0.500
x23.415 y-156.116 z-0.500
x23.449 y-156.161 z-0.500
x23.494 y-156.216 z-0.500
x23.531 y-156.258 z-0.500

( Lift to 5.000 )
F2000 z5.000

( Path 10 )
( ------------------------- )

( Spindle on )
M3
S500

( Current depth = -0.500 )

( MoveToStartpoint2 )
F2000 G90 z5.000
F2000 x26.795 y-20.745 z5.000
F2000 x26.795 y-20.745 z0.000

( Loop )
G90 F500
x26.795 y-20.745 z-0.500
F500
x26.711 y-20.739 z-0.500
x26.688 y-20.739 z-0.500
x26.669 y-20.738 z-0.500
x24.664 y-20.738 z-0.500
x24.607 y-20.741 z-0.500
x24.551 y-20.746 z-0.500
x24.495 y-20.753 z-0.500
x24.440 y-20.762 z-0.500
x24.384 y-20.773 z-0.500
x24.330 y-20.786 z-0.500
x24.275 y-20.801 z-0.500
x24.221 y-20.818 z-0.500
x24.168 y-20.836 z-0.500
x24.116 y-20.857 z-0.500
x24.064 y-20.879 z-0.500
x24.013 y-20.904 z-0.500
x23.963 y-20.930 z-0.500
x23.914 y-20.957 z-0.500
x23.866 y-20.987 z-0.500
x23.819 y-21.018 z-0.500
x23.773 y-21.051 z-0.500
x23.729 y-21.085 z-0.500
x23.685 y-21.121 z-0.500
x23.643 y-21.158 z-0.500
x23.603 y-21.197 z-0.500
x23.563 y-21.238 z-0.500
x23.525 y-21.280 z-0.500
x23.489 y-21.323 z-0.500
x23.454 y-21.367 z-0.500
x23.421 y-21.412 z-0.500
x23.389 y-21.459 z-0.500
x23.360 y-21.507 z-0.500
x23.331 y-21.556 z-0.500
x23.305 y-21.605 z-0.500
x23.280 y-21.656 z-0.500
x23.257 y-21.708 z-0.500
x23.236 y-21.760 z-0.500
x23.217 y-21.813 z-0.500
x23.200 y-21.867 z-0.500
x23.185 y-21.921 z-0.500
x23.171 y-21.975 z-0.500
x23.160 y-22.031 z-0.500
x23.151 y-22.086 z-0.500
x23.143 y-22.142 z-0.500
x23.138 y-22.198 z-0.500
x23.134 y-22.254 z-0.500
x23.133 y-22.325 z-0.500
x23.133 y-32.451 z-0.500
x23.136 y-32.508 z-0.500
x23.141 y-32.564 z-0.500
x23.148 y-32.620 z-0.500
x23.157 y-32.675 z-0.500
x23.168 y-32.731 z-0.500
x23.181 y-32.785 z-0.500
x23.196 y-32.840 z-0.500
x23.213 y-32.894 z-0.500
x23.231 y-32.947 z-0.500
x23.252 y-32.999 z-0.500
x23.274 y-33.051 z-0.500
x23.299 y-33.102 z-0.500
x23.325 y-33.152 z-0.500
x23.352 y-33.201 z-0.500
x23.382 y-33.249 z-0.500
x23.413 y-33.296 z-0.500
x23.446 y-33.342 z-0.500
x23.480 y-33.386 z-0.500
x23.516 y-33.430 z-0.500
x23.553 y-33.472 z-0.500
x23.592 y-33.512 z-0.500
x23.633 y-33.552 z-0.500
x23.675 y-33.590 z-0.500
x23.718 y-33.626 z-0.500
x23.762 y-33.661 z-0.500
x23.807 y-33.694 z-0.500
x23.854 y-33.726 z-0.500
x23.902 y-33.755 z-0.500
x23.951 y-33.784 z-0.500
x24.000 y-33.810 z-0.500
x24.051 y-33.835 z-0.500
x24.103 y-33.858 z-0.500
x24.155 y-33.879 z-0.500
x24.208 y-33.898 z-0.500
x24.262 y-33.915 z-0.500
x24.316 y-33.930 z-0.500
x24.370 y-33.944 z-0.500
x24.426 y-33.955 z-0.500
x24.481 y-33.964 z-0.500
x24.537 y-33.972 z-0.500
x24.593 y-33.977 z-0.500
x24.649 y-33.981 z-0.500
x24.720 y-33.983 z-0.500
x26.640 y-33.983 z-0.500
x26.696 y-33.982 z-0.500
x26.753 y-33.979 z-0.500
x26.809 y-33.974 z-0.500
x26.865 y-33.967 z-0.500
x26.920 y-33.958 z-0.500
x26.976 y-33.947 z-0.500
x27.030 y-33.934 z-0.500
x27.085 y-33.919 z-0.500
x27.139 y-33.902 z-0.500
x27.192 y-33.884 z-0.500
x27.244 y-33.863 z-0.500
x27.296 y-33.841 z-0.500
x27.347 y-33.816 z-0.500
x27.397 y-33.790 z-0.500
x27.446 y-33.763 z-0.500
x27.494 y-33.733 z-0.500
x27.541 y-33.702 z-0.500
x27.587 y-33.669 z-0.500
x27.631 y-33.635 z-0.500
x27.675 y-33.599 z-0.500
x27.717 y-33.562 z-0.500
x27.757 y-33.523 z-0.500
x27.797 y-33.482 z-0.500
x27.835 y-33.440 z-0.500
x27.871 y-33.397 z-0.500
x27.906 y-33.353 z-0.500
x27.939 y-33.308 z-0.500
x27.971 y-33.261 z-0.500
x28.000 y-33.213 z-0.500
x28.029 y-33.164 z-0.500
x28.055 y-33.115 z-0.500
x28.080 y-33.064 z-0.500
x28.103 y-33.012 z-0.500
x28.124 y-32.960 z-0.500
x28.143 y-32.907 z-0.500
x28.160 y-32.853 z-0.500
x28.175 y-32.799 z-0.500
x28.189 y-32.745 z-0.500
x28.200 y-32.689 z-0.500
x28.209 y-32.634 z-0.500
x28.217 y-32.578 z-0.500
x28.222 y-32.522 z-0.500
x28.226 y-32.466 z-0.500
x28.228 y-32.395 z-0.500
x28.228 y-22.325 z-0.500
x28.227 y-22.269 z-0.500
x28.224 y-22.212 z-0.500
x28.219 y-22.156 z-0.500
x28.212 y-22.100 z-0.500
x28.203 y-22.045 z-0.500
x28.192 y-21.989 z-0.500
x28.179 y-21.935 z-0.500
x28.175 y-21.921 z-0.500
x28.168 y-21.894 z-0.500
x28.152 y-21.840 z-0.500
x28.147 y-21.826 z-0.500
x28.129 y-21.773 z-0.500
x28.113 y-21.734 z-0.500
x28.092 y-21.682 z-0.500
x28.068 y-21.631 z-0.500
x28.061 y-21.618 z-0.500
x28.035 y-21.568 z-0.500
x28.008 y-21.519 z-0.500
x27.978 y-21.471 z-0.500
x27.947 y-21.424 z-0.500
x27.914 y-21.378 z-0.500
x27.880 y-21.334 z-0.500
x27.844 y-21.290 z-0.500
x27.807 y-21.248 z-0.500
x27.797 y-21.238 z-0.500
x27.778 y-21.218 z-0.500
x27.738 y-21.178 z-0.500
x27.696 y-21.140 z-0.500
x27.654 y-21.103 z-0.500
x27.610 y-21.068 z-0.500
x27.600 y-21.061 z-0.500
x27.598 y-21.059 z-0.500
x27.553 y-21.026 z-0.500
x27.506 y-20.994 z-0.500
x27.494 y-20.987 z-0.500
x27.470 y-20.972 z-0.500
x27.422 y-20.943 z-0.500
x27.412 y-20.938 z-0.500
x27.409 y-20.936 z-0.500
x27.360 y-20.910 z-0.500
x27.335 y-20.898 z-0.500
x27.322 y-20.891 z-0.500
x27.313 y-20.887 z-0.500
x27.309 y-20.885 z-0.500
x27.257 y-20.862 z-0.500
x27.205 y-20.841 z-0.500
x27.152 y-20.822 z-0.500
x27.139 y-20.818 z-0.500
x27.112 y-20.809 z-0.500
x27.101 y-20.806 z-0.500
x27.098 y-20.805 z-0.500
x27.044 y-20.790 z-0.500
x26.990 y-20.776 z-0.500
x26.934 y-20.765 z-0.500
x26.909 y-20.761 z-0.500
x26.893 y-20.758 z-0.500
x26.823 y-20.748 z-0.500
x26.795 y-20.745 z-0.500

( Lift to 5.000 )
F2000 z5.000

( Path 11 )
( ------------------------- )

( Spindle on )
M3
S500

( Current depth = -0.500 )

( MoveToStartpoint2 )
F2000 G90 z5.000
F2000 x44.205 y-22.317 z5.000
F2000 x44.205 y-22.317 z0.000

( Loop )
G90 F500
x44.205 y-22.317 z-0.500
F500
x44.220 y-22.317 z-0.500
x42.286 y-22.317 z-0.500
x44.220 y-22.317 z-0.500
x44.220 y-22.317 z-0.500
x44.205 y-22.317 z-0.500
x44.220 y-22.317 z-0.500
x42.286 y-22.317 z-0.500
x42.286 y-22.317 z-0.500

( Lift to 5.000 )
F2000 z5.000

( Path 13 )
( ------------------------- )

( Spindle on )
M3
S500

( Current depth = -0.500 )

( MoveToStartpoint2 )
F2000 G90 z5.000
F2000 x29.952 y-79.628 z5.000
F2000 x29.952 y-79.628 z0.000

( Loop )
G90 F500
x29.952 y-79.628 z-0.500
F500
x30.008 y-79.625 z-0.500
x30.065 y-79.620 z-0.500
x30.130 y-79.611 z-0.500
x31.096 y-79.463 z-0.500
x31.152 y-79.454 z-0.500
x31.207 y-79.442 z-0.500
x31.286 y-79.422 z-0.500
x32.192 y-79.167 z-0.500
x32.246 y-79.151 z-0.500
x32.299 y-79.133 z-0.500
x32.352 y-79.113 z-0.500
x32.396 y-79.094 z-0.500
x33.236 y-78.728 z-0.500
x33.287 y-78.705 z-0.500
x33.338 y-78.680 z-0.500
x33.387 y-78.653 z-0.500
x33.440 y-78.621 z-0.500
x34.207 y-78.144 z-0.500
x34.255 y-78.113 z-0.500
x34.301 y-78.081 z-0.500
x34.346 y-78.047 z-0.500
x34.402 y-78.001 z-0.500
x35.090 y-77.411 z-0.500
x35.133 y-77.374 z-0.500
x35.173 y-77.335 z-0.500
x35.213 y-77.294 z-0.500
x35.263 y-77.238 z-0.500
x35.866 y-76.533 z-0.500
x35.902 y-76.489 z-0.500
x35.937 y-76.445 z-0.500
x35.969 y-76.399 z-0.500
x36.008 y-76.339 z-0.500
x36.518 y-75.518 z-0.500
x36.547 y-75.469 z-0.500
x36.575 y-75.420 z-0.500
x36.592 y-75.386 z-0.500
x37.008 y-74.548 z-0.500
x37.032 y-74.497 z-0.500
x37.048 y-74.460 z-0.500
x37.686 y-72.949 z-0.500
x37.707 y-72.896 z-0.500
x37.723 y-72.855 z-0.500
x38.244 y-71.365 z-0.500
x38.265 y-71.298 z-0.500
x38.699 y-69.854 z-0.500
x38.710 y-69.817 z-0.500
x39.086 y-68.445 z-0.500
x39.087 y-68.445 z-0.500
x39.437 y-67.173 z-0.500
x39.766 y-66.100 z-0.500
x40.099 y-65.236 z-0.500
x40.427 y-64.631 z-0.500
x40.718 y-64.287 z-0.500
x40.962 y-64.131 z-0.500
x41.298 y-64.055 z-0.500
x41.906 y-64.102 z-0.500
x42.231 y-64.202 z-0.500
x42.550 y-64.380 z-0.500
x42.859 y-64.637 z-0.500
x43.152 y-64.974 z-0.500
x43.421 y-65.388 z-0.500
x43.655 y-65.861 z-0.500
x43.839 y-66.365 z-0.500
x43.978 y-66.904 z-0.500
x44.055 y-67.398 z-0.500
x44.080 y-67.867 z-0.500
x44.038 y-68.594 z-0.500
x43.923 y-69.195 z-0.500
x43.751 y-69.678 z-0.500
x43.536 y-70.053 z-0.500
x43.297 y-70.323 z-0.500
x43.016 y-70.528 z-0.500
x42.668 y-70.679 z-0.500
x42.222 y-70.770 z-0.500
x41.648 y-70.781 z-0.500
x40.829 y-70.668 z-0.500
x40.773 y-70.662 z-0.500
x40.717 y-70.657 z-0.500
x40.661 y-70.654 z-0.500
x40.605 y-70.654 z-0.500
x40.548 y-70.655 z-0.500
x40.492 y-70.658 z-0.500
x40.436 y-70.663 z-0.500
x40.380 y-70.671 z-0.500
x40.324 y-70.680 z-0.500
x40.269 y-70.691 z-0.500
x40.214 y-70.704 z-0.500
x40.160 y-70.719 z-0.500
x40.106 y-70.736 z-0.500
x40.053 y-70.755 z-0.500
x40.001 y-70.776 z-0.500
x39.949 y-70.799 z-0.500
x39.899 y-70.823 z-0.500
x39.849 y-70.850 z-0.500
x39.800 y-70.878 z-0.500
x39.752 y-70.907 z-0.500
x39.705 y-70.939 z-0.500
x39.660 y-70.972 z-0.500
x39.615 y-71.006 z-0.500
x39.572 y-71.043 z-0.500
x39.530 y-71.080 z-0.500
x39.490 y-71.119 z-0.500
x39.450 y-71.160 z-0.500
x39.413 y-71.202 z-0.500
x39.377 y-71.245 z-0.500
x39.342 y-71.290 z-0.500
x39.309 y-71.335 z-0.500
x39.278 y-71.382 z-0.500
x39.248 y-71.430 z-0.500
x39.220 y-71.479 z-0.500
x39.194 y-71.529 z-0.500
x39.170 y-71.580 z-0.500
x39.147 y-71.631 z-0.500
x39.127 y-71.684 z-0.500
x39.108 y-71.737 z-0.500
x39.091 y-71.791 z-0.500
x39.076 y-71.845 z-0.500
x39.063 y-71.900 z-0.500
x39.051 y-71.955 z-0.500
x39.042 y-72.011 z-0.500
x39.035 y-72.066 z-0.500
x39.030 y-72.123 z-0.500
x39.027 y-72.179 z-0.500
x39.026 y-72.241 z-0.500
x39.026 y-81.164 z-0.500
x39.029 y-81.221 z-0.500
x39.034 y-81.277 z-0.500
x39.041 y-81.333 z-0.500
x39.050 y-81.388 z-0.500
x39.061 y-81.444 z-0.500
x39.074 y-81.498 z-0.500
x39.089 y-81.553 z-0.500
x39.106 y-81.607 z-0.500
x39.124 y-81.660 z-0.500
x39.145 y-81.712 z-0.500
x39.167 y-81.764 z-0.500
x39.192 y-81.815 z-0.500
x39.218 y-81.865 z-0.500
x39.245 y-81.914 z-0.500
x39.275 y-81.962 z-0.500
x39.306 y-82.009 z-0.500
x39.339 y-82.055 z-0.500
x39.373 y-82.099 z-0.500
x39.409 y-82.143 z-0.500
x39.446 y-82.185 z-0.500
x39.485 y-82.225 z-0.500
x39.526 y-82.265 z-0.500
x39.568 y-82.303 z-0.500
x39.611 y-82.339 z-0.500
x39.655 y-82.374 z-0.500
x39.700 y-82.407 z-0.500
x39.747 y-82.439 z-0.500
x39.795 y-82.468 z-0.500
x39.844 y-82.497 z-0.500
x39.893 y-82.523 z-0.500
x39.944 y-82.548 z-0.500
x39.996 y-82.571 z-0.500
x40.048 y-82.592 z-0.500
x40.101 y-82.611 z-0.500
x40.155 y-82.628 z-0.500
x40.209 y-82.643 z-0.500
x40.263 y-82.657 z-0.500
x40.319 y-82.668 z-0.500
x40.359 y-82.675 z-0.500
x41.092 y-82.794 z-0.500
x41.149 y-82.802 z-0.500
x41.852 y-82.890 z-0.500
x41.918 y-82.897 z-0.500
x42.593 y-82.953 z-0.500
x42.660 y-82.957 z-0.500
x43.307 y-82.983 z-0.500
x43.381 y-82.984 z-0.500
x44.000 y-82.980 z-0.500
x44.078 y-82.978 z-0.500
x44.671 y-82.945 z-0.500
x44.727 y-82.941 z-0.500
x44.756 y-82.938 z-0.500
x45.322 y-82.876 z-0.500
x45.378 y-82.869 z-0.500
x45.407 y-82.864 z-0.500
x45.947 y-82.775 z-0.500
x46.003 y-82.765 z-0.500
x46.038 y-82.758 z-0.500
x46.553 y-82.642 z-0.500
x46.608 y-82.628 z-0.500
x46.646 y-82.618 z-0.500
x47.136 y-82.476 z-0.500
x47.140 y-82.475 z-0.500
x47.139 y-82.475 z-0.500
x47.204 y-82.454 z-0.500
x47.375 y-82.396 z-0.500
x47.428 y-82.377 z-0.500
x47.473 y-82.360 z-0.500
x48.245 y-82.040 z-0.500
x48.297 y-82.017 z-0.500
x48.347 y-81.993 z-0.500
x48.409 y-81.960 z-0.500
x49.112 y-81.569 z-0.500
x49.160 y-81.541 z-0.500
x49.208 y-81.511 z-0.500
x49.267 y-81.471 z-0.500
x49.904 y-81.013 z-0.500
x49.949 y-80.979 z-0.500
x49.993 y-80.944 z-0.500
x50.046 y-80.898 z-0.500
x50.619 y-80.376 z-0.500
x50.660 y-80.337 z-0.500
x50.700 y-80.297 z-0.500
x50.743 y-80.250 z-0.500
x51.255 y-79.667 z-0.500
x51.291 y-79.624 z-0.500
x51.326 y-79.579 z-0.500
x51.357 y-79.537 z-0.500
x51.810 y-78.898 z-0.500
x51.842 y-78.852 z-0.500
x51.872 y-78.804 z-0.500
x51.891 y-78.771 z-0.500
x52.289 y-78.079 z-0.500
x52.316 y-78.030 z-0.500
x52.353 y-77.957 z-0.500
x52.698 y-77.215 z-0.500
x52.720 y-77.164 z-0.500
x52.745 y-77.101 z-0.500
x53.039 y-76.313 z-0.500
x53.058 y-76.260 z-0.500
x53.073 y-76.211 z-0.500
x53.320 y-75.382 z-0.500
x53.336 y-75.328 z-0.500
x53.346 y-75.287 z-0.500
x53.547 y-74.419 z-0.500
x53.558 y-74.364 z-0.500
x53.563 y-74.336 z-0.500
x53.722 y-73.433 z-0.500
x53.734 y-73.359 z-0.500
x53.853 y-72.425 z-0.500
x53.860 y-72.359 z-0.500
x53.942 y-71.397 z-0.500
x53.946 y-71.338 z-0.500
x53.993 y-70.353 z-0.500
x53.994 y-70.301 z-0.500
x54.009 y-69.295 z-0.500
x54.009 y-69.248 z-0.500
x53.999 y-68.567 z-0.500
x53.997 y-68.509 z-0.500
x53.945 y-67.487 z-0.500
x53.940 y-67.417 z-0.500
x53.843 y-66.403 z-0.500
x53.835 y-66.333 z-0.500
x53.694 y-65.328 z-0.500
x53.682 y-65.255 z-0.500
x53.495 y-64.263 z-0.500
x53.479 y-64.188 z-0.500
x53.246 y-63.214 z-0.500
x53.226 y-63.139 z-0.500
x52.948 y-62.185 z-0.500
x52.923 y-62.107 z-0.500
x52.599 y-61.177 z-0.500
x52.580 y-61.124 z-0.500
x52.569 y-61.097 z-0.500
x52.199 y-60.194 z-0.500
x52.177 y-60.142 z-0.500
x52.163 y-60.112 z-0.500
x51.747 y-59.240 z-0.500
x51.722 y-59.190 z-0.500
x51.704 y-59.156 z-0.500
x51.241 y-58.318 z-0.500
x51.212 y-58.269 z-0.500
x51.190 y-58.233 z-0.500
x50.680 y-57.432 z-0.500
x50.649 y-57.385 z-0.500
x50.622 y-57.347 z-0.500
x50.066 y-56.588 z-0.500
x50.032 y-56.543 z-0.500
x49.998 y-56.502 z-0.500
x49.394 y-55.787 z-0.500
x49.357 y-55.744 z-0.500
x49.316 y-55.701 z-0.500
x48.664 y-55.034 z-0.500
x48.624 y-54.995 z-0.500
x48.579 y-54.954 z-0.500
x47.881 y-54.338 z-0.500
x47.839 y-54.301 z-0.500
x47.784 y-54.259 z-0.500
x47.037 y-53.698 z-0.500
x46.992 y-53.665 z-0.500
x46.932 y-53.625 z-0.500
x46.137 y-53.123 z-0.500
x46.088 y-53.093 z-0.500
x46.025 y-53.058 z-0.500
x45.182 y-52.617 z-0.500
x45.131 y-52.592 z-0.500
x45.064 y-52.562 z-0.500
x44.172 y-52.185 z-0.500
x44.120 y-52.164 z-0.500
x44.047 y-52.138 z-0.500
x43.107 y-51.831 z-0.500
x43.053 y-51.814 z-0.500
x42.982 y-51.796 z-0.500
x41.993 y-51.560 z-0.500
x41.938 y-51.548 z-0.500
x41.893 y-51.539 z-0.500
x41.123 y-51.407 z-0.500
x41.068 y-51.399 z-0.500
x40.999 y-51.391 z-0.500
x39.469 y-51.252 z-0.500
x39.412 y-51.248 z-0.500
x39.356 y-51.246 z-0.500
x39.270 y-51.246 z-0.500
x37.915 y-51.293 z-0.500
x37.859 y-51.296 z-0.500
x37.803 y-51.301 z-0.500
x37.747 y-51.308 z-0.500
x37.684 y-51.318 z-0.500
x36.492 y-51.536 z-0.500
x36.437 y-51.548 z-0.500
x36.382 y-51.561 z-0.500
x36.328 y-51.576 z-0.500
x36.274 y-51.593 z-0.500
x36.244 y-51.603 z-0.500
x35.203 y-51.975 z-0.500
x35.150 y-51.995 z-0.500
x35.098 y-52.017 z-0.500
x35.047 y-52.040 z-0.500
x34.997 y-52.066 z-0.500
x34.958 y-52.087 z-0.500
x34.053 y-52.597 z-0.500
x34.004 y-52.626 z-0.500
x33.956 y-52.656 z-0.500
x33.910 y-52.688 z-0.500
x33.865 y-52.721 z-0.500
x33.834 y-52.745 z-0.500
x33.052 y-53.377 z-0.500
x33.009 y-53.414 z-0.500
x32.967 y-53.451 z-0.500
x32.927 y-53.490 z-0.500
x32.875 y-53.544 z-0.500
x32.205 y-54.281 z-0.500
x32.168 y-54.323 z-0.500
x32.133 y-54.367 z-0.500
x32.099 y-54.412 z-0.500
x32.076 y-54.443 z-0.500
x31.502 y-55.269 z-0.500
x31.471 y-55.316 z-0.500
x31.441 y-55.364 z-0.500
x31.411 y-55.418 z-0.500
x30.923 y-56.317 z-0.500
x30.897 y-56.367 z-0.500
x30.863 y-56.438 z-0.500
x30.445 y-57.394 z-0.500
x30.424 y-57.446 z-0.500
x30.407 y-57.491 z-0.500
x30.048 y-58.486 z-0.500
x30.024 y-58.558 z-0.500
x29.710 y-59.577 z-0.500
x29.696 y-59.624 z-0.500
x29.414 y-60.651 z-0.500
x29.408 y-60.674 z-0.500
x29.145 y-61.692 z-0.500
x28.888 y-62.683 z-0.500
x28.631 y-63.607 z-0.500
x28.447 y-64.205 z-0.500
x28.227 y-64.863 z-0.500
x28.009 y-65.434 z-0.500
x27.779 y-65.931 z-0.500
x27.535 y-66.338 z-0.500
x27.311 y-66.614 z-0.500
x27.124 y-66.769 z-0.500
x26.955 y-66.851 z-0.500
x26.751 y-66.888 z-0.500
x26.408 y-66.860 z-0.500
x26.195 y-66.797 z-0.500
x25.941 y-66.669 z-0.500
x25.678 y-66.481 z-0.500
x25.422 y-66.237 z-0.500
x25.171 y-65.925 z-0.500
x24.951 y-65.575 z-0.500
x24.770 y-65.193 z-0.500
x24.638 y-64.796 z-0.500
x24.556 y-64.392 z-0.500
x24.525 y-63.958 z-0.500
x24.534 y-63.638 z-0.500
x24.559 y-63.333 z-0.500
x24.603 y-63.038 z-0.500
x24.654 y-62.801 z-0.500
x24.722 y-62.578 z-0.500
x24.787 y-62.416 z-0.500
x24.861 y-62.271 z-0.500
x24.933 y-62.161 z-0.500
x25.001 y-62.078 z-0.500
x25.096 y-61.987 z-0.500
x25.201 y-61.902 z-0.500
x25.298 y-61.840 z-0.500
x25.389 y-61.795 z-0.500
x25.505 y-61.754 z-0.500
x25.635 y-61.723 z-0.500
x25.809 y-61.700 z-0.500
x25.993 y-61.693 z-0.500
x26.221 y-61.703 z-0.500
x26.489 y-61.736 z-0.500
x26.827 y-61.801 z-0.500
x26.883 y-61.811 z-0.500
x26.938 y-61.818 z-0.500
x26.994 y-61.824 z-0.500
x27.051 y-61.828 z-0.500
x27.107 y-61.829 z-0.500
x27.163 y-61.829 z-0.500
x27.220 y-61.827 z-0.500
x27.276 y-61.823 z-0.500
x27.332 y-61.816 z-0.500
x27.388 y-61.808 z-0.500
x27.443 y-61.798 z-0.500
x27.498 y-61.786 z-0.500
x27.553 y-61.771 z-0.500
x27.607 y-61.755 z-0.500
x27.660 y-61.737 z-0.500
x27.713 y-61.718 z-0.500
x27.765 y-61.696 z-0.500
x27.816 y-61.672 z-0.500
x27.866 y-61.647 z-0.500
x27.916 y-61.620 z-0.500
x27.964 y-61.591 z-0.500
x28.011 y-61.560 z-0.500
x28.058 y-61.528 z-0.500
x28.103 y-61.494 z-0.500
x28.146 y-61.459 z-0.500
x28.189 y-61.422 z-0.500
x28.230 y-61.384 z-0.500
x28.270 y-61.344 z-0.500
x28.308 y-61.302 z-0.500
x28.345 y-61.260 z-0.500
x28.381 y-61.216 z-0.500
x28.414 y-61.171 z-0.500
x28.447 y-61.125 z-0.500
x28.477 y-61.077 z-0.500
x28.506 y-61.029 z-0.500
x28.533 y-60.979 z-0.500
x28.558 y-60.929 z-0.500
x28.582 y-60.878 z-0.500
x28.603 y-60.826 z-0.500
x28.623 y-60.773 z-0.500
x28.641 y-60.720 z-0.500
x28.657 y-60.666 z-0.500
x28.671 y-60.611 z-0.500
x28.683 y-60.556 z-0.500
x28.693 y-60.501 z-0.500
x28.701 y-60.445 z-0.500
x28.708 y-60.389 z-0.500
x28.712 y-60.333 z-0.500
x28.714 y-60.276 z-0.500
x28.715 y-60.242 z-0.500
x28.715 y-51.375 z-0.500
x28.714 y-51.319 z-0.500
x28.711 y-51.262 z-0.500
x28.706 y-51.206 z-0.500
x28.699 y-51.150 z-0.500
x28.690 y-51.095 z-0.500
x28.679 y-51.039 z-0.500
x28.666 y-50.985 z-0.500
x28.651 y-50.930 z-0.500
x28.634 y-50.876 z-0.500
x28.616 y-50.823 z-0.500
x28.595 y-50.771 z-0.500
x28.573 y-50.719 z-0.500
x28.548 y-50.668 z-0.500
x28.522 y-50.618 z-0.500
x28.495 y-50.569 z-0.500
x28.465 y-50.521 z-0.500
x28.434 y-50.474 z-0.500
x28.401 y-50.428 z-0.500
x28.367 y-50.384 z-0.500
x28.331 y-50.340 z-0.500
x28.294 y-50.298 z-0.500
x28.255 y-50.258 z-0.500
x28.214 y-50.218 z-0.500
x28.172 y-50.180 z-0.500
x28.129 y-50.144 z-0.500
x28.085 y-50.109 z-0.500
x28.040 y-50.076 z-0.500
x27.993 y-50.044 z-0.500
x27.945 y-50.015 z-0.500
x27.896 y-49.986 z-0.500
x27.847 y-49.960 z-0.500
x27.796 y-49.935 z-0.500
x27.744 y-49.912 z-0.500
x27.692 y-49.891 z-0.500
x27.639 y-49.872 z-0.500
x27.585 y-49.855 z-0.500
x27.531 y-49.840 z-0.500
x27.483 y-49.828 z-0.500
x26.665 y-49.640 z-0.500
x26.609 y-49.628 z-0.500
x26.554 y-49.619 z-0.500
x25.377 y-49.435 z-0.500
x25.321 y-49.427 z-0.500
x25.265 y-49.421 z-0.500
x25.224 y-49.418 z-0.500
x24.134 y-49.355 z-0.500
x24.077 y-49.353 z-0.500
x24.021 y-49.353 z-0.500
x23.960 y-49.355 z-0.500
x22.953 y-49.407 z-0.500
x22.897 y-49.411 z-0.500
x22.841 y-49.416 z-0.500
x22.768 y-49.427 z-0.500
x21.843 y-49.585 z-0.500
x21.787 y-49.596 z-0.500
x21.732 y-49.608 z-0.500
x21.678 y-49.622 z-0.500
x21.643 y-49.633 z-0.500
x20.795 y-49.894 z-0.500
x20.741 y-49.911 z-0.500
x20.689 y-49.931 z-0.500
x20.636 y-49.952 z-0.500
x20.598 y-49.969 z-0.500
x19.827 y-50.324 z-0.500
x19.776 y-50.348 z-0.500
x19.726 y-50.375 z-0.500
x19.678 y-50.403 z-0.500
x19.640 y-50.426 z-0.500
x18.942 y-50.869 z-0.500
x18.895 y-50.900 z-0.500
x18.849 y-50.932 z-0.500
x18.805 y-50.967 z-0.500
x18.773 y-50.993 z-0.500
x18.146 y-51.519 z-0.500
x18.103 y-51.556 z-0.500
x18.062 y-51.594 z-0.500
x18.004 y-51.654 z-0.500
x17.445 y-52.255 z-0.500
x17.407 y-52.297 z-0.500
x17.371 y-52.340 z-0.500
x17.329 y-52.395 z-0.500
x16.835 y-53.066 z-0.500
x16.802 y-53.112 z-0.500
x16.771 y-53.159 z-0.500
x16.744 y-53.204 z-0.500
x16.314 y-53.937 z-0.500
x16.286 y-53.986 z-0.500
x16.260 y-54.036 z-0.500
x16.246 y-54.066 z-0.500
x15.876 y-54.855 z-0.500
x15.853 y-54.906 z-0.500
x15.825 y-54.975 z-0.500
x15.512 y-55.815 z-0.500
x15.494 y-55.868 z-0.500
x15.476 y-55.925 z-0.500
x15.219 y-56.808 z-0.500
x15.204 y-56.863 z-0.500
x15.194 y-56.907 z-0.500
x14.989 y-57.827 z-0.500
x14.977 y-57.882 z-0.500
x14.971 y-57.917 z-0.500
x14.816 y-58.869 z-0.500
x14.805 y-58.951 z-0.500
x14.698 y-59.926 z-0.500
x14.692 y-60.000 z-0.500
x14.630 y-60.993 z-0.500
x14.627 y-61.059 z-0.500
x14.606 y-62.064 z-0.500
x14.606 y-62.218 z-0.500
x14.621 y-63.053 z-0.500
x14.622 y-63.100 z-0.500
x14.662 y-63.937 z-0.500
x14.665 y-63.986 z-0.500
x14.731 y-64.821 z-0.500
x14.737 y-64.876 z-0.500
x14.832 y-65.708 z-0.500
x14.839 y-65.765 z-0.500
x14.964 y-66.592 z-0.500
x14.975 y-66.652 z-0.500
x15.131 y-67.471 z-0.500
x15.144 y-67.536 z-0.500
x15.333 y-68.344 z-0.500
x15.351 y-68.412 z-0.500
x15.575 y-69.208 z-0.500
x15.597 y-69.280 z-0.500
x15.857 y-70.060 z-0.500
x15.884 y-70.136 z-0.500
x16.182 y-70.899 z-0.500
x16.215 y-70.976 z-0.500
x16.552 y-71.720 z-0.500
x16.576 y-71.771 z-0.500
x16.593 y-71.804 z-0.500
x16.972 y-72.525 z-0.500
x16.999 y-72.574 z-0.500
x17.019 y-72.608 z-0.500
x17.440 y-73.304 z-0.500
x17.470 y-73.351 z-0.500
x17.494 y-73.387 z-0.500
x17.959 y-74.057 z-0.500
x17.992 y-74.103 z-0.500
x18.022 y-74.142 z-0.500
x18.533 y-74.783 z-0.500
x18.569 y-74.826 z-0.500
x18.604 y-74.866 z-0.500
x19.162 y-75.474 z-0.500
x19.201 y-75.515 z-0.500
x19.240 y-75.553 z-0.500
x19.847 y-76.128 z-0.500
x19.889 y-76.167 z-0.500
x19.933 y-76.204 z-0.500
x20.591 y-76.743 z-0.500
x20.635 y-76.778 z-0.500
x20.684 y-76.814 z-0.500
x21.394 y-77.313 z-0.500
x21.441 y-77.344 z-0.500
x21.489 y-77.374 z-0.500
x22.252 y-77.833 z-0.500
x22.300 y-77.862 z-0.500
x22.352 y-77.889 z-0.500
x23.171 y-78.304 z-0.500
x23.222 y-78.329 z-0.500
x23.271 y-78.350 z-0.500
x24.147 y-78.720 z-0.500
x24.200 y-78.741 z-0.500
x24.249 y-78.759 z-0.500
x25.183 y-79.080 z-0.500
x25.237 y-79.098 z-0.500
x25.283 y-79.111 z-0.500
x26.277 y-79.381 z-0.500
x26.331 y-79.395 z-0.500
x26.387 y-79.407 z-0.500
x26.455 y-79.419 z-0.500
x27.564 y-79.587 z-0.500
x27.620 y-79.594 z-0.500
x27.676 y-79.600 z-0.500
x27.705 y-79.602 z-0.500
x28.772 y-79.667 z-0.500
x28.829 y-79.669 z-0.500
x28.885 y-79.669 z-0.500
x28.931 y-79.668 z-0.500
x29.952 y-79.628 z-0.500

( Lift to 5.000 )
F2000 z5.000

( Path 14 )
( ------------------------- )

( Spindle on )
M3
S500

( Current depth = -0.500 )

( MoveToStartpoint2 )
F2000 G90 z5.000
F2000 x16.829 y-78.917 z5.000
F2000 x16.829 y-78.917 z0.000

( Loop )
G90 F500
x16.829 y-78.917 z-0.500
F500
x16.773 y-78.921 z-0.500
x16.717 y-78.927 z-0.500
x16.661 y-78.935 z-0.500
x16.606 y-78.945 z-0.500
x16.551 y-78.957 z-0.500
x16.496 y-78.971 z-0.500
x16.442 y-78.987 z-0.500
x16.389 y-79.005 z-0.500
x16.336 y-79.024 z-0.500
x16.284 y-79.046 z-0.500
x16.232 y-79.069 z-0.500
x16.182 y-79.094 z-0.500
x16.132 y-79.121 z-0.500
x16.084 y-79.150 z-0.500
x16.037 y-79.180 z-0.500
x15.990 y-79.212 z-0.500
x15.945 y-79.246 z-0.500
x15.901 y-79.281 z-0.500
x15.858 y-79.318 z-0.500
x15.817 y-79.356 z-0.500
x15.777 y-79.396 z-0.500
x15.739 y-79.437 z-0.500
x15.701 y-79.480 z-0.500
x15.666 y-79.523 z-0.500
x15.632 y-79.568 z-0.500
x15.631 y-79.569 z-0.500
x15.600 y-79.614 z-0.500
x15.569 y-79.662 z-0.500
x15.540 y-79.710 z-0.500
x15.513 y-79.759 z-0.500
x15.488 y-79.809 z-0.500
x15.487 y-79.810 z-0.500
x15.464 y-79.861 z-0.500
x15.442 y-79.913 z-0.500
x15.422 y-79.966 z-0.500
x15.404 y-80.019 z-0.500
x15.388 y-80.073 z-0.500
x15.373 y-80.127 z-0.500
x15.361 y-80.182 z-0.500
x15.351 y-80.237 z-0.500
x15.342 y-80.293 z-0.500
x15.336 y-80.349 z-0.500
x15.331 y-80.405 z-0.500
x15.329 y-80.462 z-0.500
x15.329 y-104.941 z-0.500
x15.332 y-104.998 z-0.500
x15.337 y-105.054 z-0.500
x15.344 y-105.110 z-0.500
x15.353 y-105.165 z-0.500
x15.364 y-105.221 z-0.500
x15.377 y-105.275 z-0.500
x15.392 y-105.330 z-0.500
x15.409 y-105.384 z-0.500
x15.427 y-105.437 z-0.500
x15.448 y-105.489 z-0.500
x15.470 y-105.541 z-0.500
x15.495 y-105.592 z-0.500
x15.521 y-105.642 z-0.500
x15.548 y-105.691 z-0.500
x15.578 y-105.739 z-0.500
x15.609 y-105.786 z-0.500
x15.642 y-105.832 z-0.500
x15.676 y-105.876 z-0.500
x15.712 y-105.920 z-0.500
x15.749 y-105.962 z-0.500
x15.788 y-106.002 z-0.500
x15.829 y-106.042 z-0.500
x15.871 y-106.080 z-0.500
x15.914 y-106.116 z-0.500
x15.958 y-106.151 z-0.500
x16.003 y-106.184 z-0.500
x16.050 y-106.216 z-0.500
x16.098 y-106.245 z-0.500
x16.147 y-106.274 z-0.500
x16.196 y-106.300 z-0.500
x16.247 y-106.325 z-0.500
x16.299 y-106.348 z-0.500
x16.351 y-106.369 z-0.500
x16.404 y-106.388 z-0.500
x16.458 y-106.405 z-0.500
x16.512 y-106.420 z-0.500
x16.566 y-106.434 z-0.500
x16.611 y-106.443 z-0.500
x51.386 y-113.248 z-0.500
x51.442 y-113.258 z-0.500
x51.497 y-113.266 z-0.500
x51.553 y-113.272 z-0.500
x51.610 y-113.275 z-0.500
x51.666 y-113.277 z-0.500
x51.722 y-113.277 z-0.500
x51.779 y-113.275 z-0.500
x51.835 y-113.271 z-0.500
x51.891 y-113.265 z-0.500
x51.947 y-113.257 z-0.500
x52.002 y-113.247 z-0.500
x52.057 y-113.235 z-0.500
x52.112 y-113.221 z-0.500
x52.166 y-113.205 z-0.500
x52.219 y-113.187 z-0.500
x52.272 y-113.167 z-0.500
x52.324 y-113.146 z-0.500
x52.375 y-113.122 z-0.500
x52.426 y-113.097 z-0.500
x52.475 y-113.070 z-0.500
x52.524 y-113.042 z-0.500
x52.571 y-113.011 z-0.500
x52.617 y-112.979 z-0.500
x52.663 y-112.945 z-0.500
x52.707 y-112.910 z-0.500
x52.749 y-112.873 z-0.500
x52.791 y-112.835 z-0.500
x52.830 y-112.795 z-0.500
x52.869 y-112.754 z-0.500
x52.906 y-112.712 z-0.500
x52.941 y-112.668 z-0.500
x52.975 y-112.623 z-0.500
x53.008 y-112.577 z-0.500
x53.038 y-112.530 z-0.500
x53.067 y-112.481 z-0.500
x53.095 y-112.432 z-0.500
x53.120 y-112.382 z-0.500
x53.144 y-112.330 z-0.500
x53.165 y-112.278 z-0.500
x53.185 y-112.226 z-0.500
x53.203 y-112.172 z-0.500
x53.220 y-112.118 z-0.500
x53.234 y-112.064 z-0.500
x53.246 y-112.009 z-0.500
x53.256 y-111.954 z-0.500
x53.265 y-111.898 z-0.500
x53.271 y-111.842 z-0.500
x53.276 y-111.786 z-0.500
x53.278 y-111.729 z-0.500
x53.279 y-111.690 z-0.500
x53.279 y-87.307 z-0.500
x53.278 y-87.251 z-0.500
x53.275 y-87.194 z-0.500
x53.270 y-87.138 z-0.500
x53.263 y-87.082 z-0.500
x53.254 y-87.027 z-0.500
x53.243 y-86.971 z-0.500
x53.230 y-86.917 z-0.500
x53.215 y-86.862 z-0.500
x53.198 y-86.808 z-0.500
x53.180 y-86.755 z-0.500
x53.159 y-86.703 z-0.500
x53.137 y-86.651 z-0.500
x53.112 y-86.600 z-0.500
x53.086 y-86.550 z-0.500
x53.059 y-86.501 z-0.500
x53.029 y-86.453 z-0.500
x52.998 y-86.406 z-0.500
x52.965 y-86.360 z-0.500
x52.931 y-86.316 z-0.500
x52.895 y-86.272 z-0.500
x52.858 y-86.230 z-0.500
x52.819 y-86.190 z-0.500
x52.778 y-86.150 z-0.500
x52.736 y-86.112 z-0.500
x52.693 y-86.076 z-0.500
x52.649 y-86.041 z-0.500
x52.604 y-86.008 z-0.500
x52.557 y-85.976 z-0.500
x52.509 y-85.947 z-0.500
x52.460 y-85.918 z-0.500
x52.411 y-85.892 z-0.500
x52.360 y-85.867 z-0.500
x52.308 y-85.844 z-0.500
x52.256 y-85.823 z-0.500
x52.203 y-85.804 z-0.500
x52.149 y-85.787 z-0.500
x52.095 y-85.772 z-0.500
x52.041 y-85.758 z-0.500
x51.996 y-85.749 z-0.500
x45.253 y-84.427 z-0.500
x45.198 y-84.417 z-0.500
x45.142 y-84.409 z-0.500
x45.086 y-84.404 z-0.500
x45.030 y-84.400 z-0.500
x44.974 y-84.398 z-0.500
x44.917 y-84.398 z-0.500
x44.861 y-84.400 z-0.500
x44.805 y-84.404 z-0.500
x44.749 y-84.410 z-0.500
x44.693 y-84.418 z-0.500
x44.638 y-84.428 z-0.500
x44.582 y-84.440 z-0.500
x44.528 y-84.454 z-0.500
x44.474 y-84.470 z-0.500
x44.420 y-84.488 z-0.500
x44.368 y-84.507 z-0.500
x44.315 y-84.529 z-0.500
x44.264 y-84.552 z-0.500
x44.214 y-84.577 z-0.500
x44.164 y-84.604 z-0.500
x44.116 y-84.633 z-0.500
x44.068 y-84.663 z-0.500
x44.022 y-84.696 z-0.500
x43.977 y-84.729 z-0.500
x43.933 y-84.764 z-0.500
x43.890 y-84.801 z-0.500
x43.849 y-84.840 z-0.500
x43.809 y-84.879 z-0.500
x43.770 y-84.920 z-0.500
x43.733 y-84.963 z-0.500
x43.698 y-85.007 z-0.500
x43.664 y-85.052 z-0.500
x43.632 y-85.098 z-0.500
x43.601 y-85.145 z-0.500
x43.572 y-85.193 z-0.500
x43.545 y-85.243 z-0.500
x43.519 y-85.293 z-0.500
x43.496 y-85.344 z-0.500
x43.474 y-85.396 z-0.500
x43.454 y-85.449 z-0.500
x43.436 y-85.502 z-0.500
x43.420 y-85.556 z-0.500
x43.405 y-85.611 z-0.500
x43.393 y-85.666 z-0.500
x43.383 y-85.721 z-0.500
x43.374 y-85.777 z-0.500
x43.368 y-85.833 z-0.500
x43.363 y-85.889 z-0.500
x43.361 y-85.945 z-0.500
x43.361 y-99.573 z-0.500
x39.166 y-98.753 z-0.500
x39.166 y-85.785 z-0.500
x39.165 y-85.729 z-0.500
x39.162 y-85.672 z-0.500
x39.157 y-85.616 z-0.500
x39.150 y-85.560 z-0.500
x39.141 y-85.505 z-0.500
x39.130 y-85.449 z-0.500
x39.117 y-85.395 z-0.500
x39.102 y-85.340 z-0.500
x39.085 y-85.286 z-0.500
x39.067 y-85.233 z-0.500
x39.046 y-85.181 z-0.500
x39.024 y-85.129 z-0.500
x38.999 y-85.078 z-0.500
x38.973 y-85.028 z-0.500
x38.946 y-84.979 z-0.500
x38.916 y-84.931 z-0.500
x38.885 y-84.884 z-0.500
x38.852 y-84.838 z-0.500
x38.818 y-84.794 z-0.500
x38.782 y-84.750 z-0.500
x38.745 y-84.708 z-0.500
x38.706 y-84.668 z-0.500
x38.665 y-84.628 z-0.500
x38.623 y-84.590 z-0.500
x38.580 y-84.554 z-0.500
x38.536 y-84.519 z-0.500
x38.491 y-84.486 z-0.500
x38.444 y-84.454 z-0.500
x38.396 y-84.425 z-0.500
x38.347 y-84.396 z-0.500
x38.298 y-84.370 z-0.500
x38.247 y-84.345 z-0.500
x38.195 y-84.322 z-0.500
x38.143 y-84.301 z-0.500
x38.090 y-84.282 z-0.500
x38.036 y-84.265 z-0.500
x37.982 y-84.250 z-0.500
x37.928 y-84.236 z-0.500
x37.882 y-84.227 z-0.500
x31.140 y-82.912 z-0.500
x31.084 y-82.902 z-0.500
x31.029 y-82.894 z-0.500
x30.973 y-82.888 z-0.500
x30.916 y-82.885 z-0.500
x30.860 y-82.883 z-0.500
x30.804 y-82.883 z-0.500
x30.747 y-82.885 z-0.500
x30.691 y-82.889 z-0.500
x30.635 y-82.895 z-0.500
x30.579 y-82.903 z-0.500
x30.524 y-82.913 z-0.500
x30.469 y-82.926 z-0.500
x30.414 y-82.940 z-0.500
x30.360 y-82.955 z-0.500
x30.307 y-82.973 z-0.500
x30.254 y-82.993 z-0.500
x30.202 y-83.015 z-0.500
x30.151 y-83.038 z-0.500
x30.100 y-83.063 z-0.500
x30.051 y-83.090 z-0.500
x30.002 y-83.119 z-0.500
x29.955 y-83.149 z-0.500
x29.909 y-83.181 z-0.500
x29.864 y-83.215 z-0.500
x29.820 y-83.250 z-0.500
x29.777 y-83.287 z-0.500
x29.736 y-83.326 z-0.500
x29.696 y-83.365 z-0.500
x29.657 y-83.407 z-0.500
x29.620 y-83.449 z-0.500
x29.585 y-83.493 z-0.500
x29.551 y-83.538 z-0.500
x29.519 y-83.584 z-0.500
x29.488 y-83.631 z-0.500
x29.459 y-83.680 z-0.500
x29.432 y-83.729 z-0.500
x29.407 y-83.779 z-0.500
x29.383 y-83.830 z-0.500
x29.361 y-83.882 z-0.500
x29.341 y-83.935 z-0.500
x29.323 y-83.989 z-0.500
x29.307 y-84.043 z-0.500
x29.293 y-84.097 z-0.500
x29.281 y-84.152 z-0.500
x29.270 y-84.207 z-0.500
x29.262 y-84.263 z-0.500
x29.256 y-84.319 z-0.500
x29.251 y-84.375 z-0.500
x29.249 y-84.432 z-0.500
x29.249 y-96.817 z-0.500
x25.246 y-96.034 z-0.500
x25.246 y-81.825 z-0.500
x25.245 y-81.769 z-0.500
x25.242 y-81.712 z-0.500
x25.237 y-81.656 z-0.500
x25.230 y-81.600 z-0.500
x25.221 y-81.545 z-0.500
x25.210 y-81.489 z-0.500
x25.197 y-81.435 z-0.500
x25.182 y-81.380 z-0.500
x25.165 y-81.326 z-0.500
x25.147 y-81.273 z-0.500
x25.126 y-81.221 z-0.500
x25.104 y-81.169 z-0.500
x25.079 y-81.118 z-0.500
x25.053 y-81.068 z-0.500
x25.026 y-81.019 z-0.500
x24.996 y-80.971 z-0.500
x24.965 y-80.924 z-0.500
x24.932 y-80.878 z-0.500
x24.898 y-80.834 z-0.500
x24.862 y-80.790 z-0.500
x24.825 y-80.748 z-0.500
x24.786 y-80.708 z-0.500
x24.745 y-80.668 z-0.500
x24.703 y-80.630 z-0.500
x24.660 y-80.594 z-0.500
x24.616 y-80.559 z-0.500
x24.571 y-80.526 z-0.500
x24.524 y-80.494 z-0.500
x24.476 y-80.465 z-0.500
x24.427 y-80.436 z-0.500
x24.378 y-80.410 z-0.500
x24.327 y-80.385 z-0.500
x24.275 y-80.362 z-0.500
x24.223 y-80.341 z-0.500
x24.170 y-80.322 z-0.500
x24.116 y-80.305 z-0.500
x24.062 y-80.290 z-0.500
x24.008 y-80.276 z-0.500
x23.964 y-80.267 z-0.500
x19.509 y-79.393 z-0.500
x17.288 y-78.957 z-0.500
x17.222 y-78.944 z-0.500
x17.166 y-78.934 z-0.500
x17.111 y-78.926 z-0.500
x17.055 y-78.921 z-0.500
x16.998 y-78.917 z-0.500
x16.942 y-78.915 z-0.500
x16.885 y-78.915 z-0.500
x16.829 y-78.917 z-0.500

( Lift to 5.000 )
F2000 z5.000

( Path 15 )
( ------------------------- )

( Spindle on )
M3
S500

( Current depth = -0.500 )

( MoveToStartpoint2 )
F2000 G90 z5.000
F2000 x51.779 y-51.786 z5.000
F2000 x51.779 y-51.786 z0.000

( Loop )
G90 F500
x51.779 y-51.786 z-0.500
F500
x51.835 y-51.782 z-0.500
x51.891 y-51.776 z-0.500
x51.947 y-51.768 z-0.500
x52.002 y-51.758 z-0.500
x52.057 y-51.746 z-0.500
x52.112 y-51.732 z-0.500
x52.166 y-51.716 z-0.500
x52.219 y-51.698 z-0.500
x52.272 y-51.678 z-0.500
x52.324 y-51.657 z-0.500
x52.375 y-51.633 z-0.500
x52.426 y-51.608 z-0.500
x52.475 y-51.581 z-0.500
x52.524 y-51.553 z-0.500
x52.571 y-51.522 z-0.500
x52.617 y-51.490 z-0.500
x52.663 y-51.456 z-0.500
x52.707 y-51.421 z-0.500
x52.749 y-51.384 z-0.500
x52.791 y-51.346 z-0.500
x52.830 y-51.306 z-0.500
x52.869 y-51.265 z-0.500
x52.906 y-51.223 z-0.500
x52.941 y-51.179 z-0.500
x52.975 y-51.134 z-0.500
x53.008 y-51.088 z-0.500
x53.038 y-51.041 z-0.500
x53.067 y-50.992 z-0.500
x53.095 y-50.943 z-0.500
x53.120 y-50.893 z-0.500
x53.144 y-50.841 z-0.500
x53.165 y-50.789 z-0.500
x53.185 y-50.737 z-0.500
x53.203 y-50.683 z-0.500
x53.220 y-50.629 z-0.500
x53.234 y-50.575 z-0.500
x53.246 y-50.520 z-0.500
x53.256 y-50.465 z-0.500
x53.265 y-50.409 z-0.500
x53.271 y-50.353 z-0.500
x53.276 y-50.297 z-0.500
x53.278 y-50.240 z-0.500
x53.279 y-50.201 z-0.500
x53.279 y-41.334 z-0.500
x53.278 y-41.278 z-0.500
x53.275 y-41.221 z-0.500
x53.270 y-41.165 z-0.500
x53.263 y-41.109 z-0.500
x53.254 y-41.054 z-0.500
x53.243 y-40.998 z-0.500
x53.230 y-40.944 z-0.500
x53.215 y-40.889 z-0.500
x53.198 y-40.835 z-0.500
x53.180 y-40.782 z-0.500
x53.159 y-40.730 z-0.500
x53.137 y-40.678 z-0.500
x53.112 y-40.627 z-0.500
x53.086 y-40.577 z-0.500
x53.059 y-40.528 z-0.500
x53.029 y-40.480 z-0.500
x52.998 y-40.433 z-0.500
x52.965 y-40.387 z-0.500
x52.931 y-40.343 z-0.500
x52.895 y-40.299 z-0.500
x52.858 y-40.257 z-0.500
x52.819 y-40.217 z-0.500
x52.778 y-40.177 z-0.500
x52.736 y-40.139 z-0.500
x52.693 y-40.103 z-0.500
x52.649 y-40.068 z-0.500
x52.604 y-40.035 z-0.500
x52.557 y-40.003 z-0.500
x52.509 y-39.974 z-0.500
x52.460 y-39.945 z-0.500
x52.411 y-39.919 z-0.500
x52.360 y-39.894 z-0.500
x52.308 y-39.871 z-0.500
x52.256 y-39.850 z-0.500
x52.203 y-39.831 z-0.500
x52.149 y-39.814 z-0.500
x52.095 y-39.799 z-0.500
x52.041 y-39.785 z-0.500
x51.996 y-39.776 z-0.500
x17.221 y-32.971 z-0.500
x17.165 y-32.961 z-0.500
x17.110 y-32.953 z-0.500
x17.054 y-32.947 z-0.500
x16.997 y-32.944 z-0.500
x16.941 y-32.942 z-0.500
x16.885 y-32.942 z-0.500
x16.828 y-32.944 z-0.500
x16.772 y-32.948 z-0.500
x16.716 y-32.954 z-0.500
x16.660 y-32.962 z-0.500
x16.605 y-32.972 z-0.500
x16.550 y-32.984 z-0.500
x16.495 y-32.998 z-0.500
x16.441 y-33.014 z-0.500
x16.388 y-33.032 z-0.500
x16.335 y-33.052 z-0.500
x16.283 y-33.073 z-0.500
x16.232 y-33.097 z-0.500
x16.181 y-33.122 z-0.500
x16.132 y-33.149 z-0.500
x16.083 y-33.177 z-0.500
x16.036 y-33.208 z-0.500
x15.990 y-33.240 z-0.500
x15.944 y-33.274 z-0.500
x15.900 y-33.309 z-0.500
x15.858 y-33.346 z-0.500
x15.816 y-33.384 z-0.500
x15.777 y-33.424 z-0.500
x15.738 y-33.465 z-0.500
x15.701 y-33.507 z-0.500
x15.666 y-33.551 z-0.500
x15.632 y-33.596 z-0.500
x15.599 y-33.642 z-0.500
x15.569 y-33.689 z-0.500
x15.540 y-33.738 z-0.500
x15.512 y-33.787 z-0.500
x15.487 y-33.837 z-0.500
x15.463 y-33.889 z-0.500
x15.442 y-33.941 z-0.500
x15.422 y-33.993 z-0.500
x15.404 y-34.047 z-0.500
x15.387 y-34.101 z-0.500
x15.373 y-34.155 z-0.500
x15.361 y-34.210 z-0.500
x15.351 y-34.265 z-0.500
x15.342 y-34.321 z-0.500
x15.336 y-34.377 z-0.500
x15.331 y-34.433 z-0.500
x15.329 y-34.490 z-0.500
x15.329 y-43.452 z-0.500
x15.332 y-43.509 z-0.500
x15.337 y-43.565 z-0.500
x15.344 y-43.621 z-0.500
x15.353 y-43.676 z-0.500
x15.364 y-43.732 z-0.500
x15.377 y-43.786 z-0.500
x15.392 y-43.841 z-0.500
x15.409 y-43.895 z-0.500
x15.427 y-43.948 z-0.500
x15.448 y-44.000 z-0.500
x15.470 y-44.052 z-0.500
x15.495 y-44.103 z-0.500
x15.521 y-44.153 z-0.500
x15.548 y-44.202 z-0.500
x15.578 y-44.250 z-0.500
x15.609 y-44.297 z-0.500
x15.642 y-44.343 z-0.500
x15.676 y-44.387 z-0.500
x15.712 y-44.431 z-0.500
x15.749 y-44.473 z-0.500
x15.788 y-44.513 z-0.500
x15.829 y-44.553 z-0.500
x15.871 y-44.591 z-0.500
x15.914 y-44.627 z-0.500
x15.958 y-44.662 z-0.500
x16.003 y-44.695 z-0.500
x16.050 y-44.727 z-0.500
x16.098 y-44.756 z-0.500
x16.147 y-44.785 z-0.500
x16.196 y-44.811 z-0.500
x16.247 y-44.836 z-0.500
x16.299 y-44.859 z-0.500
x16.351 y-44.880 z-0.500
x16.404 y-44.899 z-0.500
x16.458 y-44.916 z-0.500
x16.512 y-44.931 z-0.500
x16.566 y-44.945 z-0.500
x16.611 y-44.954 z-0.500
x51.386 y-51.759 z-0.500
x51.442 y-51.769 z-0.500
x51.497 y-51.777 z-0.500
x51.553 y-51.783 z-0.500
x51.610 y-51.786 z-0.500
x51.666 y-51.788 z-0.500
x51.722 y-51.788 z-0.500
x51.779 y-51.786 z-0.500

( Lift to 5.000 )
F2000 z5.000

( Path 16 )
( ------------------------- )

( Spindle on )
M3
S500

( Current depth = -0.500 )

( MoveToStartpoint2 )
F2000 G90 z5.000
F2000 x27.276 y-123.401 z5.000
F2000 x27.276 y-123.401 z0.000

( Loop )
G90 F500
x27.276 y-123.401 z-0.500
F500
x27.332 y-123.394 z-0.500
x27.388 y-123.386 z-0.500
x27.443 y-123.376 z-0.500
x27.498 y-123.364 z-0.500
x27.553 y-123.349 z-0.500
x27.607 y-123.333 z-0.500
x27.660 y-123.315 z-0.500
x27.713 y-123.296 z-0.500
x27.765 y-123.274 z-0.500
x27.816 y-123.250 z-0.500
x27.866 y-123.225 z-0.500
x27.916 y-123.198 z-0.500
x27.964 y-123.169 z-0.500
x28.011 y-123.138 z-0.500
x28.058 y-123.106 z-0.500
x28.103 y-123.072 z-0.500
x28.146 y-123.037 z-0.500
x28.189 y-123.000 z-0.500
x28.230 y-122.962 z-0.500
x28.270 y-122.922 z-0.500
x28.308 y-122.880 z-0.500
x28.345 y-122.838 z-0.500
x28.381 y-122.794 z-0.500
x28.414 y-122.749 z-0.500
x28.447 y-122.703 z-0.500
x28.477 y-122.655 z-0.500
x28.506 y-122.607 z-0.500
x28.533 y-122.557 z-0.500
x28.558 y-122.507 z-0.500
x28.582 y-122.456 z-0.500
x28.603 y-122.404 z-0.500
x28.623 y-122.351 z-0.500
x28.641 y-122.298 z-0.500
x28.657 y-122.244 z-0.500
x28.671 y-122.189 z-0.500
x28.683 y-122.134 z-0.500
x28.693 y-122.079 z-0.500
x28.701 y-122.023 z-0.500
x28.708 y-121.967 z-0.500
x28.712 y-121.911 z-0.500
x28.714 y-121.854 z-0.500
x28.715 y-121.820 z-0.500
x28.715 y-112.953 z-0.500
x28.714 y-112.897 z-0.500
x28.711 y-112.840 z-0.500
x28.706 y-112.784 z-0.500
x28.699 y-112.728 z-0.500
x28.690 y-112.673 z-0.500
x28.679 y-112.617 z-0.500
x28.666 y-112.563 z-0.500
x28.651 y-112.508 z-0.500
x28.634 y-112.454 z-0.500
x28.616 y-112.401 z-0.500
x28.595 y-112.349 z-0.500
x28.573 y-112.297 z-0.500
x28.548 y-112.246 z-0.500
x28.522 y-112.196 z-0.500
x28.495 y-112.147 z-0.500
x28.465 y-112.099 z-0.500
x28.434 y-112.052 z-0.500
x28.401 y-112.006 z-0.500
x28.367 y-111.962 z-0.500
x28.331 y-111.918 z-0.500
x28.294 y-111.876 z-0.500
x28.255 y-111.836 z-0.500
x28.214 y-111.796 z-0.500
x28.172 y-111.758 z-0.500
x28.129 y-111.722 z-0.500
x28.085 y-111.687 z-0.500
x28.040 y-111.654 z-0.500
x27.993 y-111.622 z-0.500
x27.945 y-111.593 z-0.500
x27.896 y-111.564 z-0.500
x27.847 y-111.538 z-0.500
x27.796 y-111.513 z-0.500
x27.744 y-111.490 z-0.500
x27.692 y-111.469 z-0.500
x27.639 y-111.450 z-0.500
x27.585 y-111.433 z-0.500
x27.531 y-111.418 z-0.500
x27.472 y-111.404 z-0.500
x26.445 y-111.175 z-0.500
x26.390 y-111.163 z-0.500
x26.332 y-111.154 z-0.500
x25.365 y-111.011 z-0.500
x25.309 y-111.003 z-0.500
x25.238 y-110.997 z-0.500
x24.331 y-110.937 z-0.500
x24.275 y-110.934 z-0.500
x24.192 y-110.934 z-0.500
x23.342 y-110.952 z-0.500
x23.286 y-110.954 z-0.500
x23.230 y-110.958 z-0.500
x23.189 y-110.963 z-0.500
x22.395 y-111.057 z-0.500
x22.340 y-111.064 z-0.500
x22.284 y-111.074 z-0.500
x22.239 y-111.083 z-0.500
x21.499 y-111.247 z-0.500
x21.444 y-111.260 z-0.500
x21.389 y-111.275 z-0.500
x21.331 y-111.294 z-0.500
x20.645 y-111.527 z-0.500
x20.592 y-111.546 z-0.500
x20.540 y-111.567 z-0.500
x20.483 y-111.592 z-0.500
x19.848 y-111.889 z-0.500
x19.798 y-111.914 z-0.500
x19.748 y-111.940 z-0.500
x19.692 y-111.973 z-0.500
x19.107 y-112.331 z-0.500
x19.060 y-112.361 z-0.500
x19.013 y-112.393 z-0.500
x18.963 y-112.431 z-0.500
x18.428 y-112.846 z-0.500
x18.384 y-112.881 z-0.500
x18.341 y-112.918 z-0.500
x18.303 y-112.953 z-0.500
x17.814 y-113.421 z-0.500
x17.774 y-113.461 z-0.500
x17.736 y-113.502 z-0.500
x17.706 y-113.536 z-0.500
x17.263 y-114.054 z-0.500
x17.227 y-114.098 z-0.500
x17.192 y-114.142 z-0.500
x17.172 y-114.171 z-0.500
x16.774 y-114.735 z-0.500
x16.742 y-114.781 z-0.500
x16.702 y-114.847 z-0.500
x16.346 y-115.454 z-0.500
x16.318 y-115.503 z-0.500
x16.288 y-115.562 z-0.500
x15.974 y-116.207 z-0.500
x15.950 y-116.258 z-0.500
x15.928 y-116.309 z-0.500
x15.654 y-116.990 z-0.500
x15.634 y-117.043 z-0.500
x15.620 y-117.084 z-0.500
x15.384 y-117.796 z-0.500
x15.367 y-117.849 z-0.500
x15.358 y-117.883 z-0.500
x15.159 y-118.624 z-0.500
x15.139 y-118.705 z-0.500
x14.976 y-119.470 z-0.500
x14.963 y-119.542 z-0.500
x14.833 y-120.327 z-0.500
x14.823 y-120.398 z-0.500
x14.727 y-121.201 z-0.500
x14.721 y-121.261 z-0.500
x14.655 y-122.077 z-0.500
x14.651 y-122.138 z-0.500
x14.616 y-122.964 z-0.500
x14.615 y-123.009 z-0.500
x14.606 y-123.652 z-0.500
x14.606 y-123.701 z-0.500
x14.623 y-124.700 z-0.500
x14.625 y-124.759 z-0.500
x14.679 y-125.759 z-0.500
x14.683 y-125.819 z-0.500
x14.775 y-126.817 z-0.500
x14.783 y-126.884 z-0.500
x14.917 y-127.876 z-0.500
x14.928 y-127.946 z-0.500
x15.106 y-128.928 z-0.500
x15.122 y-129.005 z-0.500
x15.347 y-129.972 z-0.500
x15.368 y-130.052 z-0.500
x15.642 y-131.001 z-0.500
x15.658 y-131.055 z-0.500
x15.670 y-131.090 z-0.500
x15.997 y-132.016 z-0.500
x16.017 y-132.068 z-0.500
x16.033 y-132.109 z-0.500
x16.416 y-133.009 z-0.500
x16.439 y-133.060 z-0.500
x16.461 y-133.104 z-0.500
x16.901 y-133.973 z-0.500
x16.927 y-134.023 z-0.500
x16.956 y-134.073 z-0.500
x17.457 y-134.908 z-0.500
x17.487 y-134.956 z-0.500
x17.523 y-135.009 z-0.500
x18.087 y-135.805 z-0.500
x18.120 y-135.850 z-0.500
x18.164 y-135.906 z-0.500
x18.794 y-136.659 z-0.500
x18.831 y-136.701 z-0.500
x18.882 y-136.755 z-0.500
x19.580 y-137.462 z-0.500
x19.621 y-137.502 z-0.500
x19.681 y-137.556 z-0.500
x20.452 y-138.212 z-0.500
x20.496 y-138.248 z-0.500
x20.560 y-138.296 z-0.500
x21.404 y-138.897 z-0.500
x21.451 y-138.929 z-0.500
x21.519 y-138.972 z-0.500
x22.440 y-139.515 z-0.500
x22.489 y-139.542 z-0.500
x22.561 y-139.579 z-0.500
x23.562 y-140.058 z-0.500
x23.613 y-140.081 z-0.500
x23.683 y-140.110 z-0.500
x24.766 y-140.522 z-0.500
x24.819 y-140.541 z-0.500
x24.884 y-140.562 z-0.500
x26.052 y-140.904 z-0.500
x26.126 y-140.923 z-0.500
x26.321 y-140.970 z-0.500
x26.376 y-140.983 z-0.500
x26.448 y-140.995 z-0.500
x27.439 y-141.150 z-0.500
x27.494 y-141.158 z-0.500
x27.563 y-141.165 z-0.500
x28.521 y-141.238 z-0.500
x28.578 y-141.241 z-0.500
x28.659 y-141.242 z-0.500
x29.581 y-141.232 z-0.500
x29.638 y-141.231 z-0.500
x29.694 y-141.227 z-0.500
x29.736 y-141.223 z-0.500
x30.617 y-141.127 z-0.500
x30.673 y-141.120 z-0.500
x30.728 y-141.111 z-0.500
x30.780 y-141.101 z-0.500
x31.615 y-140.921 z-0.500
x31.669 y-140.908 z-0.500
x31.724 y-140.893 z-0.500
x31.793 y-140.871 z-0.500
x32.578 y-140.603 z-0.500
x32.631 y-140.584 z-0.500
x32.683 y-140.563 z-0.500
x32.759 y-140.529 z-0.500
x33.489 y-140.174 z-0.500
x33.539 y-140.148 z-0.500
x33.589 y-140.121 z-0.500
x33.637 y-140.092 z-0.500
x33.671 y-140.070 z-0.500
x34.343 y-139.625 z-0.500
x34.390 y-139.593 z-0.500
x34.435 y-139.559 z-0.500
x34.479 y-139.524 z-0.500
x34.516 y-139.493 z-0.500
x35.123 y-138.959 z-0.500
x35.164 y-138.921 z-0.500
x35.204 y-138.882 z-0.500
x35.243 y-138.841 z-0.500
x35.276 y-138.804 z-0.500
x35.816 y-138.178 z-0.500
x35.852 y-138.135 z-0.500
x35.887 y-138.090 z-0.500
x35.919 y-138.044 z-0.500
x35.945 y-138.007 z-0.500
x36.412 y-137.289 z-0.500
x36.442 y-137.241 z-0.500
x36.480 y-137.173 z-0.500
x36.569 y-137.007 z-0.500
x36.593 y-136.960 z-0.500
x37.041 y-136.053 z-0.500
x37.073 y-135.985 z-0.500
x37.469 y-135.077 z-0.500
x37.495 y-135.014 z-0.500
x37.844 y-134.110 z-0.500
x37.863 y-134.057 z-0.500
x38.172 y-133.163 z-0.500
x38.187 y-133.120 z-0.500
x38.463 y-132.241 z-0.500
x38.472 y-132.209 z-0.500
x38.722 y-131.351 z-0.500
x38.728 y-131.330 z-0.500
x38.958 y-130.498 z-0.500
x38.960 y-130.490 z-0.500
x39.175 y-129.694 z-0.500
x39.176 y-129.694 z-0.500
x39.386 y-128.930 z-0.500
x39.385 y-128.930 z-0.500
x39.577 y-128.271 z-0.500
x39.782 y-127.631 z-0.500
x39.986 y-127.077 z-0.500
x40.184 y-126.628 z-0.500
x40.384 y-126.264 z-0.500
x40.567 y-126.007 z-0.500
x40.733 y-125.836 z-0.500
x40.878 y-125.733 z-0.500
x41.020 y-125.671 z-0.500
x41.225 y-125.628 z-0.500
x41.523 y-125.622 z-0.500
x41.863 y-125.668 z-0.500
x42.234 y-125.782 z-0.500
x42.550 y-125.958 z-0.500
x42.860 y-126.216 z-0.500
x43.150 y-126.549 z-0.500
x43.422 y-126.967 z-0.500
x43.654 y-127.436 z-0.500
x43.841 y-127.948 z-0.500
x43.976 y-128.473 z-0.500
x44.055 y-128.976 z-0.500
x44.080 y-129.445 z-0.500
x44.038 y-130.172 z-0.500
x43.923 y-130.773 z-0.500
x43.751 y-131.256 z-0.500
x43.536 y-131.631 z-0.500
x43.297 y-131.901 z-0.500
x43.016 y-132.106 z-0.500
x42.668 y-132.257 z-0.500
x42.222 y-132.348 z-0.500
x41.648 y-132.359 z-0.500
x40.829 y-132.246 z-0.500
x40.773 y-132.240 z-0.500
x40.717 y-132.235 z-0.500
x40.661 y-132.232 z-0.500
x40.605 y-132.232 z-0.500
x40.548 y-132.233 z-0.500
x40.492 y-132.236 z-0.500
x40.436 y-132.241 z-0.500
x40.380 y-132.249 z-0.500
x40.324 y-132.258 z-0.500
x40.269 y-132.269 z-0.500
x40.214 y-132.282 z-0.500
x40.160 y-132.297 z-0.500
x40.106 y-132.314 z-0.500
x40.053 y-132.333 z-0.500
x40.001 y-132.354 z-0.500
x39.949 y-132.377 z-0.500
x39.899 y-132.401 z-0.500
x39.849 y-132.428 z-0.500
x39.800 y-132.456 z-0.500
x39.752 y-132.485 z-0.500
x39.705 y-132.517 z-0.500
x39.660 y-132.550 z-0.500
x39.615 y-132.584 z-0.500
x39.572 y-132.621 z-0.500
x39.530 y-132.658 z-0.500
x39.490 y-132.697 z-0.500
x39.450 y-132.738 z-0.500
x39.413 y-132.780 z-0.500
x39.377 y-132.823 z-0.500
x39.342 y-132.868 z-0.500
x39.309 y-132.913 z-0.500
x39.278 y-132.960 z-0.500
x39.248 y-133.008 z-0.500
x39.220 y-133.057 z-0.500
x39.194 y-133.107 z-0.500
x39.170 y-133.158 z-0.500
x39.147 y-133.209 z-0.500
x39.127 y-133.262 z-0.500
x39.108 y-133.315 z-0.500
x39.091 y-133.369 z-0.500
x39.076 y-133.423 z-0.500
x39.063 y-133.478 z-0.500
x39.051 y-133.533 z-0.500
x39.042 y-133.589 z-0.500
x39.035 y-133.644 z-0.500
x39.030 y-133.701 z-0.500
x39.027 y-133.757 z-0.500
x39.026 y-133.819 z-0.500
x39.026 y-142.742 z-0.500
x39.029 y-142.799 z-0.500
x39.034 y-142.855 z-0.500
x39.041 y-142.911 z-0.500
x39.050 y-142.966 z-0.500
x39.061 y-143.022 z-0.500
x39.074 y-143.076 z-0.500
x39.089 y-143.131 z-0.500
x39.106 y-143.185 z-0.500
x39.124 y-143.238 z-0.500
x39.145 y-143.290 z-0.500
x39.167 y-143.342 z-0.500
x39.192 y-143.393 z-0.500
x39.218 y-143.443 z-0.500
x39.245 y-143.492 z-0.500
x39.275 y-143.540 z-0.500
x39.306 y-143.587 z-0.500
x39.339 y-143.633 z-0.500
x39.373 y-143.677 z-0.500
x39.409 y-143.721 z-0.500
x39.446 y-143.763 z-0.500
x39.485 y-143.803 z-0.500
x39.526 y-143.843 z-0.500
x39.568 y-143.881 z-0.500
x39.611 y-143.917 z-0.500
x39.655 y-143.952 z-0.500
x39.700 y-143.985 z-0.500
x39.747 y-144.017 z-0.500
x39.795 y-144.046 z-0.500
x39.844 y-144.075 z-0.500
x39.893 y-144.101 z-0.500
x39.944 y-144.126 z-0.500
x39.996 y-144.149 z-0.500
x40.048 y-144.170 z-0.500
x40.101 y-144.189 z-0.500
x40.155 y-144.206 z-0.500
x40.209 y-144.221 z-0.500
x40.263 y-144.235 z-0.500
x40.319 y-144.246 z-0.500
x40.371 y-144.255 z-0.500
x41.414 y-144.416 z-0.500
x41.470 y-144.424 z-0.500
x41.500 y-144.427 z-0.500
x42.483 y-144.524 z-0.500
x42.539 y-144.528 z-0.500
x42.582 y-144.530 z-0.500
x43.507 y-144.563 z-0.500
x43.564 y-144.564 z-0.500
x43.615 y-144.564 z-0.500
x44.484 y-144.536 z-0.500
x44.540 y-144.533 z-0.500
x44.600 y-144.528 z-0.500
x45.415 y-144.442 z-0.500
x45.471 y-144.435 z-0.500
x45.543 y-144.423 z-0.500
x46.304 y-144.279 z-0.500
x46.359 y-144.267 z-0.500
x46.436 y-144.248 z-0.500
x47.145 y-144.050 z-0.500
x47.199 y-144.034 z-0.500
x47.252 y-144.016 z-0.500
x47.280 y-144.006 z-0.500
x47.940 y-143.756 z-0.500
x47.993 y-143.735 z-0.500
x48.044 y-143.712 z-0.500
x48.080 y-143.695 z-0.500
x48.690 y-143.394 z-0.500
x48.741 y-143.368 z-0.500
x48.790 y-143.340 z-0.500
x48.823 y-143.320 z-0.500
x49.387 y-142.971 z-0.500
x49.435 y-142.940 z-0.500
x49.481 y-142.908 z-0.500
x49.515 y-142.883 z-0.500
x50.033 y-142.488 z-0.500
x50.077 y-142.453 z-0.500
x50.120 y-142.417 z-0.500
x50.150 y-142.389 z-0.500
x50.624 y-141.949 z-0.500
x50.665 y-141.910 z-0.500
x50.704 y-141.870 z-0.500
x50.725 y-141.847 z-0.500
x51.157 y-141.366 z-0.500
x51.194 y-141.323 z-0.500
x51.246 y-141.258 z-0.500
x51.637 y-140.737 z-0.500
x51.670 y-140.691 z-0.500
x51.711 y-140.628 z-0.500
x52.062 y-140.069 z-0.500
x52.092 y-140.021 z-0.500
x52.123 y-139.964 z-0.500
x52.436 y-139.369 z-0.500
x52.461 y-139.319 z-0.500
x52.483 y-139.271 z-0.500
x52.760 y-138.643 z-0.500
x52.782 y-138.591 z-0.500
x52.798 y-138.550 z-0.500
x53.041 y-137.890 z-0.500
x53.059 y-137.837 z-0.500
x53.070 y-137.803 z-0.500
x53.279 y-137.115 z-0.500
x53.301 y-137.035 z-0.500
x53.478 y-136.319 z-0.500
x53.494 y-136.247 z-0.500
x53.641 y-135.505 z-0.500
x53.653 y-135.440 z-0.500
x53.772 y-134.676 z-0.500
x53.780 y-134.615 z-0.500
x53.871 y-133.830 z-0.500
x53.876 y-133.777 z-0.500
x53.942 y-132.974 z-0.500
x53.946 y-132.923 z-0.500
x53.987 y-132.102 z-0.500
x53.988 y-132.059 z-0.500
x54.007 y-131.224 z-0.500
x54.007 y-131.197 z-0.500
x54.009 y-130.858 z-0.500
x54.009 y-130.816 z-0.500
x53.988 y-129.814 z-0.500
x53.985 y-129.745 z-0.500
x53.921 y-128.748 z-0.500
x53.915 y-128.679 z-0.500
x53.808 y-127.689 z-0.500
x53.799 y-127.620 z-0.500
x53.649 y-126.640 z-0.500
x53.637 y-126.569 z-0.500
x53.444 y-125.604 z-0.500
x53.427 y-125.530 z-0.500
x53.190 y-124.581 z-0.500
x53.170 y-124.506 z-0.500
x52.889 y-123.577 z-0.500
x52.864 y-123.502 z-0.500
x52.540 y-122.597 z-0.500
x52.520 y-122.544 z-0.500
x52.509 y-122.518 z-0.500
x52.140 y-121.639 z-0.500
x52.117 y-121.587 z-0.500
x52.104 y-121.559 z-0.500
x51.691 y-120.710 z-0.500
x51.665 y-120.659 z-0.500
x51.648 y-120.628 z-0.500
x51.191 y-119.813 z-0.500
x51.162 y-119.764 z-0.500
x51.141 y-119.730 z-0.500
x50.639 y-118.950 z-0.500
x50.608 y-118.903 z-0.500
x50.581 y-118.865 z-0.500
x50.034 y-118.125 z-0.500
x49.999 y-118.081 z-0.500
x49.967 y-118.041 z-0.500
x49.375 y-117.344 z-0.500
x49.338 y-117.302 z-0.500
x49.300 y-117.262 z-0.500
x48.662 y-116.610 z-0.500
x48.622 y-116.570 z-0.500
x48.577 y-116.529 z-0.500
x47.894 y-115.927 z-0.500
x47.851 y-115.891 z-0.500
x47.801 y-115.852 z-0.500
x47.072 y-115.301 z-0.500
x47.027 y-115.267 z-0.500
x46.968 y-115.228 z-0.500
x46.193 y-114.734 z-0.500
x46.145 y-114.705 z-0.500
x46.085 y-114.671 z-0.500
x45.264 y-114.235 z-0.500
x45.213 y-114.209 z-0.500
x45.148 y-114.179 z-0.500
x44.281 y-113.805 z-0.500
x44.229 y-113.784 z-0.500
x44.160 y-113.759 z-0.500
x43.246 y-113.450 z-0.500
x43.193 y-113.433 z-0.500
x43.123 y-113.414 z-0.500
x42.162 y-113.174 z-0.500
x42.094 y-113.159 z-0.500
x41.942 y-113.128 z-0.500
x41.879 y-113.116 z-0.500
x40.825 y-112.945 z-0.500
x40.769 y-112.937 z-0.500
x40.716 y-112.931 z-0.500
x39.738 y-112.841 z-0.500
x39.682 y-112.837 z-0.500
x39.614 y-112.835 z-0.500
x38.709 y-112.823 z-0.500
x38.653 y-112.823 z-0.500
x38.570 y-112.827 z-0.500
x37.735 y-112.889 z-0.500
x37.679 y-112.894 z-0.500
x37.623 y-112.901 z-0.500
x37.589 y-112.907 z-0.500
x36.819 y-113.037 z-0.500
x36.763 y-113.047 z-0.500
x36.708 y-113.059 z-0.500
x36.661 y-113.072 z-0.500
x35.954 y-113.267 z-0.500
x35.900 y-113.283 z-0.500
x35.846 y-113.300 z-0.500
x35.795 y-113.320 z-0.500
x35.147 y-113.575 z-0.500
x35.095 y-113.596 z-0.500
x35.043 y-113.620 z-0.500
x34.988 y-113.648 z-0.500
x34.396 y-113.960 z-0.500
x34.346 y-113.987 z-0.500
x34.298 y-114.016 z-0.500
x34.250 y-114.047 z-0.500
x33.710 y-114.410 z-0.500
x33.664 y-114.442 z-0.500
x33.619 y-114.476 z-0.500
x33.577 y-114.510 z-0.500
x33.086 y-114.921 z-0.500
x33.043 y-114.958 z-0.500
x33.002 y-114.996 z-0.500
x32.970 y-115.028 z-0.500
x32.525 y-115.483 z-0.500
x32.486 y-115.524 z-0.500
x32.449 y-115.566 z-0.500
x32.430 y-115.589 z-0.500
x32.027 y-116.083 z-0.500
x31.992 y-116.128 z-0.500
x31.950 y-116.185 z-0.500
x31.585 y-116.714 z-0.500
x31.554 y-116.761 z-0.500
x31.524 y-116.811 z-0.500
x31.195 y-117.370 z-0.500
x31.167 y-117.419 z-0.500
x31.148 y-117.455 z-0.500
x30.850 y-118.041 z-0.500
x30.825 y-118.092 z-0.500
x30.813 y-118.120 z-0.500
x30.544 y-118.729 z-0.500
x30.517 y-118.793 z-0.500
x30.273 y-119.419 z-0.500
x30.252 y-119.476 z-0.500
x30.030 y-120.116 z-0.500
x30.016 y-120.160 z-0.500
x29.812 y-120.809 z-0.500
x29.801 y-120.845 z-0.500
x29.612 y-121.500 z-0.500
x29.605 y-121.524 z-0.500
x29.427 y-122.180 z-0.500
x29.423 y-122.195 z-0.500
x29.253 y-122.847 z-0.500
x29.251 y-122.855 z-0.500
x29.086 y-123.500 z-0.500
x28.923 y-124.128 z-0.500
x28.767 y-124.708 z-0.500
x28.634 y-125.175 z-0.500
x28.447 y-125.783 z-0.500
x28.230 y-126.434 z-0.500
x28.009 y-127.012 z-0.500
x27.779 y-127.509 z-0.500
x27.535 y-127.916 z-0.500
x27.311 y-128.192 z-0.500
x27.124 y-128.347 z-0.500
x26.955 y-128.429 z-0.500
x26.751 y-128.466 z-0.500
x26.408 y-128.438 z-0.500
x26.195 y-128.375 z-0.500
x25.941 y-128.247 z-0.500
x25.678 y-128.059 z-0.500
x25.422 y-127.815 z-0.500
x25.171 y-127.503 z-0.500
x24.951 y-127.153 z-0.500
x24.770 y-126.771 z-0.500
x24.638 y-126.374 z-0.500
x24.556 y-125.970 z-0.500
x24.525 y-125.536 z-0.500
x24.534 y-125.216 z-0.500
x24.559 y-124.910 z-0.500
x24.602 y-124.618 z-0.500
x24.657 y-124.369 z-0.500
x24.718 y-124.165 z-0.500
x24.788 y-123.991 z-0.500
x24.861 y-123.849 z-0.500
x24.933 y-123.739 z-0.500
x25.001 y-123.656 z-0.500
x25.096 y-123.565 z-0.500
x25.201 y-123.480 z-0.500
x25.298 y-123.418 z-0.500
x25.389 y-123.373 z-0.500
x25.505 y-123.332 z-0.500
x25.635 y-123.301 z-0.500
x25.809 y-123.278 z-0.500
x25.993 y-123.271 z-0.500
x26.221 y-123.281 z-0.500
x26.489 y-123.314 z-0.500
x26.827 y-123.379 z-0.500
x26.883 y-123.389 z-0.500
x26.938 y-123.396 z-0.500
x26.994 y-123.402 z-0.500
x27.051 y-123.406 z-0.500
x27.107 y-123.407 z-0.500
x27.163 y-123.407 z-0.500
x27.220 y-123.405 z-0.500
x27.276 y-123.401 z-0.500

( Lift to 5.000 )
F2000 z5.000

( Path 2 )
( ------------------------- )

( Spindle on )
M3
S500

( Current depth = -0.500 )

( MoveToStartpoint2 )
F2000 G90 z5.000
F2000 x32.292 y-156.258 z5.000
F2000 x32.292 y-156.258 z0.000

( Loop )
G90 F500
x32.292 y-156.258 z-0.500
F500
x32.331 y-156.298 z-0.500
x32.361 y-156.328 z-0.500
x32.403 y-156.366 z-0.500
x32.445 y-156.403 z-0.500
x32.489 y-156.438 z-0.500
x32.535 y-156.472 z-0.500
x32.537 y-156.473 z-0.500
x32.546 y-156.480 z-0.500
x32.593 y-156.512 z-0.500
x32.641 y-156.541 z-0.500
x32.677 y-156.563 z-0.500
x32.690 y-156.570 z-0.500
x32.739 y-156.596 z-0.500
x32.777 y-156.615 z-0.500
x32.828 y-156.638 z-0.500
x32.833 y-156.640 z-0.500
x32.842 y-156.644 z-0.500
x32.894 y-156.665 z-0.500
x32.947 y-156.684 z-0.500
x32.965 y-156.690 z-0.500
x32.987 y-156.697 z-0.500
x33.001 y-156.701 z-0.500
x33.055 y-156.716 z-0.500
x33.109 y-156.730 z-0.500
x33.165 y-156.741 z-0.500
x33.190 y-156.745 z-0.500
x33.206 y-156.748 z-0.500
x33.276 y-156.758 z-0.500
x33.304 y-156.761 z-0.500
x33.388 y-156.767 z-0.500
x33.459 y-156.769 z-0.500
x35.378 y-156.769 z-0.500
x35.434 y-156.768 z-0.500
x35.491 y-156.765 z-0.500
x35.547 y-156.760 z-0.500
x35.603 y-156.753 z-0.500
x35.658 y-156.744 z-0.500
x35.714 y-156.733 z-0.500
x35.768 y-156.720 z-0.500
x35.823 y-156.705 z-0.500
x35.877 y-156.688 z-0.500
x35.930 y-156.670 z-0.500
x35.982 y-156.649 z-0.500
x36.034 y-156.627 z-0.500
x36.085 y-156.602 z-0.500
x36.135 y-156.576 z-0.500
x36.184 y-156.549 z-0.500
x36.232 y-156.519 z-0.500
x36.279 y-156.488 z-0.500
x36.325 y-156.455 z-0.500
x36.369 y-156.421 z-0.500
x36.413 y-156.385 z-0.500
x36.455 y-156.348 z-0.500
x36.495 y-156.309 z-0.500
x36.535 y-156.268 z-0.500
x36.573 y-156.226 z-0.500
x36.609 y-156.183 z-0.500
x36.644 y-156.139 z-0.500
x36.677 y-156.094 z-0.500
x36.709 y-156.047 z-0.500
x36.738 y-155.999 z-0.500
x36.767 y-155.950 z-0.500
x36.793 y-155.901 z-0.500
x36.818 y-155.850 z-0.500
x36.841 y-155.798 z-0.500
x36.862 y-155.746 z-0.500
x36.881 y-155.693 z-0.500
x36.898 y-155.639 z-0.500
x36.913 y-155.585 z-0.500
x36.927 y-155.531 z-0.500
x36.938 y-155.475 z-0.500
x36.947 y-155.420 z-0.500
x36.955 y-155.364 z-0.500
x36.960 y-155.308 z-0.500
x36.964 y-155.252 z-0.500
x36.966 y-155.181 z-0.500
x36.966 y-145.114 z-0.500
x36.965 y-145.058 z-0.500
x36.962 y-145.001 z-0.500
x36.957 y-144.945 z-0.500
x36.950 y-144.889 z-0.500
x36.941 y-144.834 z-0.500
x36.930 y-144.778 z-0.500
x36.917 y-144.724 z-0.500
x36.902 y-144.669 z-0.500
x36.885 y-144.615 z-0.500
x36.867 y-144.562 z-0.500
x36.846 y-144.510 z-0.500
x36.824 y-144.458 z-0.500
x36.799 y-144.407 z-0.500
x36.773 y-144.357 z-0.500
x36.746 y-144.308 z-0.500
x36.716 y-144.260 z-0.500
x36.685 y-144.213 z-0.500
x36.652 y-144.167 z-0.500
x36.618 y-144.123 z-0.500
x36.582 y-144.079 z-0.500
x36.545 y-144.037 z-0.500
x36.506 y-143.997 z-0.500
x36.465 y-143.957 z-0.500
x36.423 y-143.919 z-0.500
x36.380 y-143.883 z-0.500
x36.336 y-143.848 z-0.500
x36.291 y-143.815 z-0.500
x36.244 y-143.783 z-0.500
x36.196 y-143.754 z-0.500
x36.147 y-143.725 z-0.500
x36.098 y-143.699 z-0.500
x36.047 y-143.674 z-0.500
x35.995 y-143.651 z-0.500
x35.943 y-143.630 z-0.500
x35.890 y-143.611 z-0.500
x35.836 y-143.594 z-0.500
x35.782 y-143.579 z-0.500
x35.728 y-143.565 z-0.500
x35.672 y-143.554 z-0.500
x35.617 y-143.545 z-0.500
x35.561 y-143.537 z-0.500
x35.505 y-143.532 z-0.500
x35.449 y-143.528 z-0.500
x35.378 y-143.527 z-0.500
x33.403 y-143.527 z-0.500
x33.346 y-143.530 z-0.500
x33.290 y-143.535 z-0.500
x33.234 y-143.542 z-0.500
x33.179 y-143.551 z-0.500
x33.123 y-143.562 z-0.500
x33.069 y-143.575 z-0.500
x33.014 y-143.590 z-0.500
x32.960 y-143.607 z-0.500
x32.907 y-143.625 z-0.500
x32.855 y-143.646 z-0.500
x32.803 y-143.668 z-0.500
x32.752 y-143.693 z-0.500
x32.702 y-143.719 z-0.500
x32.653 y-143.746 z-0.500
x32.605 y-143.776 z-0.500
x32.558 y-143.807 z-0.500
x32.512 y-143.840 z-0.500
x32.468 y-143.874 z-0.500
x32.424 y-143.910 z-0.500
x32.382 y-143.947 z-0.500
x32.342 y-143.986 z-0.500
x32.302 y-144.027 z-0.500
x32.264 y-144.069 z-0.500
x32.228 y-144.112 z-0.500
x32.193 y-144.156 z-0.500
x32.160 y-144.201 z-0.500
x32.128 y-144.248 z-0.500
x32.099 y-144.296 z-0.500
x32.070 y-144.345 z-0.500
x32.044 y-144.394 z-0.500
x32.019 y-144.445 z-0.500
x31.996 y-144.497 z-0.500
x31.975 y-144.549 z-0.500
x31.956 y-144.602 z-0.500
x31.939 y-144.656 z-0.500
x31.924 y-144.710 z-0.500
x31.910 y-144.764 z-0.500
x31.899 y-144.820 z-0.500
x31.890 y-144.875 z-0.500
x31.882 y-144.931 z-0.500
x31.877 y-144.987 z-0.500
x31.873 y-145.043 z-0.500
x31.872 y-145.114 z-0.500
x31.872 y-155.237 z-0.500
x31.875 y-155.294 z-0.500
x31.880 y-155.350 z-0.500
x31.887 y-155.406 z-0.500
x31.896 y-155.461 z-0.500
x31.907 y-155.517 z-0.500
x31.920 y-155.571 z-0.500
x31.935 y-155.626 z-0.500
x31.939 y-155.639 z-0.500
x31.947 y-155.666 z-0.500
x31.952 y-155.680 z-0.500
x31.970 y-155.733 z-0.500
x31.991 y-155.785 z-0.500
x31.996 y-155.798 z-0.500
x32.007 y-155.824 z-0.500
x32.031 y-155.875 z-0.500
x32.057 y-155.925 z-0.500
x32.084 y-155.974 z-0.500
x32.091 y-155.987 z-0.500
x32.104 y-156.008 z-0.500
x32.113 y-156.023 z-0.500
x32.144 y-156.070 z-0.500
x32.176 y-156.116 z-0.500
x32.210 y-156.161 z-0.500
x32.255 y-156.216 z-0.500
x32.292 y-156.258 z-0.500

( Lift to 5.000 )
F2000 z5.000

( Path 3 )
( ------------------------- )

( Spindle on )
M3
S500

( Current depth = -0.500 )

( MoveToStartpoint2 )
F2000 G90 z5.000
F2000 x49.316 y-156.258 z5.000
F2000 x49.316 y-156.258 z0.000

( Loop )
G90 F500
x49.316 y-156.258 z-0.500
F500
x49.355 y-156.298 z-0.500
x49.385 y-156.328 z-0.500
x49.427 y-156.366 z-0.500
x49.469 y-156.403 z-0.500
x49.513 y-156.438 z-0.500
x49.559 y-156.472 z-0.500
x49.561 y-156.473 z-0.500
x49.570 y-156.480 z-0.500
x49.617 y-156.512 z-0.500
x49.665 y-156.541 z-0.500
x49.701 y-156.563 z-0.500
x49.714 y-156.570 z-0.500
x49.763 y-156.596 z-0.500
x49.801 y-156.615 z-0.500
x49.852 y-156.638 z-0.500
x49.857 y-156.640 z-0.500
x49.866 y-156.644 z-0.500
x49.918 y-156.665 z-0.500
x49.971 y-156.684 z-0.500
x49.989 y-156.690 z-0.500
x50.011 y-156.697 z-0.500
x50.025 y-156.701 z-0.500
x50.079 y-156.716 z-0.500
x50.133 y-156.730 z-0.500
x50.189 y-156.741 z-0.500
x50.214 y-156.745 z-0.500
x50.230 y-156.748 z-0.500
x50.300 y-156.758 z-0.500
x50.328 y-156.761 z-0.500
x50.412 y-156.767 z-0.500
x50.483 y-156.769 z-0.500
x52.402 y-156.769 z-0.500
x52.458 y-156.768 z-0.500
x52.515 y-156.765 z-0.500
x52.571 y-156.760 z-0.500
x52.627 y-156.753 z-0.500
x52.682 y-156.744 z-0.500
x52.738 y-156.733 z-0.500
x52.792 y-156.720 z-0.500
x52.847 y-156.705 z-0.500
x52.901 y-156.688 z-0.500
x52.954 y-156.670 z-0.500
x53.006 y-156.649 z-0.500
x53.058 y-156.627 z-0.500
x53.109 y-156.602 z-0.500
x53.159 y-156.576 z-0.500
x53.208 y-156.549 z-0.500
x53.256 y-156.519 z-0.500
x53.303 y-156.488 z-0.500
x53.349 y-156.455 z-0.500
x53.393 y-156.421 z-0.500
x53.437 y-156.385 z-0.500
x53.479 y-156.348 z-0.500
x53.519 y-156.309 z-0.500
x53.559 y-156.268 z-0.500
x53.597 y-156.226 z-0.500
x53.633 y-156.183 z-0.500
x53.668 y-156.139 z-0.500
x53.701 y-156.094 z-0.500
x53.733 y-156.047 z-0.500
x53.762 y-155.999 z-0.500
x53.791 y-155.950 z-0.500
x53.817 y-155.901 z-0.500
x53.842 y-155.850 z-0.500
x53.865 y-155.798 z-0.500
x53.886 y-155.746 z-0.500
x53.905 y-155.693 z-0.500
x53.922 y-155.639 z-0.500
x53.937 y-155.585 z-0.500
x53.951 y-155.531 z-0.500
x53.962 y-155.475 z-0.500
x53.971 y-155.420 z-0.500
x53.979 y-155.364 z-0.500
x53.984 y-155.308 z-0.500
x53.988 y-155.252 z-0.500
x53.990 y-155.181 z-0.500
x53.990 y-145.111 z-0.500
x53.989 y-145.055 z-0.500
x53.986 y-144.998 z-0.500
x53.981 y-144.942 z-0.500
x53.974 y-144.886 z-0.500
x53.965 y-144.831 z-0.500
x53.954 y-144.775 z-0.500
x53.941 y-144.721 z-0.500
x53.926 y-144.666 z-0.500
x53.909 y-144.612 z-0.500
x53.891 y-144.559 z-0.500
x53.870 y-144.507 z-0.500
x53.848 y-144.455 z-0.500
x53.823 y-144.404 z-0.500
x53.797 y-144.354 z-0.500
x53.770 y-144.305 z-0.500
x53.740 y-144.257 z-0.500
x53.709 y-144.210 z-0.500
x53.676 y-144.164 z-0.500
x53.642 y-144.120 z-0.500
x53.606 y-144.076 z-0.500
x53.569 y-144.034 z-0.500
x53.530 y-143.994 z-0.500
x53.489 y-143.954 z-0.500
x53.447 y-143.916 z-0.500
x53.404 y-143.880 z-0.500
x53.360 y-143.845 z-0.500
x53.315 y-143.812 z-0.500
x53.268 y-143.780 z-0.500
x53.220 y-143.751 z-0.500
x53.171 y-143.722 z-0.500
x53.122 y-143.696 z-0.500
x53.071 y-143.671 z-0.500
x53.019 y-143.648 z-0.500
x52.967 y-143.627 z-0.500
x52.914 y-143.608 z-0.500
x52.860 y-143.591 z-0.500
x52.806 y-143.576 z-0.500
x52.752 y-143.562 z-0.500
x52.696 y-143.551 z-0.500
x52.641 y-143.542 z-0.500
x52.585 y-143.534 z-0.500
x52.529 y-143.529 z-0.500
x52.473 y-143.525 z-0.500
x52.402 y-143.524 z-0.500
x50.427 y-143.524 z-0.500
x50.370 y-143.527 z-0.500
x50.314 y-143.532 z-0.500
x50.258 y-143.539 z-0.500
x50.203 y-143.548 z-0.500
x50.147 y-143.559 z-0.500
x50.093 y-143.572 z-0.500
x50.038 y-143.587 z-0.500
x49.984 y-143.604 z-0.500
x49.931 y-143.622 z-0.500
x49.879 y-143.643 z-0.500
x49.827 y-143.665 z-0.500
x49.776 y-143.690 z-0.500
x49.726 y-143.716 z-0.500
x49.677 y-143.743 z-0.500
x49.629 y-143.773 z-0.500
x49.582 y-143.804 z-0.500
x49.536 y-143.837 z-0.500
x49.492 y-143.871 z-0.500
x49.448 y-143.907 z-0.500
x49.406 y-143.944 z-0.500
x49.366 y-143.983 z-0.500
x49.326 y-144.024 z-0.500
x49.288 y-144.066 z-0.500
x49.252 y-144.109 z-0.500
x49.217 y-144.153 z-0.500
x49.184 y-144.198 z-0.500
x49.152 y-144.245 z-0.500
x49.123 y-144.293 z-0.500
x49.094 y-144.342 z-0.500
x49.068 y-144.391 z-0.500
x49.043 y-144.442 z-0.500
x49.020 y-144.494 z-0.500
x48.999 y-144.546 z-0.500
x48.980 y-144.599 z-0.500
x48.963 y-144.653 z-0.500
x48.948 y-144.707 z-0.500
x48.934 y-144.761 z-0.500
x48.923 y-144.817 z-0.500
x48.914 y-144.872 z-0.500
x48.906 y-144.928 z-0.500
x48.901 y-144.984 z-0.500
x48.897 y-145.040 z-0.500
x48.896 y-145.111 z-0.500
x48.896 y-155.237 z-0.500
x48.899 y-155.294 z-0.500
x48.904 y-155.350 z-0.500
x48.911 y-155.406 z-0.500
x48.920 y-155.461 z-0.500
x48.931 y-155.517 z-0.500
x48.944 y-155.571 z-0.500
x48.959 y-155.626 z-0.500
x48.963 y-155.639 z-0.500
x48.971 y-155.666 z-0.500
x48.976 y-155.680 z-0.500
x48.994 y-155.733 z-0.500
x49.015 y-155.785 z-0.500
x49.020 y-155.798 z-0.500
x49.031 y-155.824 z-0.500
x49.055 y-155.875 z-0.500
x49.081 y-155.925 z-0.500
x49.108 y-155.974 z-0.500
x49.115 y-155.987 z-0.500
x49.128 y-156.008 z-0.500
x49.137 y-156.023 z-0.500
x49.168 y-156.070 z-0.500
x49.200 y-156.116 z-0.500
x49.234 y-156.161 z-0.500
x49.279 y-156.216 z-0.500
x49.316 y-156.258 z-0.500

( Lift to 5.000 )
F2000 z5.000

( Path 4 )
( ------------------------- )

( Spindle on )
M3
S500

( Current depth = -0.500 )

( MoveToStartpoint2 )
F2000 G90 z5.000
F2000 x42.028 y-156.774 z5.000
F2000 x42.028 y-156.774 z0.000

( Loop )
G90 F500
x42.028 y-156.774 z-0.500
F500
x42.046 y-156.776 z-0.500
x42.079 y-156.781 z-0.500
x42.105 y-156.783 z-0.500
x42.140 y-156.787 z-0.500
x42.176 y-156.789 z-0.500
x42.191 y-156.790 z-0.500
x42.262 y-156.792 z-0.500
x44.182 y-156.792 z-0.500
x44.238 y-156.791 z-0.500
x44.295 y-156.788 z-0.500
x44.351 y-156.783 z-0.500
x44.407 y-156.776 z-0.500
x44.462 y-156.767 z-0.500
x44.518 y-156.756 z-0.500
x44.572 y-156.743 z-0.500
x44.627 y-156.728 z-0.500
x44.681 y-156.711 z-0.500
x44.734 y-156.693 z-0.500
x44.786 y-156.672 z-0.500
x44.838 y-156.650 z-0.500
x44.889 y-156.625 z-0.500
x44.939 y-156.599 z-0.500
x44.988 y-156.572 z-0.500
x45.036 y-156.542 z-0.500
x45.083 y-156.511 z-0.500
x45.129 y-156.478 z-0.500
x45.173 y-156.444 z-0.500
x45.217 y-156.408 z-0.500
x45.259 y-156.371 z-0.500
x45.299 y-156.332 z-0.500
x45.317 y-156.313 z-0.500
x45.336 y-156.295 z-0.500
x45.375 y-156.254 z-0.500
x45.412 y-156.212 z-0.500
x45.448 y-156.169 z-0.500
x45.482 y-156.124 z-0.500
x45.515 y-156.078 z-0.500
x45.546 y-156.031 z-0.500
x45.575 y-155.983 z-0.500
x45.603 y-155.934 z-0.500
x45.628 y-155.884 z-0.500
x45.652 y-155.833 z-0.500
x45.675 y-155.781 z-0.500
x45.695 y-155.729 z-0.500
x45.714 y-155.675 z-0.500
x45.730 y-155.621 z-0.500
x45.745 y-155.567 z-0.500
x45.758 y-155.512 z-0.500
x45.768 y-155.457 z-0.500
x45.777 y-155.401 z-0.500
x45.784 y-155.345 z-0.500
x45.789 y-155.289 z-0.500
x45.792 y-155.233 z-0.500
x45.792 y-155.177 z-0.500
x45.770 y-145.595 z-0.500
x45.770 y-145.163 z-0.500
x45.769 y-145.107 z-0.500
x45.766 y-145.050 z-0.500
x45.761 y-144.994 z-0.500
x45.754 y-144.938 z-0.500
x45.745 y-144.883 z-0.500
x45.734 y-144.827 z-0.500
x45.721 y-144.773 z-0.500
x45.706 y-144.718 z-0.500
x45.689 y-144.664 z-0.500
x45.671 y-144.611 z-0.500
x45.658 y-144.578 z-0.500
x45.649 y-144.555 z-0.500
x45.645 y-144.546 z-0.500
x45.628 y-144.507 z-0.500
x45.613 y-144.477 z-0.500
x45.602 y-144.453 z-0.500
x45.576 y-144.403 z-0.500
x45.558 y-144.371 z-0.500
x45.550 y-144.357 z-0.500
x45.520 y-144.309 z-0.500
x45.518 y-144.306 z-0.500
x45.487 y-144.259 z-0.500
x45.456 y-144.216 z-0.500
x45.422 y-144.172 z-0.500
x45.386 y-144.128 z-0.500
x45.349 y-144.086 z-0.500
x45.310 y-144.046 z-0.500
x45.307 y-144.043 z-0.500
x45.267 y-144.004 z-0.500
x45.225 y-143.966 z-0.500
x45.182 y-143.930 z-0.500
x45.137 y-143.895 z-0.500
x45.092 y-143.862 z-0.500
x45.045 y-143.830 z-0.500
x44.997 y-143.801 z-0.500
x44.986 y-143.795 z-0.500
x44.951 y-143.774 z-0.500
x44.902 y-143.748 z-0.500
x44.851 y-143.723 z-0.500
x44.799 y-143.700 z-0.500
x44.747 y-143.679 z-0.500
x44.744 y-143.678 z-0.500
x44.691 y-143.659 z-0.500
x44.637 y-143.642 z-0.500
x44.583 y-143.627 z-0.500
x44.573 y-143.625 z-0.500
x44.532 y-143.614 z-0.500
x44.492 y-143.606 z-0.500
x44.473 y-143.602 z-0.500
x44.417 y-143.593 z-0.500
x44.393 y-143.590 z-0.500
x44.365 y-143.586 z-0.500
x44.341 y-143.584 z-0.500
x44.305 y-143.580 z-0.500
x44.265 y-143.578 z-0.500
x44.253 y-143.577 z-0.500
x44.182 y-143.576 z-0.500
x42.206 y-143.576 z-0.500
x42.149 y-143.579 z-0.500
x42.093 y-143.584 z-0.500
x42.037 y-143.591 z-0.500
x41.982 y-143.600 z-0.500
x41.926 y-143.611 z-0.500
x41.872 y-143.624 z-0.500
x41.817 y-143.639 z-0.500
x41.763 y-143.656 z-0.500
x41.710 y-143.674 z-0.500
x41.658 y-143.695 z-0.500
x41.606 y-143.717 z-0.500
x41.555 y-143.742 z-0.500
x41.505 y-143.768 z-0.500
x41.456 y-143.795 z-0.500
x41.408 y-143.825 z-0.500
x41.361 y-143.856 z-0.500
x41.315 y-143.889 z-0.500
x41.271 y-143.923 z-0.500
x41.227 y-143.959 z-0.500
x41.185 y-143.996 z-0.500
x41.145 y-144.035 z-0.500
x41.105 y-144.076 z-0.500
x41.067 y-144.118 z-0.500
x41.031 y-144.161 z-0.500
x40.996 y-144.205 z-0.500
x40.963 y-144.250 z-0.500
x40.931 y-144.297 z-0.500
x40.902 y-144.345 z-0.500
x40.873 y-144.394 z-0.500
x40.847 y-144.443 z-0.500
x40.822 y-144.494 z-0.500
x40.799 y-144.546 z-0.500
x40.778 y-144.598 z-0.500
x40.759 y-144.651 z-0.500
x40.742 y-144.705 z-0.500
x40.727 y-144.759 z-0.500
x40.713 y-144.813 z-0.500
x40.702 y-144.869 z-0.500
x40.693 y-144.924 z-0.500
x40.685 y-144.980 z-0.500
x40.680 y-145.036 z-0.500
x40.676 y-145.092 z-0.500
x40.675 y-145.163 z-0.500
x40.675 y-155.260 z-0.500
x40.678 y-155.317 z-0.500
x40.683 y-155.373 z-0.500
x40.690 y-155.429 z-0.500
x40.699 y-155.484 z-0.500
x40.710 y-155.540 z-0.500
x40.713 y-155.554 z-0.500
x40.724 y-155.599 z-0.500
x40.739 y-155.653 z-0.500
x40.756 y-155.707 z-0.500
x40.764 y-155.729 z-0.500
x40.773 y-155.756 z-0.500
x40.794 y-155.808 z-0.500
x40.816 y-155.860 z-0.500
x40.841 y-155.911 z-0.500
x40.867 y-155.961 z-0.500
x40.894 y-156.010 z-0.500
x40.924 y-156.058 z-0.500
x40.926 y-156.062 z-0.500
x40.957 y-156.109 z-0.500
x40.990 y-156.154 z-0.500
x41.025 y-156.199 z-0.500
x41.061 y-156.242 z-0.500
x41.067 y-156.249 z-0.500
x41.095 y-156.281 z-0.500
x41.134 y-156.321 z-0.500
x41.175 y-156.361 z-0.500
x41.217 y-156.399 z-0.500
x41.220 y-156.402 z-0.500
x41.263 y-156.438 z-0.500
x41.307 y-156.472 z-0.500
x41.353 y-156.506 z-0.500
x41.366 y-156.515 z-0.500
x41.396 y-156.535 z-0.500
x41.420 y-156.550 z-0.500
x41.448 y-156.567 z-0.500
x41.479 y-156.585 z-0.500
x41.493 y-156.593 z-0.500
x41.542 y-156.619 z-0.500
x41.593 y-156.644 z-0.500
x41.592 y-156.644 z-0.500
x41.597 y-156.646 z-0.500
x41.609 y-156.651 z-0.500
x41.645 y-156.667 z-0.500
x41.697 y-156.688 z-0.500
x41.750 y-156.707 z-0.500
x41.804 y-156.724 z-0.500
x41.858 y-156.739 z-0.500
x41.912 y-156.753 z-0.500
x41.972 y-156.765 z-0.500
x42.028 y-156.774 z-0.500

( Lift to 5.000 )
F2000 z5.000

( Path 5 )
( ------------------------- )

( Spindle on )
M3
S500

( Current depth = -0.500 )

( MoveToStartpoint2 )
F2000 G90 z5.000
F2000 x16.112 y-143.538 z5.000
F2000 x16.112 y-143.538 z0.000

( Loop )
G90 F500
x16.112 y-143.538 z-0.500
F500
x16.056 y-143.543 z-0.500
x16.000 y-143.550 z-0.500
x15.945 y-143.559 z-0.500
x15.889 y-143.570 z-0.500
x15.835 y-143.583 z-0.500
x15.780 y-143.598 z-0.500
x15.726 y-143.615 z-0.500
x15.673 y-143.633 z-0.500
x15.621 y-143.654 z-0.500
x15.569 y-143.676 z-0.500
x15.518 y-143.701 z-0.500
x15.468 y-143.727 z-0.500
x15.419 y-143.754 z-0.500
x15.371 y-143.784 z-0.500
x15.324 y-143.815 z-0.500
x15.278 y-143.848 z-0.500
x15.234 y-143.882 z-0.500
x15.190 y-143.918 z-0.500
x15.148 y-143.955 z-0.500
x15.108 y-143.994 z-0.500
x15.068 y-144.035 z-0.500
x15.030 y-144.077 z-0.500
x14.994 y-144.120 z-0.500
x14.959 y-144.164 z-0.500
x14.926 y-144.209 z-0.500
x14.894 y-144.256 z-0.500
x14.865 y-144.304 z-0.500
x14.836 y-144.353 z-0.500
x14.810 y-144.402 z-0.500
x14.785 y-144.453 z-0.500
x14.762 y-144.505 z-0.500
x14.741 y-144.557 z-0.500
x14.722 y-144.610 z-0.500
x14.705 y-144.664 z-0.500
x14.690 y-144.718 z-0.500
x14.676 y-144.772 z-0.500
x14.665 y-144.828 z-0.500
x14.656 y-144.883 z-0.500
x14.648 y-144.939 z-0.500
x14.643 y-144.995 z-0.500
x14.639 y-145.051 z-0.500
x14.638 y-145.122 z-0.500
x14.641 y-155.200 z-0.500
x14.641 y-155.241 z-0.500
x14.644 y-155.297 z-0.500
x14.648 y-155.353 z-0.500
x14.655 y-155.409 z-0.500
x14.663 y-155.465 z-0.500
x14.665 y-155.480 z-0.500
x14.676 y-155.535 z-0.500
x14.689 y-155.590 z-0.500
x14.689 y-155.591 z-0.500
x14.704 y-155.645 z-0.500
x14.721 y-155.699 z-0.500
x14.740 y-155.752 z-0.500
x14.760 y-155.805 z-0.500
x14.774 y-155.836 z-0.500
x14.776 y-155.842 z-0.500
x14.785 y-155.861 z-0.500
x14.788 y-155.868 z-0.500
x14.800 y-155.893 z-0.500
x14.807 y-155.907 z-0.500
x14.833 y-155.957 z-0.500
x14.860 y-156.006 z-0.500
x14.890 y-156.054 z-0.500
x14.921 y-156.101 z-0.500
x14.954 y-156.147 z-0.500
x14.988 y-156.192 z-0.500
x15.024 y-156.235 z-0.500
x15.062 y-156.277 z-0.500
x15.101 y-156.318 z-0.500
x15.141 y-156.357 z-0.500
x15.183 y-156.395 z-0.500
x15.226 y-156.431 z-0.500
x15.270 y-156.466 z-0.500
x15.316 y-156.499 z-0.500
x15.362 y-156.531 z-0.500
x15.410 y-156.561 z-0.500
x15.459 y-156.589 z-0.500
x15.509 y-156.615 z-0.500
x15.559 y-156.640 z-0.500
x15.611 y-156.663 z-0.500
x15.663 y-156.684 z-0.500
x15.716 y-156.703 z-0.500
x15.770 y-156.720 z-0.500
x15.824 y-156.735 z-0.500
x15.879 y-156.749 z-0.500
x15.934 y-156.760 z-0.500
x15.990 y-156.770 z-0.500
x16.046 y-156.777 z-0.500
x16.102 y-156.782 z-0.500
x16.158 y-156.786 z-0.500
x16.214 y-156.787 z-0.500
x18.163 y-156.787 z-0.500
x18.219 y-156.786 z-0.500
x18.276 y-156.783 z-0.500
x18.332 y-156.778 z-0.500
x18.388 y-156.771 z-0.500
x18.443 y-156.762 z-0.500
x18.499 y-156.751 z-0.500
x18.553 y-156.738 z-0.500
x18.608 y-156.723 z-0.500
x18.662 y-156.706 z-0.500
x18.715 y-156.688 z-0.500
x18.767 y-156.667 z-0.500
x18.819 y-156.645 z-0.500
x18.870 y-156.620 z-0.500
x18.920 y-156.594 z-0.500
x18.969 y-156.567 z-0.500
x19.017 y-156.537 z-0.500
x19.064 y-156.506 z-0.500
x19.110 y-156.473 z-0.500
x19.154 y-156.439 z-0.500
x19.198 y-156.403 z-0.500
x19.240 y-156.366 z-0.500
x19.280 y-156.327 z-0.500
x19.320 y-156.286 z-0.500
x19.358 y-156.244 z-0.500
x19.394 y-156.201 z-0.500
x19.429 y-156.157 z-0.500
x19.462 y-156.112 z-0.500
x19.494 y-156.065 z-0.500
x19.523 y-156.017 z-0.500
x19.552 y-155.968 z-0.500
x19.578 y-155.919 z-0.500
x19.603 y-155.868 z-0.500
x19.626 y-155.816 z-0.500
x19.647 y-155.764 z-0.500
x19.666 y-155.711 z-0.500
x19.683 y-155.657 z-0.500
x19.698 y-155.603 z-0.500
x19.712 y-155.549 z-0.500
x19.723 y-155.493 z-0.500
x19.732 y-155.438 z-0.500
x19.740 y-155.382 z-0.500
x19.745 y-155.326 z-0.500
x19.749 y-155.270 z-0.500
x19.750 y-155.196 z-0.500
x19.733 y-145.679 z-0.500
x19.733 y-145.122 z-0.500
x19.732 y-145.066 z-0.500
x19.729 y-145.009 z-0.500
x19.724 y-144.953 z-0.500
x19.717 y-144.897 z-0.500
x19.708 y-144.842 z-0.500
x19.697 y-144.786 z-0.500
x19.684 y-144.732 z-0.500
x19.669 y-144.677 z-0.500
x19.652 y-144.623 z-0.500
x19.634 y-144.570 z-0.500
x19.613 y-144.518 z-0.500
x19.591 y-144.466 z-0.500
x19.566 y-144.415 z-0.500
x19.540 y-144.365 z-0.500
x19.513 y-144.316 z-0.500
x19.489 y-144.278 z-0.500
x19.482 y-144.266 z-0.500
x19.451 y-144.219 z-0.500
x19.418 y-144.173 z-0.500
x19.411 y-144.164 z-0.500
x19.385 y-144.131 z-0.500
x19.349 y-144.087 z-0.500
x19.312 y-144.045 z-0.500
x19.273 y-144.005 z-0.500
x19.232 y-143.965 z-0.500
x19.190 y-143.927 z-0.500
x19.179 y-143.918 z-0.500
x19.145 y-143.889 z-0.500
x19.136 y-143.882 z-0.500
x19.103 y-143.856 z-0.500
x19.058 y-143.823 z-0.500
x19.011 y-143.791 z-0.500
x19.009 y-143.790 z-0.500
x18.961 y-143.760 z-0.500
x18.921 y-143.737 z-0.500
x18.914 y-143.733 z-0.500
x18.865 y-143.707 z-0.500
x18.814 y-143.682 z-0.500
x18.800 y-143.676 z-0.500
x18.760 y-143.658 z-0.500
x18.707 y-143.637 z-0.500
x18.654 y-143.618 z-0.500
x18.601 y-143.601 z-0.500
x18.547 y-143.586 z-0.500
x18.534 y-143.583 z-0.500
x18.495 y-143.573 z-0.500
x18.439 y-143.562 z-0.500
x18.415 y-143.558 z-0.500
x18.381 y-143.552 z-0.500
x18.349 y-143.548 z-0.500
x18.328 y-143.545 z-0.500
x18.310 y-143.543 z-0.500
x18.269 y-143.539 z-0.500
x18.225 y-143.537 z-0.500
x18.216 y-143.536 z-0.500
x18.145 y-143.535 z-0.500
x16.169 y-143.535 z-0.500
x16.112 y-143.538 z-0.500

( Lift to 5.000 )
F2000 z5.000

( Path 6 )
( ------------------------- )

( Spindle on )
M3
S500

( Current depth = -0.500 )

( MoveToStartpoint2 )
F2000 G90 z5.000
F2000 x16.266 y-20.720 z5.000
F2000 x16.266 y-20.720 z0.000

( Loop )
G90 F500
x16.266 y-20.720 z-0.500
F500
x16.209 y-20.720 z-0.500
x16.153 y-20.723 z-0.500
x16.097 y-20.727 z-0.500
x16.041 y-20.733 z-0.500
x15.985 y-20.742 z-0.500
x15.929 y-20.752 z-0.500
x15.875 y-20.765 z-0.500
x15.820 y-20.779 z-0.500
x15.766 y-20.795 z-0.500
x15.753 y-20.800 z-0.500
x15.713 y-20.813 z-0.500
x15.661 y-20.833 z-0.500
x15.630 y-20.846 z-0.500
x15.608 y-20.855 z-0.500
x15.557 y-20.879 z-0.500
x15.541 y-20.888 z-0.500
x15.507 y-20.904 z-0.500
x15.458 y-20.932 z-0.500
x15.433 y-20.947 z-0.500
x15.409 y-20.961 z-0.500
x15.383 y-20.978 z-0.500
x15.362 y-20.991 z-0.500
x15.316 y-21.024 z-0.500
x15.271 y-21.058 z-0.500
x15.228 y-21.093 z-0.500
x15.185 y-21.130 z-0.500
x15.144 y-21.169 z-0.500
x15.104 y-21.209 z-0.500
x15.066 y-21.250 z-0.500
x15.029 y-21.293 z-0.500
x14.994 y-21.337 z-0.500
x14.960 y-21.383 z-0.500
x14.928 y-21.429 z-0.500
x14.910 y-21.458 z-0.500
x14.898 y-21.476 z-0.500
x14.885 y-21.498 z-0.500
x14.869 y-21.525 z-0.500
x14.852 y-21.557 z-0.500
x14.843 y-21.574 z-0.500
x14.819 y-21.622 z-0.500
x14.817 y-21.625 z-0.500
x14.794 y-21.676 z-0.500
x14.773 y-21.728 z-0.500
x14.753 y-21.781 z-0.500
x14.735 y-21.835 z-0.500
x14.720 y-21.889 z-0.500
x14.706 y-21.944 z-0.500
x14.694 y-21.999 z-0.500
x14.689 y-22.027 z-0.500
x14.684 y-22.053 z-0.500
x14.676 y-22.109 z-0.500
x14.670 y-22.165 z-0.500
x14.666 y-22.221 z-0.500
x14.664 y-22.278 z-0.500
x14.664 y-22.307 z-0.500
x14.661 y-32.384 z-0.500
x14.661 y-32.440 z-0.500
x14.664 y-32.496 z-0.500
x14.669 y-32.552 z-0.500
x14.676 y-32.608 z-0.500
x14.685 y-32.664 z-0.500
x14.696 y-32.719 z-0.500
x14.709 y-32.774 z-0.500
x14.724 y-32.828 z-0.500
x14.741 y-32.882 z-0.500
x14.759 y-32.935 z-0.500
x14.780 y-32.988 z-0.500
x14.802 y-33.039 z-0.500
x14.826 y-33.090 z-0.500
x14.852 y-33.140 z-0.500
x14.880 y-33.189 z-0.500
x14.909 y-33.237 z-0.500
x14.941 y-33.284 z-0.500
x14.973 y-33.330 z-0.500
x15.008 y-33.375 z-0.500
x15.044 y-33.418 z-0.500
x15.081 y-33.460 z-0.500
x15.120 y-33.501 z-0.500
x15.160 y-33.540 z-0.500
x15.202 y-33.578 z-0.500
x15.245 y-33.615 z-0.500
x15.335 y-33.683 z-0.500
x15.382 y-33.714 z-0.500
x15.429 y-33.744 z-0.500
x15.478 y-33.772 z-0.500
x15.528 y-33.799 z-0.500
x15.579 y-33.823 z-0.500
x15.630 y-33.846 z-0.500
x15.682 y-33.867 z-0.500
x15.735 y-33.886 z-0.500
x15.789 y-33.904 z-0.500
x15.843 y-33.919 z-0.500
x15.898 y-33.932 z-0.500
x15.953 y-33.944 z-0.500
x16.009 y-33.953 z-0.500
x16.065 y-33.961 z-0.500
x16.121 y-33.966 z-0.500
x16.177 y-33.970 z-0.500
x16.248 y-33.972 z-0.500
x18.168 y-33.972 z-0.500
x18.224 y-33.971 z-0.500
x18.281 y-33.968 z-0.500
x18.337 y-33.963 z-0.500
x18.393 y-33.956 z-0.500
x18.448 y-33.947 z-0.500
x18.504 y-33.936 z-0.500
x18.558 y-33.923 z-0.500
x18.613 y-33.908 z-0.500
x18.667 y-33.891 z-0.500
x18.720 y-33.873 z-0.500
x18.772 y-33.852 z-0.500
x18.824 y-33.830 z-0.500
x18.875 y-33.805 z-0.500
x18.925 y-33.779 z-0.500
x18.974 y-33.752 z-0.500
x19.022 y-33.722 z-0.500
x19.069 y-33.691 z-0.500
x19.115 y-33.658 z-0.500
x19.159 y-33.624 z-0.500
x19.203 y-33.588 z-0.500
x19.245 y-33.551 z-0.500
x19.285 y-33.512 z-0.500
x19.325 y-33.471 z-0.500
x19.363 y-33.429 z-0.500
x19.399 y-33.386 z-0.500
x19.434 y-33.342 z-0.500
x19.467 y-33.297 z-0.500
x19.499 y-33.250 z-0.500
x19.528 y-33.202 z-0.500
x19.557 y-33.153 z-0.500
x19.583 y-33.104 z-0.500
x19.608 y-33.053 z-0.500
x19.631 y-33.001 z-0.500
x19.652 y-32.949 z-0.500
x19.671 y-32.896 z-0.500
x19.688 y-32.842 z-0.500
x19.703 y-32.788 z-0.500
x19.717 y-32.734 z-0.500
x19.728 y-32.678 z-0.500
x19.737 y-32.623 z-0.500
x19.745 y-32.567 z-0.500
x19.750 y-32.511 z-0.500
x19.754 y-32.455 z-0.500
x19.756 y-32.384 z-0.500
x19.756 y-22.470 z-0.500
x19.758 y-22.443 z-0.500
x19.762 y-22.387 z-0.500
x19.763 y-22.330 z-0.500
x19.763 y-22.274 z-0.500
x19.760 y-22.218 z-0.500
x19.756 y-22.162 z-0.500
x19.749 y-22.106 z-0.500
x19.741 y-22.050 z-0.500
x19.731 y-21.994 z-0.500
x19.718 y-21.940 z-0.500
x19.704 y-21.885 z-0.500
x19.688 y-21.831 z-0.500
x19.669 y-21.778 z-0.500
x19.649 y-21.725 z-0.500
x19.628 y-21.673 z-0.500
x19.604 y-21.622 z-0.500
x19.578 y-21.572 z-0.500
x19.551 y-21.523 z-0.500
x19.522 y-21.474 z-0.500
x19.491 y-21.427 z-0.500
x19.459 y-21.381 z-0.500
x19.425 y-21.336 z-0.500
x19.389 y-21.292 z-0.500
x19.352 y-21.250 z-0.500
x19.314 y-21.209 z-0.500
x19.274 y-21.169 z-0.500
x19.232 y-21.131 z-0.500
x19.190 y-21.094 z-0.500
x19.146 y-21.059 z-0.500
x19.100 y-21.025 z-0.500
x19.054 y-20.993 z-0.500
x19.006 y-20.963 z-0.500
x18.958 y-20.934 z-0.500
x18.858 y-20.882 z-0.500
x18.807 y-20.859 z-0.500
x18.755 y-20.838 z-0.500
x18.702 y-20.818 z-0.500
x18.648 y-20.800 z-0.500
x18.594 y-20.785 z-0.500
x18.539 y-20.771 z-0.500
x18.484 y-20.759 z-0.500
x18.429 y-20.749 z-0.500
x18.373 y-20.741 z-0.500
x18.317 y-20.735 z-0.500
x18.261 y-20.731 z-0.500
x18.205 y-20.729 z-0.500
x17.225 y-20.729 z-0.500
x16.266 y-20.720 z-0.500

( Lift to 5.000 )
F2000 z5.000

( Path 7 )
( ------------------------- )

( Spindle on )
M3
S500

( Current depth = -0.500 )

( MoveToStartpoint2 )
F2000 G90 z5.000
F2000 x44.205 y-22.303 z5.000
F2000 x44.205 y-22.303 z0.000

( Loop )
G90 F500
x44.205 y-22.303 z-0.500
F500
x44.205 y-32.343 z-0.500
x42.286 y-32.343 z-0.500
x42.286 y-22.303 z-0.500
x42.286 y-22.303 z-0.500
x44.205 y-22.303 z-0.500
x44.205 y-32.343 z-0.500
x42.286 y-32.343 z-0.500
x42.286 y-22.303 z-0.500

( Lift to 5.000 )
F2000 z5.000

( Path 8 )
( ------------------------- )

( Spindle on )
M3
S500

( Current depth = -0.500 )

( MoveToStartpoint2 )
F2000 G90 z5.000
F2000 x52.561 y-20.743 z5.000
F2000 x52.561 y-20.743 z0.000

( Loop )
G90 F500
x52.561 y-20.743 z-0.500
F500
x52.505 y-20.739 z-0.500
x52.480 y-20.739 z-0.500
x52.462 y-20.738 z-0.500
x50.449 y-20.738 z-0.500
x50.392 y-20.741 z-0.500
x50.336 y-20.746 z-0.500
x50.280 y-20.753 z-0.500
x50.225 y-20.762 z-0.500
x50.169 y-20.773 z-0.500
x50.115 y-20.786 z-0.500
x50.060 y-20.801 z-0.500
x50.006 y-20.818 z-0.500
x49.953 y-20.836 z-0.500
x49.901 y-20.857 z-0.500
x49.849 y-20.879 z-0.500
x49.798 y-20.904 z-0.500
x49.748 y-20.930 z-0.500
x49.699 y-20.957 z-0.500
x49.651 y-20.987 z-0.500
x49.604 y-21.018 z-0.500
x49.558 y-21.051 z-0.500
x49.514 y-21.085 z-0.500
x49.470 y-21.121 z-0.500
x49.428 y-21.158 z-0.500
x49.388 y-21.197 z-0.500
x49.348 y-21.238 z-0.500
x49.310 y-21.280 z-0.500
x49.274 y-21.323 z-0.500
x49.239 y-21.367 z-0.500
x49.206 y-21.412 z-0.500
x49.174 y-21.459 z-0.500
x49.145 y-21.507 z-0.500
x49.116 y-21.556 z-0.500
x49.090 y-21.605 z-0.500
x49.065 y-21.656 z-0.500
x49.042 y-21.708 z-0.500
x49.021 y-21.760 z-0.500
x49.002 y-21.813 z-0.500
x48.985 y-21.867 z-0.500
x48.970 y-21.921 z-0.500
x48.956 y-21.975 z-0.500
x48.945 y-22.031 z-0.500
x48.936 y-22.086 z-0.500
x48.928 y-22.142 z-0.500
x48.923 y-22.198 z-0.500
x48.919 y-22.254 z-0.500
x48.919 y-22.270 z-0.500
x48.918 y-22.311 z-0.500
x48.918 y-32.451 z-0.500
x48.921 y-32.508 z-0.500
x48.926 y-32.564 z-0.500
x48.933 y-32.620 z-0.500
x48.942 y-32.675 z-0.500
x48.953 y-32.731 z-0.500
x48.966 y-32.785 z-0.500
x48.981 y-32.840 z-0.500
x48.998 y-32.894 z-0.500
x49.016 y-32.947 z-0.500
x49.037 y-32.999 z-0.500
x49.059 y-33.051 z-0.500
x49.084 y-33.102 z-0.500
x49.110 y-33.152 z-0.500
x49.137 y-33.201 z-0.500
x49.167 y-33.249 z-0.500
x49.198 y-33.296 z-0.500
x49.231 y-33.342 z-0.500
x49.265 y-33.386 z-0.500
x49.301 y-33.430 z-0.500
x49.338 y-33.472 z-0.500
x49.377 y-33.512 z-0.500
x49.418 y-33.552 z-0.500
x49.460 y-33.590 z-0.500
x49.503 y-33.626 z-0.500
x49.547 y-33.661 z-0.500
x49.592 y-33.694 z-0.500
x49.639 y-33.726 z-0.500
x49.687 y-33.755 z-0.500
x49.736 y-33.784 z-0.500
x49.785 y-33.810 z-0.500
x49.836 y-33.835 z-0.500
x49.888 y-33.858 z-0.500
x49.940 y-33.879 z-0.500
x49.993 y-33.898 z-0.500
x50.047 y-33.915 z-0.500
x50.101 y-33.930 z-0.500
x50.155 y-33.944 z-0.500
x50.211 y-33.955 z-0.500
x50.266 y-33.964 z-0.500
x50.322 y-33.972 z-0.500
x50.378 y-33.977 z-0.500
x50.434 y-33.981 z-0.500
x50.505 y-33.983 z-0.500
x52.425 y-33.983 z-0.500
x52.481 y-33.982 z-0.500
x52.538 y-33.979 z-0.500
x52.594 y-33.974 z-0.500
x52.650 y-33.967 z-0.500
x52.705 y-33.958 z-0.500
x52.761 y-33.947 z-0.500
x52.815 y-33.934 z-0.500
x52.870 y-33.919 z-0.500
x52.924 y-33.902 z-0.500
x52.977 y-33.884 z-0.500
x53.029 y-33.863 z-0.500
x53.081 y-33.841 z-0.500
x53.132 y-33.816 z-0.500
x53.182 y-33.790 z-0.500
x53.231 y-33.763 z-0.500
x53.279 y-33.733 z-0.500
x53.326 y-33.702 z-0.500
x53.372 y-33.669 z-0.500
x53.416 y-33.635 z-0.500
x53.460 y-33.599 z-0.500
x53.502 y-33.562 z-0.500
x53.542 y-33.523 z-0.500
x53.582 y-33.482 z-0.500
x53.620 y-33.440 z-0.500
x53.656 y-33.397 z-0.500
x53.691 y-33.353 z-0.500
x53.724 y-33.308 z-0.500
x53.756 y-33.261 z-0.500
x53.785 y-33.213 z-0.500
x53.814 y-33.164 z-0.500
x53.840 y-33.115 z-0.500
x53.865 y-33.064 z-0.500
x53.888 y-33.012 z-0.500
x53.909 y-32.960 z-0.500
x53.928 y-32.907 z-0.500
x53.945 y-32.853 z-0.500
x53.960 y-32.799 z-0.500
x53.974 y-32.745 z-0.500
x53.985 y-32.689 z-0.500
x53.994 y-32.634 z-0.500
x54.002 y-32.578 z-0.500
x54.007 y-32.522 z-0.500
x54.011 y-32.466 z-0.500
x54.013 y-32.395 z-0.500
x54.013 y-31.137 z-0.500
x54.020 y-22.326 z-0.500
x54.020 y-22.270 z-0.500
x54.017 y-22.214 z-0.500
x54.012 y-22.158 z-0.500
x54.005 y-22.102 z-0.500
x54.002 y-22.086 z-0.500
x53.998 y-22.059 z-0.500
x53.988 y-22.003 z-0.500
x53.985 y-21.991 z-0.500
x53.972 y-21.936 z-0.500
x53.957 y-21.881 z-0.500
x53.941 y-21.828 z-0.500
x53.922 y-21.774 z-0.500
x53.902 y-21.722 z-0.500
x53.896 y-21.708 z-0.500
x53.885 y-21.682 z-0.500
x53.861 y-21.631 z-0.500
x53.855 y-21.619 z-0.500
x53.829 y-21.569 z-0.500
x53.801 y-21.520 z-0.500
x53.772 y-21.472 z-0.500
x53.741 y-21.425 z-0.500
x53.708 y-21.379 z-0.500
x53.674 y-21.335 z-0.500
x53.638 y-21.291 z-0.500
x53.628 y-21.280 z-0.500
x53.609 y-21.259 z-0.500
x53.571 y-21.218 z-0.500
x53.531 y-21.178 z-0.500
x53.489 y-21.140 z-0.500
x53.447 y-21.103 z-0.500
x53.403 y-21.068 z-0.500
x53.357 y-21.034 z-0.500
x53.311 y-21.002 z-0.500
x53.302 y-20.997 z-0.500
x53.300 y-20.995 z-0.500
x53.252 y-20.965 z-0.500
x53.241 y-20.959 z-0.500
x53.215 y-20.943 z-0.500
x53.190 y-20.930 z-0.500
x53.154 y-20.911 z-0.500
x53.152 y-20.910 z-0.500
x53.115 y-20.891 z-0.500
x53.064 y-20.868 z-0.500
x53.012 y-20.847 z-0.500
x52.959 y-20.827 z-0.500
x52.905 y-20.809 z-0.500
x52.876 y-20.801 z-0.500
x52.838 y-20.790 z-0.500
x52.784 y-20.777 z-0.500
x52.729 y-20.765 z-0.500
x52.690 y-20.759 z-0.500
x52.686 y-20.758 z-0.500
x52.681 y-20.757 z-0.500
x52.673 y-20.756 z-0.500
x52.617 y-20.748 z-0.500
x52.583 y-20.745 z-0.500
x52.565 y-20.743 z-0.500
x52.561 y-20.743 z-0.500

( Lift to 5.000 )
F2000 z5.000

( Path 9 )
( ------------------------- )

( Spindle on )
M3
S500

( Current depth = -0.500 )

( MoveToStartpoint2 )
F2000 G90 z5.000
F2000 x35.556 y-20.745 z5.000
F2000 x35.556 y-20.745 z0.000

( Loop )
G90 F500
x35.556 y-20.745 z-0.500
F500
x35.472 y-20.739 z-0.500
x35.449 y-20.739 z-0.500
x35.430 y-20.738 z-0.500
x33.425 y-20.738 z-0.500
x33.368 y-20.741 z-0.500
x33.312 y-20.746 z-0.500
x33.256 y-20.753 z-0.500
x33.201 y-20.762 z-0.500
x33.145 y-20.773 z-0.500
x33.091 y-20.786 z-0.500
x33.036 y-20.801 z-0.500
x32.982 y-20.818 z-0.500
x32.929 y-20.836 z-0.500
x32.877 y-20.857 z-0.500
x32.825 y-20.879 z-0.500
x32.774 y-20.904 z-0.500
x32.724 y-20.930 z-0.500
x32.675 y-20.957 z-0.500
x32.627 y-20.987 z-0.500
x32.580 y-21.018 z-0.500
x32.534 y-21.051 z-0.500
x32.490 y-21.085 z-0.500
x32.446 y-21.121 z-0.500
x32.404 y-21.158 z-0.500
x32.364 y-21.197 z-0.500
x32.324 y-21.238 z-0.500
x32.286 y-21.280 z-0.500
x32.250 y-21.323 z-0.500
x32.215 y-21.367 z-0.500
x32.182 y-21.412 z-0.500
x32.150 y-21.459 z-0.500
x32.121 y-21.507 z-0.500
x32.092 y-21.556 z-0.500
x32.066 y-21.605 z-0.500
x32.041 y-21.656 z-0.500
x32.018 y-21.708 z-0.500
x31.997 y-21.760 z-0.500
x31.978 y-21.813 z-0.500
x31.961 y-21.867 z-0.500
x31.946 y-21.921 z-0.500
x31.932 y-21.975 z-0.500
x31.921 y-22.031 z-0.500
x31.912 y-22.086 z-0.500
x31.904 y-22.142 z-0.500
x31.899 y-22.198 z-0.500
x31.895 y-22.254 z-0.500
x31.894 y-22.325 z-0.500
x31.894 y-32.448 z-0.500
x31.897 y-32.505 z-0.500
x31.902 y-32.561 z-0.500
x31.909 y-32.617 z-0.500
x31.918 y-32.672 z-0.500
x31.929 y-32.728 z-0.500
x31.942 y-32.782 z-0.500
x31.957 y-32.837 z-0.500
x31.974 y-32.891 z-0.500
x31.992 y-32.944 z-0.500
x32.013 y-32.996 z-0.500
x32.035 y-33.048 z-0.500
x32.060 y-33.099 z-0.500
x32.086 y-33.149 z-0.500
x32.113 y-33.198 z-0.500
x32.143 y-33.246 z-0.500
x32.174 y-33.293 z-0.500
x32.207 y-33.339 z-0.500
x32.241 y-33.383 z-0.500
x32.277 y-33.427 z-0.500
x32.314 y-33.469 z-0.500
x32.353 y-33.509 z-0.500
x32.394 y-33.549 z-0.500
x32.436 y-33.587 z-0.500
x32.479 y-33.623 z-0.500
x32.523 y-33.658 z-0.500
x32.568 y-33.691 z-0.500
x32.615 y-33.723 z-0.500
x32.663 y-33.752 z-0.500
x32.712 y-33.781 z-0.500
x32.761 y-33.807 z-0.500
x32.812 y-33.832 z-0.500
x32.864 y-33.855 z-0.500
x32.916 y-33.876 z-0.500
x32.969 y-33.895 z-0.500
x33.023 y-33.912 z-0.500
x33.077 y-33.927 z-0.500
x33.131 y-33.941 z-0.500
x33.187 y-33.952 z-0.500
x33.242 y-33.961 z-0.500
x33.298 y-33.969 z-0.500
x33.354 y-33.974 z-0.500
x33.410 y-33.978 z-0.500
x33.481 y-33.980 z-0.500
x35.401 y-33.980 z-0.500
x35.457 y-33.979 z-0.500
x35.514 y-33.976 z-0.500
x35.570 y-33.971 z-0.500
x35.626 y-33.964 z-0.500
x35.681 y-33.955 z-0.500
x35.737 y-33.944 z-0.500
x35.791 y-33.931 z-0.500
x35.846 y-33.916 z-0.500
x35.900 y-33.899 z-0.500
x35.953 y-33.881 z-0.500
x36.005 y-33.860 z-0.500
x36.057 y-33.838 z-0.500
x36.108 y-33.813 z-0.500
x36.158 y-33.787 z-0.500
x36.207 y-33.760 z-0.500
x36.255 y-33.730 z-0.500
x36.302 y-33.699 z-0.500
x36.348 y-33.666 z-0.500
x36.392 y-33.632 z-0.500
x36.436 y-33.596 z-0.500
x36.478 y-33.559 z-0.500
x36.518 y-33.520 z-0.500
x36.558 y-33.479 z-0.500
x36.596 y-33.437 z-0.500
x36.632 y-33.394 z-0.500
x36.667 y-33.350 z-0.500
x36.700 y-33.305 z-0.500
x36.732 y-33.258 z-0.500
x36.761 y-33.210 z-0.500
x36.790 y-33.161 z-0.500
x36.816 y-33.112 z-0.500
x36.841 y-33.061 z-0.500
x36.864 y-33.009 z-0.500
x36.885 y-32.957 z-0.500
x36.904 y-32.904 z-0.500
x36.921 y-32.850 z-0.500
x36.936 y-32.796 z-0.500
x36.950 y-32.742 z-0.500
x36.961 y-32.686 z-0.500
x36.970 y-32.631 z-0.500
x36.978 y-32.575 z-0.500
x36.983 y-32.519 z-0.500
x36.987 y-32.463 z-0.500
x36.989 y-32.392 z-0.500
x36.989 y-22.325 z-0.500
x36.988 y-22.269 z-0.500
x36.985 y-22.212 z-0.500
x36.980 y-22.156 z-0.500
x36.973 y-22.100 z-0.500
x36.964 y-22.045 z-0.500
x36.953 y-21.989 z-0.500
x36.940 y-21.935 z-0.500
x36.936 y-21.921 z-0.500
