( Created by GrblGru )
( 24.10.2023 16:09:41 )



( Additional commands from settings )
G1 F200 Z25
G4 P2

( Job: Job Trajeto da ferramenta 1 + 9 -> Inside 3,175mm )
( ------------------------------- )

( Job mode = 0, CUT )
( Type of tool = 0, SPINDLE )

( TransformationTyp = NONE )
( Plano de segurança = 10 )
( Soma da profundidade = 3 )
( Profundidade por passo = 1 )
( #jobdivingramp = 0 )
( Tamanho de partição = 2 )
( Avanço de corte = 250 )
( Avanço rápido = 2000 )
( Avanço de mergulho = 250 )
( Tool = Endmill 3.175mm )
( Tool diameter = 3.175 )



G1 G90 F100

( Trajeto da ferramenta 1 )
( ------------------------- )

( Spindle on )
M3
S500

( Current depth = -1.000 )

( MoveToStartpoint2 )
F2000 G90 z10.000
F2000 x13.623 y49.989 z10.000
F2000 x13.623 y49.989 z0.000

( Loop )
G90 F250
x13.623 y49.989 z-1.000
F250
x17.527 y49.989 z-1.000
x17.527 y-49.983 z-1.000
x13.615 y-49.983 z-1.000
x13.615 y-42.406 z-1.000
x12.171 y-42.406 z-1.000
x12.171 y-49.983 z-1.000
x7.435 y-49.983 z-1.000

( Current depth = -2.000 )

( Loop )
G90 F250
x7.435 y-49.983 z-2.000
F250
x12.171 y-49.983 z-2.000
x12.171 y-42.406 z-2.000
x13.615 y-42.406 z-2.000
x13.615 y-49.983 z-2.000
x17.527 y-49.983 z-2.000
x17.527 y49.989 z-2.000
x13.623 y49.989 z-2.000

( Current depth = -3.000 )

( Loop )
G90 F250
x13.623 y49.989 z-3.000
F250
x17.527 y49.989 z-3.000
x17.527 y-49.983 z-3.000
x13.615 y-49.983 z-3.000
x13.615 y-42.406 z-3.000
x12.171 y-42.406 z-3.000
x12.171 y-49.983 z-3.000
x7.435 y-49.983 z-3.000

( Lift to 10.000 )
F2000 z10.000

( Trajeto da ferramenta 10 )
( ------------------------- )

( Spindle on )
M3
S500

( Current depth = -1.000 )

( MoveToStartpoint2 )
F2000 G90 z10.000
F2000 x7.495 y-39.194 z10.000
F2000 x7.495 y-39.194 z0.000

( Loop )
G90 F250
x7.495 y-39.194 z-1.000
F250
x8.146 y-39.117 z-1.000
x8.705 y-38.988 z-1.000
x9.189 y-38.814 z-1.000
x9.614 y-38.598 z-1.000
x9.986 y-38.343 z-1.000
x10.324 y-38.042 z-1.000
x10.620 y-37.704 z-1.000
x10.899 y-37.302 z-1.000
x11.143 y-36.855 z-1.000
x11.364 y-36.346 z-1.000
x11.550 y-35.795 z-1.000
x11.709 y-35.183 z-1.000
x11.832 y-34.550 z-1.000
x11.929 y-33.846 z-1.000
x11.994 y-33.125 z-1.000
x12.033 y-32.324 z-1.000
x12.041 y-31.696 z-1.000
x12.015 y-30.765 z-1.000
x11.937 y-29.853 z-1.000
x11.810 y-28.973 z-1.000
x11.632 y-28.116 z-1.000
x11.401 y-27.274 z-1.000
x11.117 y-26.455 z-1.000
x10.792 y-25.697 z-1.000
x10.411 y-24.962 z-1.000
x9.995 y-24.298 z-1.000
x9.527 y-23.675 z-1.000
x9.006 y-23.099 z-1.000
x8.445 y-22.588 z-1.000
x7.851 y-22.148 z-1.000
x7.201 y-21.764 z-1.000
x6.493 y-21.443 z-1.000
x5.724 y-21.190 z-1.000
x5.215 y-21.072 z-1.000
x4.298 y-20.934 z-1.000
x3.527 y-20.892 z-1.000
x2.863 y-20.929 z-1.000
x2.314 y-21.031 z-1.000
x1.841 y-21.188 z-1.000
x1.446 y-21.385 z-1.000
x1.101 y-21.624 z-1.000
x0.780 y-21.920 z-1.000
x0.490 y-22.263 z-1.000
x0.216 y-22.668 z-1.000
x-0.039 y-23.132 z-1.000
x-0.263 y-23.623 z-1.000
x-0.472 y-24.168 z-1.000
x-0.677 y-24.785 z-1.000
x-0.849 y-25.374 z-1.000
x-1.020 y-26.008 z-1.000
x-1.184 y-26.641 z-1.000
x-1.348 y-27.277 z-1.000
x-1.352 y-27.294 z-1.000
x-1.518 y-27.909 z-1.000
x-1.525 y-27.933 z-1.000
x-1.593 y-28.170 z-1.000
x-1.602 y-28.201 z-1.000
x-1.759 y-28.709 z-1.000
x-1.941 y-29.255 z-1.000
x-1.964 y-29.319 z-1.000
x-2.155 y-29.819 z-1.000
x-2.176 y-29.872 z-1.000
x-2.198 y-29.921 z-1.000
x-2.417 y-30.393 z-1.000
x-2.442 y-30.444 z-1.000
x-2.468 y-30.494 z-1.000
x-2.495 y-30.540 z-1.000
x-2.750 y-30.966 z-1.000
x-2.780 y-31.014 z-1.000
x-2.811 y-31.061 z-1.000
x-2.844 y-31.107 z-1.000
x-2.879 y-31.151 z-1.000
x-3.176 y-31.517 z-1.000
x-3.213 y-31.560 z-1.000
x-3.250 y-31.602 z-1.000
x-3.290 y-31.643 z-1.000
x-3.330 y-31.682 z-1.000
x-3.393 y-31.737 z-1.000
x-3.739 y-32.025 z-1.000
x-3.783 y-32.060 z-1.000
x-3.829 y-32.094 z-1.000
x-3.875 y-32.126 z-1.000
x-3.922 y-32.157 z-1.000
x-3.971 y-32.185 z-1.000
x-4.020 y-32.212 z-1.000
x-4.066 y-32.235 z-1.000
x-4.469 y-32.429 z-1.000
x-4.521 y-32.453 z-1.000
x-4.573 y-32.475 z-1.000
x-4.625 y-32.494 z-1.000
x-4.679 y-32.512 z-1.000
x-4.733 y-32.528 z-1.000
x-4.787 y-32.543 z-1.000
x-4.842 y-32.555 z-1.000
x-4.877 y-32.561 z-1.000
x-5.344 y-32.645 z-1.000
x-5.400 y-32.654 z-1.000
x-5.455 y-32.661 z-1.000
x-5.512 y-32.666 z-1.000
x-5.568 y-32.669 z-1.000
x-5.624 y-32.670 z-1.000
x-5.681 y-32.670 z-1.000
x-5.751 y-32.665 z-1.000
x-6.290 y-32.622 z-1.000
x-6.346 y-32.617 z-1.000
x-6.402 y-32.610 z-1.000
x-6.458 y-32.600 z-1.000
x-6.513 y-32.589 z-1.000
x-6.568 y-32.575 z-1.000
x-6.616 y-32.562 z-1.000
x-7.000 y-32.448 z-1.000
x-7.054 y-32.431 z-1.000
x-7.107 y-32.412 z-1.000
x-7.159 y-32.391 z-1.000
x-7.211 y-32.369 z-1.000
x-7.263 y-32.344 z-1.000
x-7.628 y-32.160 z-1.000
x-7.677 y-32.133 z-1.000
x-7.726 y-32.105 z-1.000
x-7.774 y-32.076 z-1.000
x-7.836 y-32.034 z-1.000
x-8.179 y-31.789 z-1.000
x-8.224 y-31.755 z-1.000
x-8.268 y-31.720 z-1.000
x-8.311 y-31.683 z-1.000
x-8.353 y-31.645 z-1.000
x-8.666 y-31.346 z-1.000
x-8.706 y-31.306 z-1.000
x-8.744 y-31.265 z-1.000
x-8.781 y-31.223 z-1.000
x-8.803 y-31.197 z-1.000
x-9.083 y-30.851 z-1.000
x-9.118 y-30.806 z-1.000
x-9.151 y-30.761 z-1.000
x-9.195 y-30.693 z-1.000
x-9.435 y-30.309 z-1.000
x-9.464 y-30.261 z-1.000
x-9.491 y-30.212 z-1.000
x-9.523 y-30.149 z-1.000
x-9.720 y-29.734 z-1.000
x-9.743 y-29.682 z-1.000
x-9.765 y-29.630 z-1.000
x-9.792 y-29.556 z-1.000
x-9.938 y-29.119 z-1.000
x-9.955 y-29.065 z-1.000
x-9.970 y-29.011 z-1.000
x-9.988 y-28.933 z-1.000
x-10.080 y-28.481 z-1.000
x-10.090 y-28.425 z-1.000
x-10.098 y-28.369 z-1.000
x-10.104 y-28.313 z-1.000
x-10.108 y-28.274 z-1.000
x-10.140 y-27.814 z-1.000
x-10.143 y-27.758 z-1.000
x-10.143 y-27.661 z-1.000
x-10.134 y-27.331 z-1.000
x-10.131 y-27.274 z-1.000
x-10.129 y-27.242 z-1.000
x-10.103 y-26.931 z-1.000
x-10.097 y-26.875 z-1.000
x-10.091 y-26.831 z-1.000
x-10.048 y-26.540 z-1.000
x-10.039 y-26.484 z-1.000
x-10.029 y-26.435 z-1.000
x-9.970 y-26.163 z-1.000
x-9.958 y-26.109 z-1.000
x-9.938 y-26.040 z-1.000
x-9.862 y-25.789 z-1.000
x-9.845 y-25.735 z-1.000
x-9.817 y-25.658 z-1.000
x-9.724 y-25.426 z-1.000
x-9.702 y-25.374 z-1.000
x-9.678 y-25.323 z-1.000
x-9.663 y-25.294 z-1.000
x-9.555 y-25.083 z-1.000
x-9.529 y-25.033 z-1.000
x-9.500 y-24.984 z-1.000
x-9.471 y-24.938 z-1.000
x-9.347 y-24.748 z-1.000
x-9.316 y-24.702 z-1.000
x-9.283 y-24.656 z-1.000
x-9.243 y-24.607 z-1.000
x-9.103 y-24.437 z-1.000
x-9.067 y-24.394 z-1.000
x-9.029 y-24.352 z-1.000
x-8.974 y-24.298 z-1.000
x-8.818 y-24.149 z-1.000
x-8.777 y-24.111 z-1.000
x-8.723 y-24.064 z-1.000
x-8.553 y-23.926 z-1.000
x-8.508 y-23.892 z-1.000
x-8.463 y-23.859 z-1.000
x-8.407 y-23.821 z-1.000
x-8.224 y-23.704 z-1.000
x-8.176 y-23.675 z-1.000
x-8.127 y-23.647 z-1.000
x-8.067 y-23.616 z-1.000
x-7.871 y-23.520 z-1.000
x-7.820 y-23.496 z-1.000
x-7.768 y-23.474 z-1.000
x-7.707 y-23.451 z-1.000
x-7.497 y-23.376 z-1.000
x-7.444 y-23.358 z-1.000
x-7.390 y-23.342 z-1.000
x-7.329 y-23.326 z-1.000
x-7.105 y-23.273 z-1.000
x-7.049 y-23.261 z-1.000
x-6.994 y-23.251 z-1.000
x-6.991 y-23.251 z-1.000
x-6.991 y-19.529 z-1.000
x-7.441 y-19.480 z-1.000
x-8.103 y-19.483 z-1.000
x-8.683 y-19.560 z-1.000
x-9.182 y-19.699 z-1.000
x-9.614 y-19.890 z-1.000
x-9.989 y-20.127 z-1.000
x-10.340 y-20.428 z-1.000
x-10.653 y-20.780 z-1.000
x-10.943 y-21.198 z-1.000
x-11.202 y-21.681 z-1.000
x-11.427 y-22.216 z-1.000
x-11.621 y-22.814 z-1.000
x-11.776 y-23.451 z-1.000
x-11.898 y-24.149 z-1.000
x-11.981 y-24.863 z-1.000
x-12.029 y-25.604 z-1.000
x-12.041 y-26.276 z-1.000
x-12.020 y-27.206 z-1.000
x-11.955 y-28.107 z-1.000
x-11.839 y-29.023 z-1.000
x-11.674 y-29.894 z-1.000
x-11.451 y-30.751 z-1.000
x-11.173 y-31.567 z-1.000
x-10.837 y-32.339 z-1.000
x-10.442 y-33.059 z-1.000
x-9.989 y-33.720 z-1.000
x-9.462 y-34.336 z-1.000
x-8.860 y-34.900 z-1.000
x-8.179 y-35.405 z-1.000
x-7.403 y-35.851 z-1.000
x-6.534 y-36.228 z-1.000
x-5.508 y-36.548 z-1.000
x-5.417 y-36.570 z-1.000
x-4.730 y-36.674 z-1.000
x-4.068 y-36.714 z-1.000
x-3.480 y-36.691 z-1.000
x-2.928 y-36.607 z-1.000
x-2.454 y-36.473 z-1.000
x-2.025 y-36.287 z-1.000
x-1.641 y-36.048 z-1.000
x-1.318 y-35.770 z-1.000
x-1.018 y-35.419 z-1.000
x-0.745 y-34.980 z-1.000
x-0.364 y-34.193 z-1.000
x-0.023 y-33.360 z-1.000
x0.266 y-32.543 z-1.000
x0.532 y-31.686 z-1.000
x0.756 y-30.897 z-1.000
x0.755 y-30.897 z-1.000
x0.973 y-30.090 z-1.000
x0.976 y-30.081 z-1.000
x1.186 y-29.322 z-1.000
x1.197 y-29.284 z-1.000
x1.410 y-28.582 z-1.000
x1.434 y-28.508 z-1.000
x1.661 y-27.874 z-1.000
x1.681 y-27.821 z-1.000
x1.711 y-27.752 z-1.000
x1.964 y-27.195 z-1.000
x1.988 y-27.145 z-1.000
x2.014 y-27.095 z-1.000
x2.042 y-27.046 z-1.000
x2.056 y-27.021 z-1.000
x2.346 y-26.549 z-1.000
x2.377 y-26.501 z-1.000
x2.409 y-26.455 z-1.000
x2.442 y-26.410 z-1.000
x2.478 y-26.366 z-1.000
x2.522 y-26.315 z-1.000
x2.862 y-25.939 z-1.000
x2.900 y-25.898 z-1.000
x2.940 y-25.858 z-1.000
x2.981 y-25.820 z-1.000
x3.024 y-25.783 z-1.000
x3.068 y-25.748 z-1.000
x3.113 y-25.714 z-1.000
x3.149 y-25.690 z-1.000
x3.549 y-25.419 z-1.000
x3.596 y-25.388 z-1.000
x3.644 y-25.359 z-1.000
x3.693 y-25.332 z-1.000
x3.744 y-25.306 z-1.000
x3.795 y-25.282 z-1.000
x3.846 y-25.260 z-1.000
x3.899 y-25.240 z-1.000
x3.942 y-25.225 z-1.000
x4.415 y-25.069 z-1.000
x4.469 y-25.053 z-1.000
x4.523 y-25.038 z-1.000
x4.578 y-25.025 z-1.000
x4.633 y-25.014 z-1.000
x4.689 y-25.005 z-1.000
x4.745 y-24.998 z-1.000
x4.818 y-24.992 z-1.000
x5.376 y-24.959 z-1.000
x5.433 y-24.957 z-1.000
x5.489 y-24.957 z-1.000
x5.545 y-24.958 z-1.000
x5.601 y-24.962 z-1.000
x5.671 y-24.969 z-1.000
x6.141 y-25.029 z-1.000
x6.197 y-25.037 z-1.000
x6.252 y-25.048 z-1.000
x6.307 y-25.060 z-1.000
x6.362 y-25.074 z-1.000
x6.408 y-25.087 z-1.000
x6.904 y-25.240 z-1.000
x6.957 y-25.258 z-1.000
x7.010 y-25.277 z-1.000
x7.063 y-25.298 z-1.000
x7.114 y-25.322 z-1.000
x7.164 y-25.346 z-1.000
x7.209 y-25.370 z-1.000
x7.652 y-25.617 z-1.000
x7.701 y-25.646 z-1.000
x7.748 y-25.676 z-1.000
x7.795 y-25.707 z-1.000
x7.841 y-25.741 z-1.000
x7.892 y-25.782 z-1.000
x8.284 y-26.107 z-1.000
x8.327 y-26.144 z-1.000
x8.368 y-26.182 z-1.000
x8.408 y-26.222 z-1.000
x8.447 y-26.263 z-1.000
x8.470 y-26.289 z-1.000
x8.809 y-26.680 z-1.000
x8.846 y-26.723 z-1.000
x8.880 y-26.768 z-1.000
x8.913 y-26.813 z-1.000
x8.940 y-26.853 z-1.000
x9.227 y-27.293 z-1.000
x9.257 y-27.340 z-1.000
x9.285 y-27.389 z-1.000
x9.321 y-27.458 z-1.000
x9.556 y-27.935 z-1.000
x9.580 y-27.986 z-1.000
x9.602 y-28.038 z-1.000
x9.623 y-28.093 z-1.000
x9.805 y-28.592 z-1.000
x9.824 y-28.645 z-1.000
x9.840 y-28.699 z-1.000
x9.851 y-28.738 z-1.000
x9.982 y-29.244 z-1.000
x9.995 y-29.299 z-1.000
x10.006 y-29.354 z-1.000
x10.013 y-29.396 z-1.000
x10.091 y-29.894 z-1.000
x10.099 y-29.950 z-1.000
x10.105 y-30.006 z-1.000
x10.108 y-30.054 z-1.000
x10.134 y-30.532 z-1.000
x10.136 y-30.588 z-1.000
x10.136 y-30.644 z-1.000
x10.134 y-30.710 z-1.000
x10.094 y-31.399 z-1.000
x10.090 y-31.455 z-1.000
x10.083 y-31.511 z-1.000
x10.075 y-31.567 z-1.000
x10.068 y-31.604 z-1.000
x9.949 y-32.228 z-1.000
x9.938 y-32.284 z-1.000
x9.924 y-32.338 z-1.000
x9.909 y-32.392 z-1.000
x9.886 y-32.463 z-1.000
x9.689 y-33.017 z-1.000
x9.669 y-33.070 z-1.000
x9.647 y-33.122 z-1.000
x9.624 y-33.173 z-1.000
x9.598 y-33.223 z-1.000
x9.570 y-33.275 z-1.000
x9.297 y-33.751 z-1.000
x9.268 y-33.799 z-1.000
x9.238 y-33.846 z-1.000
x9.205 y-33.893 z-1.000
x9.171 y-33.938 z-1.000
x9.136 y-33.982 z-1.000
x9.110 y-34.012 z-1.000
x8.761 y-34.407 z-1.000
x8.723 y-34.449 z-1.000
x8.683 y-34.489 z-1.000
x8.642 y-34.528 z-1.000
x8.600 y-34.565 z-1.000
x8.556 y-34.601 z-1.000
x8.503 y-34.641 z-1.000
x8.080 y-34.948 z-1.000
x8.034 y-34.980 z-1.000
x7.987 y-35.011 z-1.000
x7.939 y-35.040 z-1.000
x7.889 y-35.067 z-1.000
x7.839 y-35.092 z-1.000
x7.780 y-35.119 z-1.000
x7.285 y-35.334 z-1.000
x7.233 y-35.356 z-1.000
x7.181 y-35.375 z-1.000
x7.127 y-35.393 z-1.000
x7.073 y-35.409 z-1.000
x7.018 y-35.423 z-1.000
x6.971 y-35.433 z-1.000
x6.404 y-35.549 z-1.000
x6.349 y-35.560 z-1.000
x6.332 y-35.562 z-1.000
x6.332 y-39.177 z-1.000
x6.774 y-39.208 z-1.000
x7.495 y-39.194 z-1.000

( Current depth = -2.000 )

( Loop )
G90 F250
x7.495 y-39.194 z-2.000
F250
x8.146 y-39.117 z-2.000
x8.705 y-38.988 z-2.000
x9.189 y-38.814 z-2.000
x9.614 y-38.598 z-2.000
x9.986 y-38.343 z-2.000
x10.324 y-38.042 z-2.000
x10.620 y-37.704 z-2.000
x10.899 y-37.302 z-2.000
x11.143 y-36.855 z-2.000
x11.364 y-36.346 z-2.000
x11.550 y-35.795 z-2.000
x11.709 y-35.183 z-2.000
x11.832 y-34.550 z-2.000
x11.929 y-33.846 z-2.000
x11.994 y-33.125 z-2.000
x12.033 y-32.324 z-2.000
x12.041 y-31.696 z-2.000
x12.015 y-30.765 z-2.000
x11.937 y-29.853 z-2.000
x11.810 y-28.973 z-2.000
x11.632 y-28.116 z-2.000
x11.401 y-27.274 z-2.000
x11.117 y-26.455 z-2.000
x10.792 y-25.697 z-2.000
x10.411 y-24.962 z-2.000
x9.995 y-24.298 z-2.000
x9.527 y-23.675 z-2.000
x9.006 y-23.099 z-2.000
x8.445 y-22.588 z-2.000
x7.851 y-22.148 z-2.000
x7.201 y-21.764 z-2.000
x6.493 y-21.443 z-2.000
x5.724 y-21.190 z-2.000
x5.215 y-21.072 z-2.000
x4.298 y-20.934 z-2.000
x3.527 y-20.892 z-2.000
x2.863 y-20.929 z-2.000
x2.314 y-21.031 z-2.000
x1.841 y-21.188 z-2.000
x1.446 y-21.385 z-2.000
x1.101 y-21.624 z-2.000
x0.780 y-21.920 z-2.000
x0.490 y-22.263 z-2.000
x0.216 y-22.668 z-2.000
x-0.039 y-23.132 z-2.000
x-0.263 y-23.623 z-2.000
x-0.472 y-24.168 z-2.000
x-0.677 y-24.785 z-2.000
x-0.849 y-25.374 z-2.000
x-1.020 y-26.008 z-2.000
x-1.184 y-26.641 z-2.000
x-1.348 y-27.277 z-2.000
x-1.352 y-27.294 z-2.000
x-1.518 y-27.909 z-2.000
x-1.525 y-27.933 z-2.000
x-1.593 y-28.170 z-2.000
x-1.602 y-28.201 z-2.000
x-1.759 y-28.709 z-2.000
x-1.941 y-29.255 z-2.000
x-1.964 y-29.319 z-2.000
x-2.155 y-29.819 z-2.000
x-2.176 y-29.872 z-2.000
x-2.198 y-29.921 z-2.000
x-2.417 y-30.393 z-2.000
x-2.442 y-30.444 z-2.000
x-2.468 y-30.494 z-2.000
x-2.495 y-30.540 z-2.000
x-2.750 y-30.966 z-2.000
x-2.780 y-31.014 z-2.000
x-2.811 y-31.061 z-2.000
x-2.844 y-31.107 z-2.000
x-2.879 y-31.151 z-2.000
x-3.176 y-31.517 z-2.000
x-3.213 y-31.560 z-2.000
x-3.250 y-31.602 z-2.000
x-3.290 y-31.643 z-2.000
x-3.330 y-31.682 z-2.000
x-3.393 y-31.737 z-2.000
x-3.739 y-32.025 z-2.000
x-3.783 y-32.060 z-2.000
x-3.829 y-32.094 z-2.000
x-3.875 y-32.126 z-2.000
x-3.922 y-32.157 z-2.000
x-3.971 y-32.185 z-2.000
x-4.020 y-32.212 z-2.000
x-4.066 y-32.235 z-2.000
x-4.469 y-32.429 z-2.000
x-4.521 y-32.453 z-2.000
x-4.573 y-32.475 z-2.000
x-4.625 y-32.494 z-2.000
x-4.679 y-32.512 z-2.000
x-4.733 y-32.528 z-2.000
x-4.787 y-32.543 z-2.000
x-4.842 y-32.555 z-2.000
x-4.877 y-32.561 z-2.000
x-5.344 y-32.645 z-2.000
x-5.400 y-32.654 z-2.000
x-5.455 y-32.661 z-2.000
x-5.512 y-32.666 z-2.000
x-5.568 y-32.669 z-2.000
x-5.624 y-32.670 z-2.000
x-5.681 y-32.670 z-2.000
x-5.751 y-32.665 z-2.000
x-6.290 y-32.622 z-2.000
x-6.346 y-32.617 z-2.000
x-6.402 y-32.610 z-2.000
x-6.458 y-32.600 z-2.000
x-6.513 y-32.589 z-2.000
x-6.568 y-32.575 z-2.000
x-6.616 y-32.562 z-2.000
x-7.000 y-32.448 z-2.000
x-7.054 y-32.431 z-2.000
x-7.107 y-32.412 z-2.000
x-7.159 y-32.391 z-2.000
x-7.211 y-32.369 z-2.000
x-7.263 y-32.344 z-2.000
x-7.628 y-32.160 z-2.000
x-7.677 y-32.133 z-2.000
x-7.726 y-32.105 z-2.000
x-7.774 y-32.076 z-2.000
x-7.836 y-32.034 z-2.000
x-8.179 y-31.789 z-2.000
x-8.224 y-31.755 z-2.000
x-8.268 y-31.720 z-2.000
x-8.311 y-31.683 z-2.000
x-8.353 y-31.645 z-2.000
x-8.666 y-31.346 z-2.000
x-8.706 y-31.306 z-2.000
x-8.744 y-31.265 z-2.000
x-8.781 y-31.223 z-2.000
x-8.803 y-31.197 z-2.000
x-9.083 y-30.851 z-2.000
x-9.118 y-30.806 z-2.000
x-9.151 y-30.761 z-2.000
x-9.195 y-30.693 z-2.000
x-9.435 y-30.309 z-2.000
x-9.464 y-30.261 z-2.000
x-9.491 y-30.212 z-2.000
x-9.523 y-30.149 z-2.000
x-9.720 y-29.734 z-2.000
x-9.743 y-29.682 z-2.000
x-9.765 y-29.630 z-2.000
x-9.792 y-29.556 z-2.000
x-9.938 y-29.119 z-2.000
x-9.955 y-29.065 z-2.000
x-9.970 y-29.011 z-2.000
x-9.988 y-28.933 z-2.000
x-10.080 y-28.481 z-2.000
x-10.090 y-28.425 z-2.000
x-10.098 y-28.369 z-2.000
x-10.104 y-28.313 z-2.000
x-10.108 y-28.274 z-2.000
x-10.140 y-27.814 z-2.000
x-10.143 y-27.758 z-2.000
x-10.143 y-27.661 z-2.000
x-10.134 y-27.331 z-2.000
x-10.131 y-27.274 z-2.000
x-10.129 y-27.242 z-2.000
x-10.103 y-26.931 z-2.000
x-10.097 y-26.875 z-2.000
x-10.091 y-26.831 z-2.000
x-10.048 y-26.540 z-2.000
x-10.039 y-26.484 z-2.000
x-10.029 y-26.435 z-2.000
x-9.970 y-26.163 z-2.000
x-9.958 y-26.109 z-2.000
x-9.938 y-26.040 z-2.000
x-9.862 y-25.789 z-2.000
x-9.845 y-25.735 z-2.000
x-9.817 y-25.658 z-2.000
x-9.724 y-25.426 z-2.000
x-9.702 y-25.374 z-2.000
x-9.678 y-25.323 z-2.000
x-9.663 y-25.294 z-2.000
x-9.555 y-25.083 z-2.000
x-9.529 y-25.033 z-2.000
x-9.500 y-24.984 z-2.000
x-9.471 y-24.938 z-2.000
x-9.347 y-24.748 z-2.000
x-9.316 y-24.702 z-2.000
x-9.283 y-24.656 z-2.000
x-9.243 y-24.607 z-2.000
x-9.103 y-24.437 z-2.000
x-9.067 y-24.394 z-2.000
x-9.029 y-24.352 z-2.000
x-8.974 y-24.298 z-2.000
x-8.818 y-24.149 z-2.000
x-8.777 y-24.111 z-2.000
x-8.723 y-24.064 z-2.000
x-8.553 y-23.926 z-2.000
x-8.508 y-23.892 z-2.000
x-8.463 y-23.859 z-2.000
x-8.407 y-23.821 z-2.000
x-8.224 y-23.704 z-2.000
x-8.176 y-23.675 z-2.000
x-8.127 y-23.647 z-2.000
x-8.067 y-23.616 z-2.000
x-7.871 y-23.520 z-2.000
x-7.820 y-23.496 z-2.000
x-7.768 y-23.474 z-2.000
x-7.707 y-23.451 z-2.000
x-7.497 y-23.376 z-2.000
x-7.444 y-23.358 z-2.000
x-7.390 y-23.342 z-2.000
x-7.329 y-23.326 z-2.000
x-7.105 y-23.273 z-2.000
x-7.049 y-23.261 z-2.000
x-6.994 y-23.251 z-2.000
x-6.991 y-23.251 z-2.000
x-6.991 y-19.529 z-2.000
x-7.441 y-19.480 z-2.000
x-8.103 y-19.483 z-2.000
x-8.683 y-19.560 z-2.000
x-9.182 y-19.699 z-2.000
x-9.614 y-19.890 z-2.000
x-9.989 y-20.127 z-2.000
x-10.340 y-20.428 z-2.000
x-10.653 y-20.780 z-2.000
x-10.943 y-21.198 z-2.000
x-11.202 y-21.681 z-2.000
x-11.427 y-22.216 z-2.000
x-11.621 y-22.814 z-2.000
x-11.776 y-23.451 z-2.000
x-11.898 y-24.149 z-2.000
x-11.981 y-24.863 z-2.000
x-12.029 y-25.604 z-2.000
x-12.041 y-26.276 z-2.000
x-12.020 y-27.206 z-2.000
x-11.955 y-28.107 z-2.000
x-11.839 y-29.023 z-2.000
x-11.674 y-29.894 z-2.000
x-11.451 y-30.751 z-2.000
x-11.173 y-31.567 z-2.000
x-10.837 y-32.339 z-2.000
x-10.442 y-33.059 z-2.000
x-9.989 y-33.720 z-2.000
x-9.462 y-34.336 z-2.000
x-8.860 y-34.900 z-2.000
x-8.179 y-35.405 z-2.000
x-7.403 y-35.851 z-2.000
x-6.534 y-36.228 z-2.000
x-5.508 y-36.548 z-2.000
x-5.417 y-36.570 z-2.000
x-4.730 y-36.674 z-2.000
x-4.068 y-36.714 z-2.000
x-3.480 y-36.691 z-2.000
x-2.928 y-36.607 z-2.000
x-2.454 y-36.473 z-2.000
x-2.025 y-36.287 z-2.000
x-1.641 y-36.048 z-2.000
x-1.318 y-35.770 z-2.000
x-1.018 y-35.419 z-2.000
x-0.745 y-34.980 z-2.000
x-0.364 y-34.193 z-2.000
x-0.023 y-33.360 z-2.000
x0.266 y-32.543 z-2.000
x0.532 y-31.686 z-2.000
x0.756 y-30.897 z-2.000
x0.755 y-30.897 z-2.000
x0.973 y-30.090 z-2.000
x0.976 y-30.081 z-2.000
x1.186 y-29.322 z-2.000
x1.197 y-29.284 z-2.000
x1.410 y-28.582 z-2.000
x1.434 y-28.508 z-2.000
x1.661 y-27.874 z-2.000
x1.681 y-27.821 z-2.000
x1.711 y-27.752 z-2.000
x1.964 y-27.195 z-2.000
x1.988 y-27.145 z-2.000
x2.014 y-27.095 z-2.000
x2.042 y-27.046 z-2.000
x2.056 y-27.021 z-2.000
x2.346 y-26.549 z-2.000
x2.377 y-26.501 z-2.000
x2.409 y-26.455 z-2.000
x2.442 y-26.410 z-2.000
x2.478 y-26.366 z-2.000
x2.522 y-26.315 z-2.000
x2.862 y-25.939 z-2.000
x2.900 y-25.898 z-2.000
x2.940 y-25.858 z-2.000
x2.981 y-25.820 z-2.000
x3.024 y-25.783 z-2.000
x3.068 y-25.748 z-2.000
x3.113 y-25.714 z-2.000
x3.149 y-25.690 z-2.000
x3.549 y-25.419 z-2.000
x3.596 y-25.388 z-2.000
x3.644 y-25.359 z-2.000
x3.693 y-25.332 z-2.000
x3.744 y-25.306 z-2.000
x3.795 y-25.282 z-2.000
x3.846 y-25.260 z-2.000
x3.899 y-25.240 z-2.000
x3.942 y-25.225 z-2.000
x4.415 y-25.069 z-2.000
x4.469 y-25.053 z-2.000
x4.523 y-25.038 z-2.000
x4.578 y-25.025 z-2.000
x4.633 y-25.014 z-2.000
x4.689 y-25.005 z-2.000
x4.745 y-24.998 z-2.000
x4.818 y-24.992 z-2.000
x5.376 y-24.959 z-2.000
x5.433 y-24.957 z-2.000
x5.489 y-24.957 z-2.000
x5.545 y-24.958 z-2.000
x5.601 y-24.962 z-2.000
x5.671 y-24.969 z-2.000
x6.141 y-25.029 z-2.000
x6.197 y-25.037 z-2.000
x6.252 y-25.048 z-2.000
x6.307 y-25.060 z-2.000
x6.362 y-25.074 z-2.000
x6.408 y-25.087 z-2.000
x6.904 y-25.240 z-2.000
x6.957 y-25.258 z-2.000
x7.010 y-25.277 z-2.000
x7.063 y-25.298 z-2.000
x7.114 y-25.322 z-2.000
x7.164 y-25.346 z-2.000
x7.209 y-25.370 z-2.000
x7.652 y-25.617 z-2.000
x7.701 y-25.646 z-2.000
x7.748 y-25.676 z-2.000
x7.795 y-25.707 z-2.000
x7.841 y-25.741 z-2.000
x7.892 y-25.782 z-2.000
x8.284 y-26.107 z-2.000
x8.327 y-26.144 z-2.000
x8.368 y-26.182 z-2.000
x8.408 y-26.222 z-2.000
x8.447 y-26.263 z-2.000
x8.470 y-26.289 z-2.000
x8.809 y-26.680 z-2.000
x8.846 y-26.723 z-2.000
x8.880 y-26.768 z-2.000
x8.913 y-26.813 z-2.000
x8.940 y-26.853 z-2.000
x9.227 y-27.293 z-2.000
x9.257 y-27.340 z-2.000
x9.285 y-27.389 z-2.000
x9.321 y-27.458 z-2.000
x9.556 y-27.935 z-2.000
x9.580 y-27.986 z-2.000
x9.602 y-28.038 z-2.000
x9.623 y-28.093 z-2.000
x9.805 y-28.592 z-2.000
x9.824 y-28.645 z-2.000
x9.840 y-28.699 z-2.000
x9.851 y-28.738 z-2.000
x9.982 y-29.244 z-2.000
x9.995 y-29.299 z-2.000
x10.006 y-29.354 z-2.000
x10.013 y-29.396 z-2.000
x10.091 y-29.894 z-2.000
x10.099 y-29.950 z-2.000
x10.105 y-30.006 z-2.000
x10.108 y-30.054 z-2.000
x10.134 y-30.532 z-2.000
x10.136 y-30.588 z-2.000
x10.136 y-30.644 z-2.000
x10.134 y-30.710 z-2.000
x10.094 y-31.399 z-2.000
x10.090 y-31.455 z-2.000
x10.083 y-31.511 z-2.000
x10.075 y-31.567 z-2.000
x10.068 y-31.604 z-2.000
x9.949 y-32.228 z-2.000
x9.938 y-32.284 z-2.000
x9.924 y-32.338 z-2.000
x9.909 y-32.392 z-2.000
x9.886 y-32.463 z-2.000
x9.689 y-33.017 z-2.000
x9.669 y-33.070 z-2.000
x9.647 y-33.122 z-2.000
x9.624 y-33.173 z-2.000
x9.598 y-33.223 z-2.000
x9.570 y-33.275 z-2.000
x9.297 y-33.751 z-2.000
x9.268 y-33.799 z-2.000
x9.238 y-33.846 z-2.000
x9.205 y-33.893 z-2.000
x9.171 y-33.938 z-2.000
x9.136 y-33.982 z-2.000
x9.110 y-34.012 z-2.000
x8.761 y-34.407 z-2.000
x8.723 y-34.449 z-2.000
x8.683 y-34.489 z-2.000
x8.642 y-34.528 z-2.000
x8.600 y-34.565 z-2.000
x8.556 y-34.601 z-2.000
x8.503 y-34.641 z-2.000
x8.080 y-34.948 z-2.000
x8.034 y-34.980 z-2.000
x7.987 y-35.011 z-2.000
x7.939 y-35.040 z-2.000
x7.889 y-35.067 z-2.000
x7.839 y-35.092 z-2.000
x7.780 y-35.119 z-2.000
x7.285 y-35.334 z-2.000
x7.233 y-35.356 z-2.000
x7.181 y-35.375 z-2.000
x7.127 y-35.393 z-2.000
x7.073 y-35.409 z-2.000
x7.018 y-35.423 z-2.000
x6.971 y-35.433 z-2.000
x6.404 y-35.549 z-2.000
x6.349 y-35.560 z-2.000
x6.332 y-35.562 z-2.000
x6.332 y-39.177 z-2.000
x6.774 y-39.208 z-2.000
x7.495 y-39.194 z-2.000

( Current depth = -3.000 )

( Loop )
G90 F250
x7.495 y-39.194 z-3.000
F250
x8.146 y-39.117 z-3.000
x8.705 y-38.988 z-3.000
x9.189 y-38.814 z-3.000
x9.614 y-38.598 z-3.000
x9.986 y-38.343 z-3.000
x10.324 y-38.042 z-3.000
x10.620 y-37.704 z-3.000
x10.899 y-37.302 z-3.000
x11.143 y-36.855 z-3.000
x11.364 y-36.346 z-3.000
x11.550 y-35.795 z-3.000
x11.709 y-35.183 z-3.000
x11.832 y-34.550 z-3.000
x11.929 y-33.846 z-3.000
x11.994 y-33.125 z-3.000
x12.033 y-32.324 z-3.000
x12.041 y-31.696 z-3.000
x12.015 y-30.765 z-3.000
x11.937 y-29.853 z-3.000
x11.810 y-28.973 z-3.000
x11.632 y-28.116 z-3.000
x11.401 y-27.274 z-3.000
x11.117 y-26.455 z-3.000
x10.792 y-25.697 z-3.000
x10.411 y-24.962 z-3.000
x9.995 y-24.298 z-3.000
x9.527 y-23.675 z-3.000
x9.006 y-23.099 z-3.000
x8.445 y-22.588 z-3.000
x7.851 y-22.148 z-3.000
x7.201 y-21.764 z-3.000
x6.493 y-21.443 z-3.000
x5.724 y-21.190 z-3.000
x5.215 y-21.072 z-3.000
x4.298 y-20.934 z-3.000
x3.527 y-20.892 z-3.000
x2.863 y-20.929 z-3.000
x2.314 y-21.031 z-3.000
x1.841 y-21.188 z-3.000
x1.446 y-21.385 z-3.000
x1.101 y-21.624 z-3.000
x0.780 y-21.920 z-3.000
x0.490 y-22.263 z-3.000
x0.216 y-22.668 z-3.000
x-0.039 y-23.132 z-3.000
x-0.263 y-23.623 z-3.000
x-0.472 y-24.168 z-3.000
x-0.677 y-24.785 z-3.000
x-0.849 y-25.374 z-3.000
x-1.020 y-26.008 z-3.000
x-1.184 y-26.641 z-3.000
x-1.348 y-27.277 z-3.000
x-1.352 y-27.294 z-3.000
x-1.518 y-27.909 z-3.000
x-1.525 y-27.933 z-3.000
x-1.593 y-28.170 z-3.000
x-1.602 y-28.201 z-3.000
x-1.759 y-28.709 z-3.000
x-1.941 y-29.255 z-3.000
x-1.964 y-29.319 z-3.000
x-2.155 y-29.819 z-3.000
x-2.176 y-29.872 z-3.000
x-2.198 y-29.921 z-3.000
x-2.417 y-30.393 z-3.000
x-2.442 y-30.444 z-3.000
x-2.468 y-30.494 z-3.000
x-2.495 y-30.540 z-3.000
x-2.750 y-30.966 z-3.000
x-2.780 y-31.014 z-3.000
x-2.811 y-31.061 z-3.000
x-2.844 y-31.107 z-3.000
x-2.879 y-31.151 z-3.000
x-3.176 y-31.517 z-3.000
x-3.213 y-31.560 z-3.000
x-3.250 y-31.602 z-3.000
x-3.290 y-31.643 z-3.000
x-3.330 y-31.682 z-3.000
x-3.393 y-31.737 z-3.000
x-3.739 y-32.025 z-3.000
x-3.783 y-32.060 z-3.000
x-3.829 y-32.094 z-3.000
x-3.875 y-32.126 z-3.000
x-3.922 y-32.157 z-3.000
x-3.971 y-32.185 z-3.000
x-4.020 y-32.212 z-3.000
x-4.066 y-32.235 z-3.000
x-4.469 y-32.429 z-3.000
x-4.521 y-32.453 z-3.000
x-4.573 y-32.475 z-3.000
x-4.625 y-32.494 z-3.000
x-4.679 y-32.512 z-3.000
x-4.733 y-32.528 z-3.000
x-4.787 y-32.543 z-3.000
x-4.842 y-32.555 z-3.000
x-4.877 y-32.561 z-3.000
x-5.344 y-32.645 z-3.000
x-5.400 y-32.654 z-3.000
x-5.455 y-32.661 z-3.000
x-5.512 y-32.666 z-3.000
x-5.568 y-32.669 z-3.000
x-5.624 y-32.670 z-3.000
x-5.681 y-32.670 z-3.000
x-5.751 y-32.665 z-3.000
x-6.290 y-32.622 z-3.000
x-6.346 y-32.617 z-3.000
x-6.402 y-32.610 z-3.000
x-6.458 y-32.600 z-3.000
x-6.513 y-32.589 z-3.000
x-6.568 y-32.575 z-3.000
x-6.616 y-32.562 z-3.000
x-7.000 y-32.448 z-3.000
x-7.054 y-32.431 z-3.000
x-7.107 y-32.412 z-3.000
x-7.159 y-32.391 z-3.000
x-7.211 y-32.369 z-3.000
x-7.263 y-32.344 z-3.000
x-7.628 y-32.160 z-3.000
x-7.677 y-32.133 z-3.000
x-7.726 y-32.105 z-3.000
x-7.774 y-32.076 z-3.000
x-7.836 y-32.034 z-3.000
x-8.179 y-31.789 z-3.000
x-8.224 y-31.755 z-3.000
x-8.268 y-31.720 z-3.000
x-8.311 y-31.683 z-3.000
x-8.353 y-31.645 z-3.000
x-8.666 y-31.346 z-3.000
x-8.706 y-31.306 z-3.000
x-8.744 y-31.265 z-3.000
x-8.781 y-31.223 z-3.000
x-8.803 y-31.197 z-3.000
x-9.083 y-30.851 z-3.000
x-9.118 y-30.806 z-3.000
x-9.151 y-30.761 z-3.000
x-9.195 y-30.693 z-3.000
x-9.435 y-30.309 z-3.000
x-9.464 y-30.261 z-3.000
x-9.491 y-30.212 z-3.000
x-9.523 y-30.149 z-3.000
x-9.720 y-29.734 z-3.000
x-9.743 y-29.682 z-3.000
x-9.765 y-29.630 z-3.000
x-9.792 y-29.556 z-3.000
x-9.938 y-29.119 z-3.000
x-9.955 y-29.065 z-3.000
x-9.970 y-29.011 z-3.000
x-9.988 y-28.933 z-3.000
x-10.080 y-28.481 z-3.000
x-10.090 y-28.425 z-3.000
x-10.098 y-28.369 z-3.000
x-10.104 y-28.313 z-3.000
x-10.108 y-28.274 z-3.000
x-10.140 y-27.814 z-3.000
x-10.143 y-27.758 z-3.000
x-10.143 y-27.661 z-3.000
x-10.134 y-27.331 z-3.000
x-10.131 y-27.274 z-3.000
x-10.129 y-27.242 z-3.000
x-10.103 y-26.931 z-3.000
x-10.097 y-26.875 z-3.000
x-10.091 y-26.831 z-3.000
x-10.048 y-26.540 z-3.000
x-10.039 y-26.484 z-3.000
x-10.029 y-26.435 z-3.000
x-9.970 y-26.163 z-3.000
x-9.958 y-26.109 z-3.000
x-9.938 y-26.040 z-3.000
x-9.862 y-25.789 z-3.000
x-9.845 y-25.735 z-3.000
x-9.817 y-25.658 z-3.000
x-9.724 y-25.426 z-3.000
x-9.702 y-25.374 z-3.000
x-9.678 y-25.323 z-3.000
x-9.663 y-25.294 z-3.000
x-9.555 y-25.083 z-3.000
x-9.529 y-25.033 z-3.000
x-9.500 y-24.984 z-3.000
x-9.471 y-24.938 z-3.000
x-9.347 y-24.748 z-3.000
x-9.316 y-24.702 z-3.000
x-9.283 y-24.656 z-3.000
x-9.243 y-24.607 z-3.000
x-9.103 y-24.437 z-3.000
x-9.067 y-24.394 z-3.000
x-9.029 y-24.352 z-3.000
x-8.974 y-24.298 z-3.000
x-8.818 y-24.149 z-3.000
x-8.777 y-24.111 z-3.000
x-8.723 y-24.064 z-3.000
x-8.553 y-23.926 z-3.000
x-8.508 y-23.892 z-3.000
x-8.463 y-23.859 z-3.000
x-8.407 y-23.821 z-3.000
x-8.224 y-23.704 z-3.000
x-8.176 y-23.675 z-3.000
x-8.127 y-23.647 z-3.000
x-8.067 y-23.616 z-3.000
x-7.871 y-23.520 z-3.000
x-7.820 y-23.496 z-3.000
x-7.768 y-23.474 z-3.000
x-7.707 y-23.451 z-3.000
x-7.497 y-23.376 z-3.000
x-7.444 y-23.358 z-3.000
x-7.390 y-23.342 z-3.000
x-7.329 y-23.326 z-3.000
x-7.105 y-23.273 z-3.000
x-7.049 y-23.261 z-3.000
x-6.994 y-23.251 z-3.000
x-6.991 y-23.251 z-3.000
x-6.991 y-19.529 z-3.000
x-7.441 y-19.480 z-3.000
x-8.103 y-19.483 z-3.000
x-8.683 y-19.560 z-3.000
x-9.182 y-19.699 z-3.000
x-9.614 y-19.890 z-3.000
x-9.989 y-20.127 z-3.000
x-10.340 y-20.428 z-3.000
x-10.653 y-20.780 z-3.000
x-10.943 y-21.198 z-3.000
x-11.202 y-21.681 z-3.000
x-11.427 y-22.216 z-3.000
x-11.621 y-22.814 z-3.000
x-11.776 y-23.451 z-3.000
x-11.898 y-24.149 z-3.000
x-11.981 y-24.863 z-3.000
x-12.029 y-25.604 z-3.000
x-12.041 y-26.276 z-3.000
x-12.020 y-27.206 z-3.000
x-11.955 y-28.107 z-3.000
x-11.839 y-29.023 z-3.000
x-11.674 y-29.894 z-3.000
x-11.451 y-30.751 z-3.000
x-11.173 y-31.567 z-3.000
x-10.837 y-32.339 z-3.000
x-10.442 y-33.059 z-3.000
x-9.989 y-33.720 z-3.000
x-9.462 y-34.336 z-3.000
x-8.860 y-34.900 z-3.000
x-8.179 y-35.405 z-3.000
x-7.403 y-35.851 z-3.000
x-6.534 y-36.228 z-3.000
x-5.508 y-36.548 z-3.000
x-5.417 y-36.570 z-3.000
x-4.730 y-36.674 z-3.000
x-4.068 y-36.714 z-3.000
x-3.480 y-36.691 z-3.000
x-2.928 y-36.607 z-3.000
x-2.454 y-36.473 z-3.000
x-2.025 y-36.287 z-3.000
x-1.641 y-36.048 z-3.000
x-1.318 y-35.770 z-3.000
x-1.018 y-35.419 z-3.000
x-0.745 y-34.980 z-3.000
x-0.364 y-34.193 z-3.000
x-0.023 y-33.360 z-3.000
x0.266 y-32.543 z-3.000
x0.532 y-31.686 z-3.000
x0.756 y-30.897 z-3.000
x0.755 y-30.897 z-3.000
x0.973 y-30.090 z-3.000
x0.976 y-30.081 z-3.000
x1.186 y-29.322 z-3.000
x1.197 y-29.284 z-3.000
x1.410 y-28.582 z-3.000
x1.434 y-28.508 z-3.000
x1.661 y-27.874 z-3.000
x1.681 y-27.821 z-3.000
x1.711 y-27.752 z-3.000
x1.964 y-27.195 z-3.000
x1.988 y-27.145 z-3.000
x2.014 y-27.095 z-3.000
x2.042 y-27.046 z-3.000
x2.056 y-27.021 z-3.000
x2.346 y-26.549 z-3.000
x2.377 y-26.501 z-3.000
x2.409 y-26.455 z-3.000
x2.442 y-26.410 z-3.000
x2.478 y-26.366 z-3.000
x2.522 y-26.315 z-3.000
x2.862 y-25.939 z-3.000
x2.900 y-25.898 z-3.000
x2.940 y-25.858 z-3.000
x2.981 y-25.820 z-3.000
x3.024 y-25.783 z-3.000
x3.068 y-25.748 z-3.000
x3.113 y-25.714 z-3.000
x3.149 y-25.690 z-3.000
x3.549 y-25.419 z-3.000
x3.596 y-25.388 z-3.000
x3.644 y-25.359 z-3.000
x3.693 y-25.332 z-3.000
x3.744 y-25.306 z-3.000
x3.795 y-25.282 z-3.000
x3.846 y-25.260 z-3.000
x3.899 y-25.240 z-3.000
x3.942 y-25.225 z-3.000
x4.415 y-25.069 z-3.000
x4.469 y-25.053 z-3.000
x4.523 y-25.038 z-3.000
x4.578 y-25.025 z-3.000
x4.633 y-25.014 z-3.000
x4.689 y-25.005 z-3.000
x4.745 y-24.998 z-3.000
x4.818 y-24.992 z-3.000
x5.376 y-24.959 z-3.000
x5.433 y-24.957 z-3.000
x5.489 y-24.957 z-3.000
x5.545 y-24.958 z-3.000
x5.601 y-24.962 z-3.000
x5.671 y-24.969 z-3.000
x6.141 y-25.029 z-3.000
x6.197 y-25.037 z-3.000
x6.252 y-25.048 z-3.000
x6.307 y-25.060 z-3.000
x6.362 y-25.074 z-3.000
x6.408 y-25.087 z-3.000
x6.904 y-25.240 z-3.000
x6.957 y-25.258 z-3.000
x7.010 y-25.277 z-3.000
x7.063 y-25.298 z-3.000
x7.114 y-25.322 z-3.000
x7.164 y-25.346 z-3.000
x7.209 y-25.370 z-3.000
x7.652 y-25.617 z-3.000
x7.701 y-25.646 z-3.000
x7.748 y-25.676 z-3.000
x7.795 y-25.707 z-3.000
x7.841 y-25.741 z-3.000
x7.892 y-25.782 z-3.000
x8.284 y-26.107 z-3.000
x8.327 y-26.144 z-3.000
x8.368 y-26.182 z-3.000
x8.408 y-26.222 z-3.000
x8.447 y-26.263 z-3.000
x8.470 y-26.289 z-3.000
x8.809 y-26.680 z-3.000
x8.846 y-26.723 z-3.000
x8.880 y-26.768 z-3.000
x8.913 y-26.813 z-3.000
x8.940 y-26.853 z-3.000
x9.227 y-27.293 z-3.000
x9.257 y-27.340 z-3.000
x9.285 y-27.389 z-3.000
x9.321 y-27.458 z-3.000
x9.556 y-27.935 z-3.000
x9.580 y-27.986 z-3.000
x9.602 y-28.038 z-3.000
x9.623 y-28.093 z-3.000
x9.805 y-28.592 z-3.000
x9.824 y-28.645 z-3.000
x9.840 y-28.699 z-3.000
x9.851 y-28.738 z-3.000
x9.982 y-29.244 z-3.000
x9.995 y-29.299 z-3.000
x10.006 y-29.354 z-3.000
x10.013 y-29.396 z-3.000
x10.091 y-29.894 z-3.000
x10.099 y-29.950 z-3.000
x10.105 y-30.006 z-3.000
x10.108 y-30.054 z-3.000
x10.134 y-30.532 z-3.000
x10.136 y-30.588 z-3.000
x10.136 y-30.644 z-3.000
x10.134 y-30.710 z-3.000
x10.094 y-31.399 z-3.000
x10.090 y-31.455 z-3.000
x10.083 y-31.511 z-3.000
x10.075 y-31.567 z-3.000
x10.068 y-31.604 z-3.000
x9.949 y-32.228 z-3.000
x9.938 y-32.284 z-3.000
x9.924 y-32.338 z-3.000
x9.909 y-32.392 z-3.000
x9.886 y-32.463 z-3.000
x9.689 y-33.017 z-3.000
x9.669 y-33.070 z-3.000
x9.647 y-33.122 z-3.000
x9.624 y-33.173 z-3.000
x9.598 y-33.223 z-3.000
x9.570 y-33.275 z-3.000
x9.297 y-33.751 z-3.000
x9.268 y-33.799 z-3.000
x9.238 y-33.846 z-3.000
x9.205 y-33.893 z-3.000
x9.171 y-33.938 z-3.000
x9.136 y-33.982 z-3.000
x9.110 y-34.012 z-3.000
x8.761 y-34.407 z-3.000
x8.723 y-34.449 z-3.000
x8.683 y-34.489 z-3.000
x8.642 y-34.528 z-3.000
x8.600 y-34.565 z-3.000
x8.556 y-34.601 z-3.000
x8.503 y-34.641 z-3.000
x8.080 y-34.948 z-3.000
x8.034 y-34.980 z-3.000
x7.987 y-35.011 z-3.000
x7.939 y-35.040 z-3.000
x7.889 y-35.067 z-3.000
x7.839 y-35.092 z-3.000
x7.780 y-35.119 z-3.000
x7.285 y-35.334 z-3.000
x7.233 y-35.356 z-3.000
x7.181 y-35.375 z-3.000
x7.127 y-35.393 z-3.000
x7.073 y-35.409 z-3.000
x7.018 y-35.423 z-3.000
x6.971 y-35.433 z-3.000
x6.404 y-35.549 z-3.000
x6.349 y-35.560 z-3.000
x6.332 y-35.562 z-3.000
x6.332 y-39.177 z-3.000
x6.774 y-39.208 z-3.000
x7.495 y-39.194 z-3.000

( Lift to 10.000 )
F2000 z10.000

( Trajeto da ferramenta 2 )
( ------------------------- )

( Spindle on )
M3
S500

( Current depth = -1.000 )

( MoveToStartpoint2 )
F2000 G90 z10.000
F2000 x5.990 y-49.983 z10.000
F2000 x5.990 y-49.983 z0.000

( Loop )
G90 F250
x5.990 y-49.983 z-1.000
F250
x0.806 y-49.983 z-1.000
x0.806 y-42.408 z-1.000
x-0.639 y-42.408 z-1.000
x-0.639 y-49.983 z-1.000
x-5.786 y-49.983 z-1.000
x-5.786 y-42.406 z-1.000
x-7.231 y-42.406 z-1.000
x-7.231 y-49.983 z-1.000
x-12.161 y-49.983 z-1.000
x-12.161 y-42.414 z-1.000
x-13.606 y-42.414 z-1.000
x-13.604 y-49.997 z-1.000

( Current depth = -2.000 )

( Loop )
G90 F250
x-13.604 y-49.997 z-2.000
F250
x-13.606 y-42.414 z-2.000
x-12.161 y-42.414 z-2.000
x-12.161 y-49.983 z-2.000
x-7.231 y-49.983 z-2.000
x-7.231 y-42.406 z-2.000
x-5.786 y-42.406 z-2.000
x-5.786 y-49.983 z-2.000
x-0.639 y-49.983 z-2.000
x-0.639 y-42.408 z-2.000
x0.806 y-42.408 z-2.000
x0.806 y-49.983 z-2.000
x5.990 y-49.983 z-2.000

( Current depth = -3.000 )

( Loop )
G90 F250
x5.990 y-49.983 z-3.000
F250
x0.806 y-49.983 z-3.000
x0.806 y-42.408 z-3.000
x-0.639 y-42.408 z-3.000
x-0.639 y-49.983 z-3.000
x-5.786 y-49.983 z-3.000
x-5.786 y-42.406 z-3.000
x-7.231 y-42.406 z-3.000
x-7.231 y-49.983 z-3.000
x-12.161 y-49.983 z-3.000
x-12.161 y-42.414 z-3.000
x-13.606 y-42.414 z-3.000
x-13.604 y-49.997 z-3.000

( Lift to 10.000 )
F2000 z10.000

( Trajeto da ferramenta 3 )
( ------------------------- )

( Spindle on )
M3
S500

( Current depth = -1.000 )

( MoveToStartpoint2 )
F2000 G90 z10.000
F2000 x7.430 y-50.000 z10.000
F2000 x7.430 y-50.000 z0.000

( Loop )
G90 F250
x7.430 y-50.000 z-1.000
F250
x7.430 y-42.445 z-1.000
x5.985 y-42.445 z-1.000
x5.985 y-50.000 z-1.000

( Current depth = -2.000 )

( Loop )
G90 F250
x5.985 y-50.000 z-2.000
F250
x5.985 y-42.445 z-2.000
x7.430 y-42.445 z-2.000
x7.430 y-50.000 z-2.000

( Current depth = -3.000 )

( Loop )
G90 F250
x7.430 y-50.000 z-3.000
F250
x7.430 y-42.445 z-3.000
x5.985 y-42.445 z-3.000
x5.985 y-50.000 z-3.000

( Lift to 10.000 )
F2000 z10.000

( Trajeto da ferramenta 4 )
( ------------------------- )

( Spindle on )
M3
S500

( Current depth = -1.000 )

( MoveToStartpoint2 )
F2000 G90 z10.000
F2000 x6.003 y49.989 z10.000
F2000 x6.003 y49.989 z0.000

( Loop )
G90 F250
x6.003 y49.989 z-1.000
F250
x0.823 y49.989 z-1.000
x0.823 y42.407 z-1.000
x-0.622 y42.407 z-1.000
x-0.622 y49.983 z-1.000
x-5.769 y49.989 z-1.000
x-5.769 y42.405 z-1.000
x-7.214 y42.405 z-1.000
x-7.214 y49.983 z-1.000
x-12.144 y49.989 z-1.000
x-12.144 y42.414 z-1.000
x-13.588 y42.414 z-1.000
x-13.587 y49.989 z-1.000
x-17.527 y49.989 z-1.000
x-17.527 y-49.983 z-1.000
x-13.604 y-49.983 z-1.000

( Current depth = -2.000 )

( Loop )
G90 F250
x-13.604 y-49.983 z-2.000
F250
x-17.527 y-49.983 z-2.000
x-17.527 y49.989 z-2.000
x-13.587 y49.989 z-2.000
x-13.588 y42.414 z-2.000
x-12.144 y42.414 z-2.000
x-12.144 y49.989 z-2.000
x-7.214 y49.983 z-2.000
x-7.214 y42.405 z-2.000
x-5.769 y42.405 z-2.000
x-5.769 y49.989 z-2.000
x-0.622 y49.983 z-2.000
x-0.622 y42.407 z-2.000
x0.823 y42.407 z-2.000
x0.823 y49.989 z-2.000
x6.003 y49.989 z-2.000

( Current depth = -3.000 )

( Loop )
G90 F250
x6.003 y49.989 z-3.000
F250
x0.823 y49.989 z-3.000
x0.823 y42.407 z-3.000
x-0.622 y42.407 z-3.000
x-0.622 y49.983 z-3.000
x-5.769 y49.989 z-3.000
x-5.769 y42.405 z-3.000
x-7.214 y42.405 z-3.000
x-7.214 y49.983 z-3.000
x-12.144 y49.989 z-3.000
x-12.144 y42.414 z-3.000
x-13.588 y42.414 z-3.000
x-13.587 y49.989 z-3.000
x-17.527 y49.989 z-3.000
x-17.527 y-49.983 z-3.000
x-13.604 y-49.983 z-3.000

( Lift to 10.000 )
F2000 z10.000

( Trajeto da ferramenta 5 )
( ------------------------- )

( Spindle on )
M3
S500

( Current depth = -1.000 )

( MoveToStartpoint2 )
F2000 G90 z10.000
F2000 x7.447 y50.000 z10.000
F2000 x7.447 y50.000 z0.000

( Loop )
G90 F250
x7.447 y50.000 z-1.000
F250
x7.447 y42.445 z-1.000
x6.003 y42.445 z-1.000
x6.003 y50.000 z-1.000

( Current depth = -2.000 )

( Loop )
G90 F250
x6.003 y50.000 z-2.000
F250
x6.003 y42.445 z-2.000
x7.447 y42.445 z-2.000
x7.447 y50.000 z-2.000

( Current depth = -3.000 )

( Loop )
G90 F250
x7.447 y50.000 z-3.000
F250
x7.447 y42.445 z-3.000
x6.003 y42.445 z-3.000
x6.003 y50.000 z-3.000

( Lift to 10.000 )
F2000 z10.000

( Trajeto da ferramenta 6 )
( ------------------------- )

( Spindle on )
M3
S500

( Current depth = -1.000 )

( MoveToStartpoint2 )
F2000 G90 z10.000
F2000 x13.632 y49.983 z10.000
F2000 x13.632 y49.983 z0.000

( Loop )
G90 F250
x13.632 y49.983 z-1.000
F250
x13.632 y42.406 z-1.000
x12.188 y42.406 z-1.000
x12.188 y49.989 z-1.000
x7.447 y49.989 z-1.000

( Current depth = -2.000 )

( Loop )
G90 F250
x7.447 y49.989 z-2.000
F250
x12.188 y49.989 z-2.000
x12.188 y42.406 z-2.000
x13.632 y42.406 z-2.000
x13.632 y49.983 z-2.000

( Current depth = -3.000 )

( Loop )
G90 F250
x13.632 y49.983 z-3.000
F250
x13.632 y42.406 z-3.000
x12.188 y42.406 z-3.000
x12.188 y49.989 z-3.000
x7.447 y49.989 z-3.000

( Lift to 10.000 )
F2000 z10.000

( Trajeto da ferramenta 7 )
( ------------------------- )

( Spindle on )
M3
S500

( Current depth = -1.000 )

( MoveToStartpoint2 )
F2000 G90 z10.000
F2000 x7.231 y7.125 z10.000
F2000 x7.231 y7.125 z0.000

( Loop )
G90 F250
x7.231 y7.125 z-1.000
F250
x7.596 y7.144 z-1.000
x7.949 y7.183 z-1.000
x8.255 y7.234 z-1.000
x8.560 y7.302 z-1.000
x8.838 y7.383 z-1.000
x8.897 y7.403 z-1.000
x9.481 y7.662 z-1.000
x9.943 y7.959 z-1.000
x10.347 y8.316 z-1.000
x10.697 y8.732 z-1.000
x11.017 y9.235 z-1.000
x11.293 y9.811 z-1.000
x11.526 y10.463 z-1.000
x11.720 y11.201 z-1.000
x11.863 y11.980 z-1.000
x11.963 y12.824 z-1.000
x12.023 y13.722 z-1.000
x12.042 y14.690 z-1.000
x12.040 y14.907 z-1.000
x11.995 y15.867 z-1.000
x11.898 y16.788 z-1.000
x11.746 y17.695 z-1.000
x11.545 y18.561 z-1.000
x11.287 y19.412 z-1.000
x10.978 y20.221 z-1.000
x10.620 y20.984 z-1.000
x10.216 y21.696 z-1.000
x9.751 y22.373 z-1.000
x9.254 y22.974 z-1.000
x8.702 y23.523 z-1.000
x8.106 y24.007 z-1.000
x7.467 y24.422 z-1.000
x6.759 y24.779 z-1.000
x6.015 y25.057 z-1.000
x5.185 y25.267 z-1.000
x4.674 y25.353 z-1.000
x3.411 y25.436 z-1.000
x2.446 y25.327 z-1.000
x1.718 y25.085 z-1.000
x1.140 y24.733 z-1.000
x0.652 y24.265 z-1.000
x0.215 y23.659 z-1.000
x-0.169 y22.922 z-1.000
x-0.505 y22.069 z-1.000
x-0.797 y21.141 z-1.000
x-1.066 y20.150 z-1.000
x-1.320 y19.163 z-1.000
x-1.326 y19.141 z-1.000
x-1.588 y18.182 z-1.000
x-1.602 y18.131 z-1.000
x-1.759 y17.623 z-1.000
x-1.770 y17.589 z-1.000
x-1.941 y17.077 z-1.000
x-1.964 y17.014 z-1.000
x-2.155 y16.514 z-1.000
x-2.176 y16.461 z-1.000
x-2.198 y16.412 z-1.000
x-2.417 y15.940 z-1.000
x-2.442 y15.889 z-1.000
x-2.468 y15.839 z-1.000
x-2.494 y15.794 z-1.000
x-2.749 y15.367 z-1.000
x-2.779 y15.319 z-1.000
x-2.810 y15.272 z-1.000
x-2.843 y15.227 z-1.000
x-2.879 y15.181 z-1.000
x-3.176 y14.815 z-1.000
x-3.213 y14.772 z-1.000
x-3.250 y14.730 z-1.000
x-3.290 y14.689 z-1.000
x-3.330 y14.650 z-1.000
x-3.393 y14.595 z-1.000
x-3.739 y14.307 z-1.000
x-3.783 y14.272 z-1.000
x-3.829 y14.238 z-1.000
x-3.875 y14.206 z-1.000
x-3.922 y14.175 z-1.000
x-3.971 y14.147 z-1.000
x-4.020 y14.120 z-1.000
x-4.066 y14.097 z-1.000
x-4.469 y13.903 z-1.000
x-4.521 y13.879 z-1.000
x-4.573 y13.857 z-1.000
x-4.625 y13.838 z-1.000
x-4.679 y13.820 z-1.000
x-4.733 y13.804 z-1.000
x-4.787 y13.789 z-1.000
x-4.842 y13.777 z-1.000
x-4.877 y13.771 z-1.000
x-5.344 y13.687 z-1.000
x-5.400 y13.678 z-1.000
x-5.455 y13.671 z-1.000
x-5.512 y13.666 z-1.000
x-5.568 y13.663 z-1.000
x-5.624 y13.662 z-1.000
x-5.681 y13.662 z-1.000
x-5.751 y13.667 z-1.000
x-6.290 y13.710 z-1.000
x-6.346 y13.715 z-1.000
x-6.402 y13.722 z-1.000
x-6.458 y13.732 z-1.000
x-6.513 y13.743 z-1.000
x-6.568 y13.757 z-1.000
x-6.616 y13.770 z-1.000
x-7.000 y13.884 z-1.000
x-7.054 y13.901 z-1.000
x-7.107 y13.920 z-1.000
x-7.159 y13.941 z-1.000
x-7.211 y13.963 z-1.000
x-7.263 y13.988 z-1.000
x-7.628 y14.172 z-1.000
x-7.677 y14.199 z-1.000
x-7.726 y14.227 z-1.000
x-7.774 y14.256 z-1.000
x-7.836 y14.298 z-1.000
x-8.179 y14.543 z-1.000
x-8.224 y14.577 z-1.000
x-8.268 y14.612 z-1.000
x-8.311 y14.649 z-1.000
x-8.354 y14.689 z-1.000
x-8.667 y14.989 z-1.000
x-8.707 y15.029 z-1.000
x-8.746 y15.070 z-1.000
x-8.783 y15.112 z-1.000
x-8.802 y15.135 z-1.000
x-9.082 y15.480 z-1.000
x-9.116 y15.524 z-1.000
x-9.149 y15.570 z-1.000
x-9.195 y15.639 z-1.000
x-9.435 y16.023 z-1.000
x-9.464 y16.071 z-1.000
x-9.491 y16.120 z-1.000
x-9.523 y16.183 z-1.000
x-9.720 y16.598 z-1.000
x-9.743 y16.650 z-1.000
x-9.765 y16.702 z-1.000
x-9.792 y16.776 z-1.000
x-9.938 y17.213 z-1.000
x-9.955 y17.267 z-1.000
x-9.970 y17.321 z-1.000
x-9.988 y17.399 z-1.000
x-10.080 y17.851 z-1.000
x-10.090 y17.907 z-1.000
x-10.098 y17.963 z-1.000
x-10.104 y18.019 z-1.000
x-10.108 y18.058 z-1.000
x-10.140 y18.518 z-1.000
x-10.143 y18.574 z-1.000
x-10.143 y18.671 z-1.000
x-10.134 y19.001 z-1.000
x-10.131 y19.058 z-1.000
x-10.129 y19.090 z-1.000
x-10.103 y19.401 z-1.000
x-10.097 y19.457 z-1.000
x-10.092 y19.500 z-1.000
x-10.049 y19.792 z-1.000
x-10.039 y19.848 z-1.000
x-10.029 y19.899 z-1.000
x-9.970 y20.170 z-1.000
x-9.957 y20.225 z-1.000
x-9.939 y20.290 z-1.000
x-9.863 y20.542 z-1.000
x-9.846 y20.596 z-1.000
x-9.827 y20.649 z-1.000
x-9.816 y20.677 z-1.000
x-9.723 y20.908 z-1.000
x-9.701 y20.960 z-1.000
x-9.677 y21.011 z-1.000
x-9.663 y21.038 z-1.000
x-9.555 y21.249 z-1.000
x-9.529 y21.299 z-1.000
x-9.500 y21.348 z-1.000
x-9.471 y21.394 z-1.000
x-9.347 y21.584 z-1.000
x-9.316 y21.630 z-1.000
x-9.283 y21.676 z-1.000
x-9.243 y21.725 z-1.000
x-9.103 y21.895 z-1.000
x-9.067 y21.938 z-1.000
x-9.029 y21.980 z-1.000
x-8.974 y22.034 z-1.000
x-8.818 y22.183 z-1.000
x-8.777 y22.221 z-1.000
x-8.723 y22.268 z-1.000
x-8.553 y22.406 z-1.000
x-8.508 y22.440 z-1.000
x-8.463 y22.473 z-1.000
x-8.407 y22.511 z-1.000
x-8.224 y22.628 z-1.000
x-8.176 y22.657 z-1.000
x-8.127 y22.685 z-1.000
x-8.067 y22.716 z-1.000
x-7.871 y22.812 z-1.000
x-7.820 y22.836 z-1.000
x-7.768 y22.858 z-1.000
x-7.707 y22.881 z-1.000
x-7.497 y22.956 z-1.000
x-7.444 y22.974 z-1.000
x-7.390 y22.990 z-1.000
x-7.335 y23.004 z-1.000
x-7.111 y23.058 z-1.000
x-7.056 y23.071 z-1.000
x-7.001 y23.081 z-1.000
x-6.991 y23.082 z-1.000
x-6.991 y26.799 z-1.000
x-7.555 y26.857 z-1.000
x-8.330 y26.827 z-1.000
x-8.985 y26.696 z-1.000
x-9.523 y26.488 z-1.000
x-9.996 y26.198 z-1.000
x-10.402 y25.840 z-1.000
x-10.780 y25.379 z-1.000
x-11.107 y24.839 z-1.000
x-11.393 y24.202 z-1.000
x-11.629 y23.485 z-1.000
x-11.812 y22.698 z-1.000
x-11.940 y21.865 z-1.000
x-12.016 y20.968 z-1.000
x-12.042 y20.014 z-1.000
x-12.042 y19.978 z-1.000
x-12.022 y19.168 z-1.000
x-11.973 y18.412 z-1.000
x-11.889 y17.655 z-1.000
x-11.767 y16.894 z-1.000
x-11.611 y16.168 z-1.000
x-11.421 y15.480 z-1.000
x-11.180 y14.781 z-1.000
x-10.911 y14.146 z-1.000
x-10.593 y13.529 z-1.000
x-10.234 y12.951 z-1.000
x-9.829 y12.410 z-1.000
x-9.373 y11.904 z-1.000
x-8.872 y11.442 z-1.000
x-8.301 y11.009 z-1.000
x-7.681 y10.628 z-1.000
x-6.978 y10.282 z-1.000
x-6.215 y9.992 z-1.000
x-5.391 y9.758 z-1.000
x-4.736 y9.658 z-1.000
x-4.068 y9.618 z-1.000
x-3.474 y9.642 z-1.000
x-2.936 y9.724 z-1.000
x-2.450 y9.861 z-1.000
x-2.025 y10.045 z-1.000
x-1.641 y10.284 z-1.000
x-1.319 y10.561 z-1.000
x-1.018 y10.914 z-1.000
x-0.752 y11.341 z-1.000
x-0.159 y12.625 z-1.000
x0.308 y13.920 z-1.000
x0.692 y15.206 z-1.000
x0.691 y15.206 z-1.000
x1.037 y16.475 z-1.000
x1.044 y16.499 z-1.000
x1.375 y17.642 z-1.000
x1.392 y17.695 z-1.000
x1.412 y17.752 z-1.000
x1.775 y18.731 z-1.000
x1.795 y18.783 z-1.000
x1.817 y18.835 z-1.000
x1.842 y18.886 z-1.000
x1.881 y18.960 z-1.000
x2.321 y19.739 z-1.000
x2.349 y19.787 z-1.000
x2.380 y19.835 z-1.000
x2.412 y19.881 z-1.000
x2.445 y19.926 z-1.000
x2.480 y19.970 z-1.000
x2.517 y20.013 z-1.000
x2.555 y20.055 z-1.000
x2.601 y20.101 z-1.000
x3.164 y20.644 z-1.000
x3.205 y20.682 z-1.000
x3.248 y20.719 z-1.000
x3.292 y20.754 z-1.000
x3.337 y20.788 z-1.000
x3.383 y20.820 z-1.000
x3.430 y20.851 z-1.000
x3.479 y20.880 z-1.000
x3.528 y20.907 z-1.000
x3.579 y20.932 z-1.000
x3.630 y20.955 z-1.000
x3.682 y20.977 z-1.000
x3.717 y20.991 z-1.000
x4.447 y21.260 z-1.000
x4.500 y21.278 z-1.000
x4.554 y21.295 z-1.000
x4.609 y21.309 z-1.000
x4.663 y21.322 z-1.000
x4.719 y21.333 z-1.000
x4.774 y21.342 z-1.000
x4.830 y21.349 z-1.000
x4.886 y21.354 z-1.000
x4.943 y21.357 z-1.000
x4.999 y21.357 z-1.000
x5.065 y21.356 z-1.000
x6.009 y21.315 z-1.000
x6.065 y21.312 z-1.000
x6.121 y21.306 z-1.000
x6.177 y21.299 z-1.000
x6.233 y21.289 z-1.000
x6.288 y21.278 z-1.000
x6.343 y21.265 z-1.000
x6.411 y21.245 z-1.000
x6.907 y21.091 z-1.000
x6.960 y21.073 z-1.000
x7.013 y21.054 z-1.000
x7.065 y21.032 z-1.000
x7.117 y21.009 z-1.000
x7.167 y20.984 z-1.000
x7.207 y20.963 z-1.000
x7.650 y20.717 z-1.000
x7.698 y20.689 z-1.000
x7.746 y20.659 z-1.000
x7.793 y20.627 z-1.000
x7.838 y20.594 z-1.000
x7.894 y20.550 z-1.000
x8.286 y20.224 z-1.000
x8.329 y20.187 z-1.000
x8.370 y20.148 z-1.000
x8.410 y20.109 z-1.000
x8.449 y20.068 z-1.000
x8.469 y20.044 z-1.000
x8.808 y19.654 z-1.000
x8.844 y19.611 z-1.000
x8.879 y19.567 z-1.000
x8.912 y19.521 z-1.000
x8.941 y19.479 z-1.000
x9.228 y19.038 z-1.000
x9.257 y18.990 z-1.000
x9.286 y18.941 z-1.000
x9.321 y18.874 z-1.000
x9.556 y18.397 z-1.000
x9.580 y18.346 z-1.000
x9.602 y18.294 z-1.000
x9.623 y18.240 z-1.000
x9.805 y17.742 z-1.000
x9.823 y17.689 z-1.000
x9.840 y17.635 z-1.000
x9.851 y17.595 z-1.000
x9.982 y17.089 z-1.000
x9.995 y17.034 z-1.000
x10.006 y16.979 z-1.000
x10.013 y16.936 z-1.000
x10.091 y16.437 z-1.000
x10.099 y16.381 z-1.000
x10.105 y16.325 z-1.000
x10.108 y16.278 z-1.000
x10.134 y15.800 z-1.000
x10.136 y15.744 z-1.000
x10.136 y15.688 z-1.000
x10.134 y15.622 z-1.000
x10.094 y14.933 z-1.000
x10.090 y14.877 z-1.000
x10.083 y14.821 z-1.000
x10.075 y14.765 z-1.000
x10.068 y14.728 z-1.000
x9.949 y14.104 z-1.000
x9.938 y14.048 z-1.000
x9.924 y13.994 z-1.000
x9.909 y13.940 z-1.000
x9.885 y13.868 z-1.000
x9.688 y13.315 z-1.000
x9.669 y13.263 z-1.000
x9.647 y13.211 z-1.000
x9.623 y13.159 z-1.000
x9.598 y13.109 z-1.000
x9.571 y13.059 z-1.000
x9.298 y12.582 z-1.000
x9.269 y12.534 z-1.000
x9.238 y12.487 z-1.000
x9.206 y12.440 z-1.000
x9.172 y12.395 z-1.000
x9.137 y12.352 z-1.000
x9.108 y12.318 z-1.000
x8.759 y11.924 z-1.000
x8.721 y11.883 z-1.000
x8.682 y11.843 z-1.000
x8.641 y11.804 z-1.000
x8.598 y11.767 z-1.000
x8.555 y11.731 z-1.000
x8.505 y11.694 z-1.000
x8.082 y11.386 z-1.000
x8.036 y11.353 z-1.000
x7.989 y11.323 z-1.000
x7.941 y11.294 z-1.000
x7.891 y11.266 z-1.000
x7.841 y11.241 z-1.000
x7.778 y11.212 z-1.000
x7.283 y10.998 z-1.000
x7.231 y10.976 z-1.000
x7.178 y10.957 z-1.000
x7.125 y10.939 z-1.000
x7.070 y10.923 z-1.000
x7.016 y10.910 z-1.000
x6.971 y10.900 z-1.000
x6.404 y10.784 z-1.000
x6.349 y10.773 z-1.000
x6.332 y10.771 z-1.000
x6.332 y7.147 z-1.000
x6.432 y7.139 z-1.000
x6.850 y7.121 z-1.000
x7.231 y7.125 z-1.000

( Current depth = -2.000 )

( Loop )
G90 F250
x7.231 y7.125 z-2.000
F250
x7.596 y7.144 z-2.000
x7.949 y7.183 z-2.000
x8.255 y7.234 z-2.000
x8.560 y7.302 z-2.000
x8.838 y7.383 z-2.000
x8.897 y7.403 z-2.000
x9.481 y7.662 z-2.000
x9.943 y7.959 z-2.000
x10.347 y8.316 z-2.000
x10.697 y8.732 z-2.000
x11.017 y9.235 z-2.000
x11.293 y9.811 z-2.000
x11.526 y10.463 z-2.000
x11.720 y11.201 z-2.000
x11.863 y11.980 z-2.000
x11.963 y12.824 z-2.000
x12.023 y13.722 z-2.000
x12.042 y14.690 z-2.000
x12.040 y14.907 z-2.000
x11.995 y15.867 z-2.000
x11.898 y16.788 z-2.000
x11.746 y17.695 z-2.000
x11.545 y18.561 z-2.000
x11.287 y19.412 z-2.000
x10.978 y20.221 z-2.000
x10.620 y20.984 z-2.000
x10.216 y21.696 z-2.000
x9.751 y22.373 z-2.000
x9.254 y22.974 z-2.000
x8.702 y23.523 z-2.000
x8.106 y24.007 z-2.000
x7.467 y24.422 z-2.000
x6.759 y24.779 z-2.000
x6.015 y25.057 z-2.000
x5.185 y25.267 z-2.000
x4.674 y25.353 z-2.000
x3.411 y25.436 z-2.000
x2.446 y25.327 z-2.000
x1.718 y25.085 z-2.000
x1.140 y24.733 z-2.000
x0.652 y24.265 z-2.000
x0.215 y23.659 z-2.000
x-0.169 y22.922 z-2.000
x-0.505 y22.069 z-2.000
x-0.797 y21.141 z-2.000
x-1.066 y20.150 z-2.000
x-1.320 y19.163 z-2.000
x-1.326 y19.141 z-2.000
x-1.588 y18.182 z-2.000
x-1.602 y18.131 z-2.000
x-1.759 y17.623 z-2.000
x-1.770 y17.589 z-2.000
x-1.941 y17.077 z-2.000
x-1.964 y17.014 z-2.000
x-2.155 y16.514 z-2.000
x-2.176 y16.461 z-2.000
x-2.198 y16.412 z-2.000
x-2.417 y15.940 z-2.000
x-2.442 y15.889 z-2.000
x-2.468 y15.839 z-2.000
x-2.494 y15.794 z-2.000
x-2.749 y15.367 z-2.000
x-2.779 y15.319 z-2.000
x-2.810 y15.272 z-2.000
x-2.843 y15.227 z-2.000
x-2.879 y15.181 z-2.000
x-3.176 y14.815 z-2.000
x-3.213 y14.772 z-2.000
x-3.250 y14.730 z-2.000
x-3.290 y14.689 z-2.000
x-3.330 y14.650 z-2.000
x-3.393 y14.595 z-2.000
x-3.739 y14.307 z-2.000
x-3.783 y14.272 z-2.000
x-3.829 y14.238 z-2.000
x-3.875 y14.206 z-2.000
x-3.922 y14.175 z-2.000
x-3.971 y14.147 z-2.000
x-4.020 y14.120 z-2.000
x-4.066 y14.097 z-2.000
x-4.469 y13.903 z-2.000
x-4.521 y13.879 z-2.000
x-4.573 y13.857 z-2.000
x-4.625 y13.838 z-2.000
x-4.679 y13.820 z-2.000
x-4.733 y13.804 z-2.000
x-4.787 y13.789 z-2.000
x-4.842 y13.777 z-2.000
x-4.877 y13.771 z-2.000
x-5.344 y13.687 z-2.000
x-5.400 y13.678 z-2.000
x-5.455 y13.671 z-2.000
x-5.512 y13.666 z-2.000
x-5.568 y13.663 z-2.000
x-5.624 y13.662 z-2.000
x-5.681 y13.662 z-2.000
x-5.751 y13.667 z-2.000
x-6.290 y13.710 z-2.000
x-6.346 y13.715 z-2.000
x-6.402 y13.722 z-2.000
x-6.458 y13.732 z-2.000
x-6.513 y13.743 z-2.000
x-6.568 y13.757 z-2.000
x-6.616 y13.770 z-2.000
x-7.000 y13.884 z-2.000
x-7.054 y13.901 z-2.000
x-7.107 y13.920 z-2.000
x-7.159 y13.941 z-2.000
x-7.211 y13.963 z-2.000
x-7.263 y13.988 z-2.000
x-7.628 y14.172 z-2.000
x-7.677 y14.199 z-2.000
x-7.726 y14.227 z-2.000
x-7.774 y14.256 z-2.000
x-7.836 y14.298 z-2.000
x-8.179 y14.543 z-2.000
x-8.224 y14.577 z-2.000
x-8.268 y14.612 z-2.000
x-8.311 y14.649 z-2.000
x-8.354 y14.689 z-2.000
x-8.667 y14.989 z-2.000
x-8.707 y15.029 z-2.000
x-8.746 y15.070 z-2.000
x-8.783 y15.112 z-2.000
x-8.802 y15.135 z-2.000
x-9.082 y15.480 z-2.000
x-9.116 y15.524 z-2.000
x-9.149 y15.570 z-2.000
x-9.195 y15.639 z-2.000
x-9.435 y16.023 z-2.000
x-9.464 y16.071 z-2.000
x-9.491 y16.120 z-2.000
x-9.523 y16.183 z-2.000
x-9.720 y16.598 z-2.000
x-9.743 y16.650 z-2.000
x-9.765 y16.702 z-2.000
x-9.792 y16.776 z-2.000
x-9.938 y17.213 z-2.000
x-9.955 y17.267 z-2.000
x-9.970 y17.321 z-2.000
x-9.988 y17.399 z-2.000
x-10.080 y17.851 z-2.000
x-10.090 y17.907 z-2.000
x-10.098 y17.963 z-2.000
x-10.104 y18.019 z-2.000
x-10.108 y18.058 z-2.000
x-10.140 y18.518 z-2.000
x-10.143 y18.574 z-2.000
x-10.143 y18.671 z-2.000
x-10.134 y19.001 z-2.000
x-10.131 y19.058 z-2.000
x-10.129 y19.090 z-2.000
x-10.103 y19.401 z-2.000
x-10.097 y19.457 z-2.000
x-10.092 y19.500 z-2.000
x-10.049 y19.792 z-2.000
x-10.039 y19.848 z-2.000
x-10.029 y19.899 z-2.000
x-9.970 y20.170 z-2.000
x-9.957 y20.225 z-2.000
x-9.939 y20.290 z-2.000
x-9.863 y20.542 z-2.000
x-9.846 y20.596 z-2.000
x-9.827 y20.649 z-2.000
x-9.816 y20.677 z-2.000
x-9.723 y20.908 z-2.000
x-9.701 y20.960 z-2.000
x-9.677 y21.011 z-2.000
x-9.663 y21.038 z-2.000
x-9.555 y21.249 z-2.000
x-9.529 y21.299 z-2.000
x-9.500 y21.348 z-2.000
x-9.471 y21.394 z-2.000
x-9.347 y21.584 z-2.000
x-9.316 y21.630 z-2.000
x-9.283 y21.676 z-2.000
x-9.243 y21.725 z-2.000
x-9.103 y21.895 z-2.000
x-9.067 y21.938 z-2.000
x-9.029 y21.980 z-2.000
x-8.974 y22.034 z-2.000
x-8.818 y22.183 z-2.000
x-8.777 y22.221 z-2.000
x-8.723 y22.268 z-2.000
x-8.553 y22.406 z-2.000
x-8.508 y22.440 z-2.000
x-8.463 y22.473 z-2.000
x-8.407 y22.511 z-2.000
x-8.224 y22.628 z-2.000
x-8.176 y22.657 z-2.000
x-8.127 y22.685 z-2.000
x-8.067 y22.716 z-2.000
x-7.871 y22.812 z-2.000
x-7.820 y22.836 z-2.000
x-7.768 y22.858 z-2.000
x-7.707 y22.881 z-2.000
x-7.497 y22.956 z-2.000
x-7.444 y22.974 z-2.000
x-7.390 y22.990 z-2.000
x-7.335 y23.004 z-2.000
x-7.111 y23.058 z-2.000
x-7.056 y23.071 z-2.000
x-7.001 y23.081 z-2.000
x-6.991 y23.082 z-2.000
x-6.991 y26.799 z-2.000
x-7.555 y26.857 z-2.000
x-8.330 y26.827 z-2.000
x-8.985 y26.696 z-2.000
x-9.523 y26.488 z-2.000
x-9.996 y26.198 z-2.000
x-10.402 y25.840 z-2.000
x-10.780 y25.379 z-2.000
x-11.107 y24.839 z-2.000
x-11.393 y24.202 z-2.000
x-11.629 y23.485 z-2.000
x-11.812 y22.698 z-2.000
x-11.940 y21.865 z-2.000
x-12.016 y20.968 z-2.000
x-12.042 y20.014 z-2.000
x-12.042 y19.978 z-2.000
x-12.022 y19.168 z-2.000
x-11.973 y18.412 z-2.000
x-11.889 y17.655 z-2.000
x-11.767 y16.894 z-2.000
x-11.611 y16.168 z-2.000
x-11.421 y15.480 z-2.000
x-11.180 y14.781 z-2.000
x-10.911 y14.146 z-2.000
x-10.593 y13.529 z-2.000
x-10.234 y12.951 z-2.000
x-9.829 y12.410 z-2.000
x-9.373 y11.904 z-2.000
x-8.872 y11.442 z-2.000
x-8.301 y11.009 z-2.000
x-7.681 y10.628 z-2.000
x-6.978 y10.282 z-2.000
x-6.215 y9.992 z-2.000
x-5.391 y9.758 z-2.000
x-4.736 y9.658 z-2.000
x-4.068 y9.618 z-2.000
x-3.474 y9.642 z-2.000
x-2.936 y9.724 z-2.000
x-2.450 y9.861 z-2.000
x-2.025 y10.045 z-2.000
x-1.641 y10.284 z-2.000
x-1.319 y10.561 z-2.000
x-1.018 y10.914 z-2.000
x-0.752 y11.341 z-2.000
x-0.159 y12.625 z-2.000
x0.308 y13.920 z-2.000
x0.692 y15.206 z-2.000
x0.691 y15.206 z-2.000
x1.037 y16.475 z-2.000
x1.044 y16.499 z-2.000
x1.375 y17.642 z-2.000
x1.392 y17.695 z-2.000
x1.412 y17.752 z-2.000
x1.775 y18.731 z-2.000
x1.795 y18.783 z-2.000
x1.817 y18.835 z-2.000
x1.842 y18.886 z-2.000
x1.881 y18.960 z-2.000
x2.321 y19.739 z-2.000
x2.349 y19.787 z-2.000
x2.380 y19.835 z-2.000
x2.412 y19.881 z-2.000
x2.445 y19.926 z-2.000
x2.480 y19.970 z-2.000
x2.517 y20.013 z-2.000
x2.555 y20.055 z-2.000
x2.601 y20.101 z-2.000
x3.164 y20.644 z-2.000
x3.205 y20.682 z-2.000
x3.248 y20.719 z-2.000
x3.292 y20.754 z-2.000
x3.337 y20.788 z-2.000
x3.383 y20.820 z-2.000
x3.430 y20.851 z-2.000
x3.479 y20.880 z-2.000
x3.528 y20.907 z-2.000
x3.579 y20.932 z-2.000
x3.630 y20.955 z-2.000
x3.682 y20.977 z-2.000
x3.717 y20.991 z-2.000
x4.447 y21.260 z-2.000
x4.500 y21.278 z-2.000
x4.554 y21.295 z-2.000
x4.609 y21.309 z-2.000
x4.663 y21.322 z-2.000
x4.719 y21.333 z-2.000
x4.774 y21.342 z-2.000
x4.830 y21.349 z-2.000
x4.886 y21.354 z-2.000
x4.943 y21.357 z-2.000
x4.999 y21.357 z-2.000
x5.065 y21.356 z-2.000
x6.009 y21.315 z-2.000
x6.065 y21.312 z-2.000
x6.121 y21.306 z-2.000
x6.177 y21.299 z-2.000
x6.233 y21.289 z-2.000
x6.288 y21.278 z-2.000
x6.343 y21.265 z-2.000
x6.411 y21.245 z-2.000
x6.907 y21.091 z-2.000
x6.960 y21.073 z-2.000
x7.013 y21.054 z-2.000
x7.065 y21.032 z-2.000
x7.117 y21.009 z-2.000
x7.167 y20.984 z-2.000
x7.207 y20.963 z-2.000
x7.650 y20.717 z-2.000
x7.698 y20.689 z-2.000
x7.746 y20.659 z-2.000
x7.793 y20.627 z-2.000
x7.838 y20.594 z-2.000
x7.894 y20.550 z-2.000
x8.286 y20.224 z-2.000
x8.329 y20.187 z-2.000
x8.370 y20.148 z-2.000
x8.410 y20.109 z-2.000
x8.449 y20.068 z-2.000
x8.469 y20.044 z-2.000
x8.808 y19.654 z-2.000
x8.844 y19.611 z-2.000
x8.879 y19.567 z-2.000
x8.912 y19.521 z-2.000
x8.941 y19.479 z-2.000
x9.228 y19.038 z-2.000
x9.257 y18.990 z-2.000
x9.286 y18.941 z-2.000
x9.321 y18.874 z-2.000
x9.556 y18.397 z-2.000
x9.580 y18.346 z-2.000
x9.602 y18.294 z-2.000
x9.623 y18.240 z-2.000
x9.805 y17.742 z-2.000
x9.823 y17.689 z-2.000
x9.840 y17.635 z-2.000
x9.851 y17.595 z-2.000
x9.982 y17.089 z-2.000
x9.995 y17.034 z-2.000
x10.006 y16.979 z-2.000
x10.013 y16.936 z-2.000
x10.091 y16.437 z-2.000
x10.099 y16.381 z-2.000
x10.105 y16.325 z-2.000
x10.108 y16.278 z-2.000
x10.134 y15.800 z-2.000
x10.136 y15.744 z-2.000
x10.136 y15.688 z-2.000
x10.134 y15.622 z-2.000
x10.094 y14.933 z-2.000
x10.090 y14.877 z-2.000
x10.083 y14.821 z-2.000
x10.075 y14.765 z-2.000
x10.068 y14.728 z-2.000
x9.949 y14.104 z-2.000
x9.938 y14.048 z-2.000
x9.924 y13.994 z-2.000
x9.909 y13.940 z-2.000
x9.885 y13.868 z-2.000
x9.688 y13.315 z-2.000
x9.669 y13.263 z-2.000
x9.647 y13.211 z-2.000
x9.623 y13.159 z-2.000
x9.598 y13.109 z-2.000
x9.571 y13.059 z-2.000
x9.298 y12.582 z-2.000
x9.269 y12.534 z-2.000
x9.238 y12.487 z-2.000
x9.206 y12.440 z-2.000
x9.172 y12.395 z-2.000
x9.137 y12.352 z-2.000
x9.108 y12.318 z-2.000
x8.759 y11.924 z-2.000
x8.721 y11.883 z-2.000
x8.682 y11.843 z-2.000
x8.641 y11.804 z-2.000
x8.598 y11.767 z-2.000
x8.555 y11.731 z-2.000
x8.505 y11.694 z-2.000
x8.082 y11.386 z-2.000
x8.036 y11.353 z-2.000
x7.989 y11.323 z-2.000
x7.941 y11.294 z-2.000
x7.891 y11.266 z-2.000
x7.841 y11.241 z-2.000
x7.778 y11.212 z-2.000
x7.283 y10.998 z-2.000
x7.231 y10.976 z-2.000
x7.178 y10.957 z-2.000
x7.125 y10.939 z-2.000
x7.070 y10.923 z-2.000
x7.016 y10.910 z-2.000
x6.971 y10.900 z-2.000
x6.404 y10.784 z-2.000
x6.349 y10.773 z-2.000
x6.332 y10.771 z-2.000
x6.332 y7.147 z-2.000
x6.432 y7.139 z-2.000
x6.850 y7.121 z-2.000
x7.231 y7.125 z-2.000

( Current depth = -3.000 )

( Loop )
G90 F250
x7.231 y7.125 z-3.000
F250
x7.596 y7.144 z-3.000
x7.949 y7.183 z-3.000
x8.255 y7.234 z-3.000
x8.560 y7.302 z-3.000
x8.838 y7.383 z-3.000
x8.897 y7.403 z-3.000
x9.481 y7.662 z-3.000
x9.943 y7.959 z-3.000
x10.347 y8.316 z-3.000
x10.697 y8.732 z-3.000
x11.017 y9.235 z-3.000
x11.293 y9.811 z-3.000
x11.526 y10.463 z-3.000
x11.720 y11.201 z-3.000
x11.863 y11.980 z-3.000
x11.963 y12.824 z-3.000
x12.023 y13.722 z-3.000
x12.042 y14.690 z-3.000
x12.040 y14.907 z-3.000
x11.995 y15.867 z-3.000
x11.898 y16.788 z-3.000
x11.746 y17.695 z-3.000
x11.545 y18.561 z-3.000
x11.287 y19.412 z-3.000
x10.978 y20.221 z-3.000
x10.620 y20.984 z-3.000
x10.216 y21.696 z-3.000
x9.751 y22.373 z-3.000
x9.254 y22.974 z-3.000
x8.702 y23.523 z-3.000
x8.106 y24.007 z-3.000
x7.467 y24.422 z-3.000
x6.759 y24.779 z-3.000
x6.015 y25.057 z-3.000
x5.185 y25.267 z-3.000
x4.674 y25.353 z-3.000
x3.411 y25.436 z-3.000
x2.446 y25.327 z-3.000
x1.718 y25.085 z-3.000
x1.140 y24.733 z-3.000
x0.652 y24.265 z-3.000
x0.215 y23.659 z-3.000
x-0.169 y22.922 z-3.000
x-0.505 y22.069 z-3.000
x-0.797 y21.141 z-3.000
x-1.066 y20.150 z-3.000
x-1.320 y19.163 z-3.000
x-1.326 y19.141 z-3.000
x-1.588 y18.182 z-3.000
x-1.602 y18.131 z-3.000
x-1.759 y17.623 z-3.000
x-1.770 y17.589 z-3.000
x-1.941 y17.077 z-3.000
x-1.964 y17.014 z-3.000
x-2.155 y16.514 z-3.000
x-2.176 y16.461 z-3.000
x-2.198 y16.412 z-3.000
x-2.417 y15.940 z-3.000
x-2.442 y15.889 z-3.000
x-2.468 y15.839 z-3.000
x-2.494 y15.794 z-3.000
x-2.749 y15.367 z-3.000
x-2.779 y15.319 z-3.000
x-2.810 y15.272 z-3.000
x-2.843 y15.227 z-3.000
x-2.879 y15.181 z-3.000
x-3.176 y14.815 z-3.000
x-3.213 y14.772 z-3.000
x-3.250 y14.730 z-3.000
x-3.290 y14.689 z-3.000
x-3.330 y14.650 z-3.000
x-3.393 y14.595 z-3.000
x-3.739 y14.307 z-3.000
x-3.783 y14.272 z-3.000
x-3.829 y14.238 z-3.000
x-3.875 y14.206 z-3.000
x-3.922 y14.175 z-3.000
x-3.971 y14.147 z-3.000
x-4.020 y14.120 z-3.000
x-4.066 y14.097 z-3.000
x-4.469 y13.903 z-3.000
x-4.521 y13.879 z-3.000
x-4.573 y13.857 z-3.000
x-4.625 y13.838 z-3.000
x-4.679 y13.820 z-3.000
x-4.733 y13.804 z-3.000
x-4.787 y13.789 z-3.000
x-4.842 y13.777 z-3.000
x-4.877 y13.771 z-3.000
x-5.344 y13.687 z-3.000
x-5.400 y13.678 z-3.000
x-5.455 y13.671 z-3.000
x-5.512 y13.666 z-3.000
x-5.568 y13.663 z-3.000
x-5.624 y13.662 z-3.000
x-5.681 y13.662 z-3.000
x-5.751 y13.667 z-3.000
x-6.290 y13.710 z-3.000
x-6.346 y13.715 z-3.000
x-6.402 y13.722 z-3.000
x-6.458 y13.732 z-3.000
x-6.513 y13.743 z-3.000
x-6.568 y13.757 z-3.000
x-6.616 y13.770 z-3.000
x-7.000 y13.884 z-3.000
x-7.054 y13.901 z-3.000
x-7.107 y13.920 z-3.000
x-7.159 y13.941 z-3.000
x-7.211 y13.963 z-3.000
x-7.263 y13.988 z-3.000
x-7.628 y14.172 z-3.000
x-7.677 y14.199 z-3.000
x-7.726 y14.227 z-3.000
x-7.774 y14.256 z-3.000
x-7.836 y14.298 z-3.000
x-8.179 y14.543 z-3.000
x-8.224 y14.577 z-3.000
x-8.268 y14.612 z-3.000
x-8.311 y14.649 z-3.000
x-8.354 y14.689 z-3.000
x-8.667 y14.989 z-3.000
x-8.707 y15.029 z-3.000
x-8.746 y15.070 z-3.000
x-8.783 y15.112 z-3.000
x-8.802 y15.135 z-3.000
x-9.082 y15.480 z-3.000
x-9.116 y15.524 z-3.000
x-9.149 y15.570 z-3.000
x-9.195 y15.639 z-3.000
x-9.435 y16.023 z-3.000
x-9.464 y16.071 z-3.000
x-9.491 y16.120 z-3.000
x-9.523 y16.183 z-3.000
x-9.720 y16.598 z-3.000
x-9.743 y16.650 z-3.000
x-9.765 y16.702 z-3.000
x-9.792 y16.776 z-3.000
x-9.938 y17.213 z-3.000
x-9.955 y17.267 z-3.000
x-9.970 y17.321 z-3.000
x-9.988 y17.399 z-3.000
x-10.080 y17.851 z-3.000
x-10.090 y17.907 z-3.000
x-10.098 y17.963 z-3.000
x-10.104 y18.019 z-3.000
x-10.108 y18.058 z-3.000
x-10.140 y18.518 z-3.000
x-10.143 y18.574 z-3.000
x-10.143 y18.671 z-3.000
x-10.134 y19.001 z-3.000
x-10.131 y19.058 z-3.000
x-10.129 y19.090 z-3.000
x-10.103 y19.401 z-3.000
x-10.097 y19.457 z-3.000
x-10.092 y19.500 z-3.000
x-10.049 y19.792 z-3.000
x-10.039 y19.848 z-3.000
x-10.029 y19.899 z-3.000
x-9.970 y20.170 z-3.000
x-9.957 y20.225 z-3.000
x-9.939 y20.290 z-3.000
x-9.863 y20.542 z-3.000
x-9.846 y20.596 z-3.000
x-9.827 y20.649 z-3.000
x-9.816 y20.677 z-3.000
x-9.723 y20.908 z-3.000
x-9.701 y20.960 z-3.000
x-9.677 y21.011 z-3.000
x-9.663 y21.038 z-3.000
x-9.555 y21.249 z-3.000
x-9.529 y21.299 z-3.000
x-9.500 y21.348 z-3.000
x-9.471 y21.394 z-3.000
x-9.347 y21.584 z-3.000
x-9.316 y21.630 z-3.000
x-9.283 y21.676 z-3.000
x-9.243 y21.725 z-3.000
x-9.103 y21.895 z-3.000
x-9.067 y21.938 z-3.000
x-9.029 y21.980 z-3.000
x-8.974 y22.034 z-3.000
x-8.818 y22.183 z-3.000
x-8.777 y22.221 z-3.000
x-8.723 y22.268 z-3.000
x-8.553 y22.406 z-3.000
x-8.508 y22.440 z-3.000
x-8.463 y22.473 z-3.000
x-8.407 y22.511 z-3.000
x-8.224 y22.628 z-3.000
x-8.176 y22.657 z-3.000
x-8.127 y22.685 z-3.000
x-8.067 y22.716 z-3.000
x-7.871 y22.812 z-3.000
x-7.820 y22.836 z-3.000
x-7.768 y22.858 z-3.000
x-7.707 y22.881 z-3.000
x-7.497 y22.956 z-3.000
x-7.444 y22.974 z-3.000
x-7.390 y22.990 z-3.000
x-7.335 y23.004 z-3.000
x-7.111 y23.058 z-3.000
x-7.056 y23.071 z-3.000
x-7.001 y23.081 z-3.000
x-6.991 y23.082 z-3.000
x-6.991 y26.799 z-3.000
x-7.555 y26.857 z-3.000
x-8.330 y26.827 z-3.000
x-8.985 y26.696 z-3.000
x-9.523 y26.488 z-3.000
x-9.996 y26.198 z-3.000
x-10.402 y25.840 z-3.000
x-10.780 y25.379 z-3.000
x-11.107 y24.839 z-3.000
x-11.393 y24.202 z-3.000
x-11.629 y23.485 z-3.000
x-11.812 y22.698 z-3.000
x-11.940 y21.865 z-3.000
x-12.016 y20.968 z-3.000
x-12.042 y20.014 z-3.000
x-12.042 y19.978 z-3.000
x-12.022 y19.168 z-3.000
x-11.973 y18.412 z-3.000
x-11.889 y17.655 z-3.000
x-11.767 y16.894 z-3.000
x-11.611 y16.168 z-3.000
x-11.421 y15.480 z-3.000
x-11.180 y14.781 z-3.000
x-10.911 y14.146 z-3.000
x-10.593 y13.529 z-3.000
x-10.234 y12.951 z-3.000
x-9.829 y12.410 z-3.000
x-9.373 y11.904 z-3.000
x-8.872 y11.442 z-3.000
x-8.301 y11.009 z-3.000
x-7.681 y10.628 z-3.000
x-6.978 y10.282 z-3.000
x-6.215 y9.992 z-3.000
x-5.391 y9.758 z-3.000
x-4.736 y9.658 z-3.000
x-4.068 y9.618 z-3.000
x-3.474 y9.642 z-3.000
x-2.936 y9.724 z-3.000
x-2.450 y9.861 z-3.000
x-2.025 y10.045 z-3.000
x-1.641 y10.284 z-3.000
x-1.319 y10.561 z-3.000
x-1.018 y10.914 z-3.000
x-0.752 y11.341 z-3.000
x-0.159 y12.625 z-3.000
x0.308 y13.920 z-3.000
x0.692 y15.206 z-3.000
x0.691 y15.206 z-3.000
x1.037 y16.475 z-3.000
x1.044 y16.499 z-3.000
x1.375 y17.642 z-3.000
x1.392 y17.695 z-3.000
x1.412 y17.752 z-3.000
x1.775 y18.731 z-3.000
x1.795 y18.783 z-3.000
x1.817 y18.835 z-3.000
x1.842 y18.886 z-3.000
x1.881 y18.960 z-3.000
x2.321 y19.739 z-3.000
x2.349 y19.787 z-3.000
x2.380 y19.835 z-3.000
x2.412 y19.881 z-3.000
x2.445 y19.926 z-3.000
x2.480 y19.970 z-3.000
x2.517 y20.013 z-3.000
x2.555 y20.055 z-3.000
x2.601 y20.101 z-3.000
x3.164 y20.644 z-3.000
x3.205 y20.682 z-3.000
x3.248 y20.719 z-3.000
x3.292 y20.754 z-3.000
x3.337 y20.788 z-3.000
x3.383 y20.820 z-3.000
x3.430 y20.851 z-3.000
x3.479 y20.880 z-3.000
x3.528 y20.907 z-3.000
x3.579 y20.932 z-3.000
x3.630 y20.955 z-3.000
x3.682 y20.977 z-3.000
x3.717 y20.991 z-3.000
x4.447 y21.260 z-3.000
x4.500 y21.278 z-3.000
x4.554 y21.295 z-3.000
x4.609 y21.309 z-3.000
x4.663 y21.322 z-3.000
x4.719 y21.333 z-3.000
x4.774 y21.342 z-3.000
x4.830 y21.349 z-3.000
x4.886 y21.354 z-3.000
x4.943 y21.357 z-3.000
x4.999 y21.357 z-3.000
x5.065 y21.356 z-3.000
x6.009 y21.315 z-3.000
x6.065 y21.312 z-3.000
x6.121 y21.306 z-3.000
x6.177 y21.299 z-3.000
x6.233 y21.289 z-3.000
x6.288 y21.278 z-3.000
x6.343 y21.265 z-3.000
x6.411 y21.245 z-3.000
x6.907 y21.091 z-3.000
x6.960 y21.073 z-3.000
x7.013 y21.054 z-3.000
x7.065 y21.032 z-3.000
x7.117 y21.009 z-3.000
x7.167 y20.984 z-3.000
x7.207 y20.963 z-3.000
x7.650 y20.717 z-3.000
x7.698 y20.689 z-3.000
x7.746 y20.659 z-3.000
x7.793 y20.627 z-3.000
x7.838 y20.594 z-3.000
x7.894 y20.550 z-3.000
x8.286 y20.224 z-3.000
x8.329 y20.187 z-3.000
x8.370 y20.148 z-3.000
x8.410 y20.109 z-3.000
x8.449 y20.068 z-3.000
x8.469 y20.044 z-3.000
x8.808 y19.654 z-3.000
x8.844 y19.611 z-3.000
x8.879 y19.567 z-3.000
x8.912 y19.521 z-3.000
x8.941 y19.479 z-3.000
x9.228 y19.038 z-3.000
x9.257 y18.990 z-3.000
x9.286 y18.941 z-3.000
x9.321 y18.874 z-3.000
x9.556 y18.397 z-3.000
x9.580 y18.346 z-3.000
x9.602 y18.294 z-3.000
x9.623 y18.240 z-3.000
x9.805 y17.742 z-3.000
x9.823 y17.689 z-3.000
x9.840 y17.635 z-3.000
x9.851 y17.595 z-3.000
x9.982 y17.089 z-3.000
x9.995 y17.034 z-3.000
x10.006 y16.979 z-3.000
x10.013 y16.936 z-3.000
x10.091 y16.437 z-3.000
x10.099 y16.381 z-3.000
x10.105 y16.325 z-3.000
x10.108 y16.278 z-3.000
x10.134 y15.800 z-3.000
x10.136 y15.744 z-3.000
x10.136 y15.688 z-3.000
x10.134 y15.622 z-3.000
x10.094 y14.933 z-3.000
x10.090 y14.877 z-3.000
x10.083 y14.821 z-3.000
x10.075 y14.765 z-3.000
x10.068 y14.728 z-3.000
x9.949 y14.104 z-3.000
x9.938 y14.048 z-3.000
x9.924 y13.994 z-3.000
x9.909 y13.940 z-3.000
x9.885 y13.868 z-3.000
x9.688 y13.315 z-3.000
x9.669 y13.263 z-3.000
x9.647 y13.211 z-3.000
x9.623 y13.159 z-3.000
x9.598 y13.109 z-3.000
x9.571 y13.059 z-3.000
x9.298 y12.582 z-3.000
x9.269 y12.534 z-3.000
x9.238 y12.487 z-3.000
x9.206 y12.440 z-3.000
x9.172 y12.395 z-3.000
x9.137 y12.352 z-3.000
x9.108 y12.318 z-3.000
x8.759 y11.924 z-3.000
x8.721 y11.883 z-3.000
x8.682 y11.843 z-3.000
x8.641 y11.804 z-3.000
x8.598 y11.767 z-3.000
x8.555 y11.731 z-3.000
x8.505 y11.694 z-3.000
x8.082 y11.386 z-3.000
x8.036 y11.353 z-3.000
x7.989 y11.323 z-3.000
x7.941 y11.294 z-3.000
x7.891 y11.266 z-3.000
x7.841 y11.241 z-3.000
x7.778 y11.212 z-3.000
x7.283 y10.998 z-3.000
x7.231 y10.976 z-3.000
x7.178 y10.957 z-3.000
x7.125 y10.939 z-3.000
x7.070 y10.923 z-3.000
x7.016 y10.910 z-3.000
x6.971 y10.900 z-3.000
x6.404 y10.784 z-3.000
x6.349 y10.773 z-3.000
x6.332 y10.771 z-3.000
x6.332 y7.147 z-3.000
x6.432 y7.139 z-3.000
x6.850 y7.121 z-3.000
x7.231 y7.125 z-3.000

( Lift to 10.000 )
F2000 z10.000

( Trajeto da ferramenta 8 )
( ------------------------- )

( Spindle on )
M3
S500

( Current depth = -1.000 )

( MoveToStartpoint2 )
F2000 G90 z10.000
F2000 x11.492 y-0.220 z10.000
F2000 x11.492 y-0.220 z0.000

( Loop )
G90 F250
x11.492 y-0.220 z-1.000
F250
x9.594 y0.153 z-1.000
x9.594 y-9.591 z-1.000
x9.593 y-9.647 z-1.000
x9.590 y-9.704 z-1.000
x9.585 y-9.760 z-1.000
x9.578 y-9.816 z-1.000
x9.569 y-9.871 z-1.000
x9.558 y-9.927 z-1.000
x9.545 y-9.981 z-1.000
x9.530 y-10.036 z-1.000
x9.513 y-10.090 z-1.000
x9.495 y-10.143 z-1.000
x9.474 y-10.195 z-1.000
x9.452 y-10.247 z-1.000
x9.427 y-10.298 z-1.000
x9.401 y-10.348 z-1.000
x9.374 y-10.397 z-1.000
x9.344 y-10.445 z-1.000
x9.313 y-10.492 z-1.000
x9.280 y-10.538 z-1.000
x9.246 y-10.582 z-1.000
x9.210 y-10.626 z-1.000
x9.173 y-10.668 z-1.000
x9.134 y-10.708 z-1.000
x9.093 y-10.748 z-1.000
x9.051 y-10.786 z-1.000
x9.008 y-10.822 z-1.000
x8.964 y-10.857 z-1.000
x8.919 y-10.890 z-1.000
x8.872 y-10.922 z-1.000
x8.824 y-10.951 z-1.000
x8.775 y-10.980 z-1.000
x8.726 y-11.006 z-1.000
x8.675 y-11.031 z-1.000
x8.623 y-11.054 z-1.000
x8.571 y-11.075 z-1.000
x8.518 y-11.094 z-1.000
x8.464 y-11.111 z-1.000
x8.410 y-11.126 z-1.000
x8.356 y-11.140 z-1.000
x8.300 y-11.151 z-1.000
x8.245 y-11.160 z-1.000
x8.189 y-11.168 z-1.000
x8.133 y-11.173 z-1.000
x8.077 y-11.177 z-1.000
x8.020 y-11.178 z-1.000
x7.964 y-11.178 z-1.000
x7.908 y-11.175 z-1.000
x7.852 y-11.171 z-1.000
x7.796 y-11.164 z-1.000
x7.740 y-11.156 z-1.000
x7.701 y-11.149 z-1.000
x2.156 y-10.065 z-1.000
x2.101 y-10.053 z-1.000
x2.047 y-10.039 z-1.000
x1.993 y-10.024 z-1.000
x1.939 y-10.006 z-1.000
x1.886 y-9.987 z-1.000
x1.834 y-9.965 z-1.000
x1.783 y-9.942 z-1.000
x1.732 y-9.917 z-1.000
x1.683 y-9.891 z-1.000
x1.634 y-9.862 z-1.000
x1.586 y-9.832 z-1.000
x1.540 y-9.800 z-1.000
x1.495 y-9.766 z-1.000
x1.451 y-9.731 z-1.000
x1.408 y-9.695 z-1.000
x1.366 y-9.657 z-1.000
x1.326 y-9.617 z-1.000
x1.287 y-9.576 z-1.000
x1.250 y-9.534 z-1.000
x1.215 y-9.490 z-1.000
x1.180 y-9.445 z-1.000
x1.148 y-9.399 z-1.000
x1.117 y-9.352 z-1.000
x1.088 y-9.304 z-1.000
x1.061 y-9.255 z-1.000
x1.035 y-9.204 z-1.000
x1.011 y-9.153 z-1.000
x0.989 y-9.102 z-1.000
x0.969 y-9.049 z-1.000
x0.951 y-8.996 z-1.000
x0.934 y-8.942 z-1.000
x0.920 y-8.887 z-1.000
x0.907 y-8.832 z-1.000
x0.897 y-8.777 z-1.000
x0.888 y-8.721 z-1.000
x0.881 y-8.665 z-1.000
x0.877 y-8.609 z-1.000
x0.874 y-8.553 z-1.000
x0.874 y0.925 z-1.000
x-1.025 y1.295 z-1.000
x-1.025 y-7.574 z-1.000
x-1.028 y-7.631 z-1.000
x-1.033 y-7.687 z-1.000
x-1.040 y-7.743 z-1.000
x-1.049 y-7.798 z-1.000
x-1.060 y-7.854 z-1.000
x-1.073 y-7.908 z-1.000
x-1.088 y-7.963 z-1.000
x-1.105 y-8.017 z-1.000
x-1.123 y-8.070 z-1.000
x-1.144 y-8.122 z-1.000
x-1.166 y-8.174 z-1.000
x-1.191 y-8.225 z-1.000
x-1.217 y-8.275 z-1.000
x-1.244 y-8.324 z-1.000
x-1.274 y-8.372 z-1.000
x-1.305 y-8.419 z-1.000
x-1.338 y-8.465 z-1.000
x-1.372 y-8.509 z-1.000
x-1.408 y-8.553 z-1.000
x-1.445 y-8.595 z-1.000
x-1.484 y-8.635 z-1.000
x-1.525 y-8.675 z-1.000
x-1.567 y-8.713 z-1.000
x-1.610 y-8.749 z-1.000
x-1.654 y-8.784 z-1.000
x-1.699 y-8.817 z-1.000
x-1.746 y-8.849 z-1.000
x-1.794 y-8.878 z-1.000
x-1.843 y-8.907 z-1.000
x-1.892 y-8.933 z-1.000
x-1.943 y-8.958 z-1.000
x-1.995 y-8.981 z-1.000
x-2.047 y-9.002 z-1.000
x-2.100 y-9.021 z-1.000
x-2.154 y-9.038 z-1.000
x-2.208 y-9.053 z-1.000
x-2.262 y-9.067 z-1.000
x-2.318 y-9.078 z-1.000
x-2.373 y-9.087 z-1.000
x-2.429 y-9.095 z-1.000
x-2.485 y-9.100 z-1.000
x-2.541 y-9.104 z-1.000
x-2.598 y-9.105 z-1.000
x-2.654 y-9.105 z-1.000
x-2.710 y-9.102 z-1.000
x-2.766 y-9.098 z-1.000
x-2.822 y-9.091 z-1.000
x-2.878 y-9.083 z-1.000
x-2.917 y-9.076 z-1.000
x-8.317 y-8.020 z-1.000
x-8.372 y-8.008 z-1.000
x-8.426 y-7.994 z-1.000
x-8.481 y-7.979 z-1.000
x-8.534 y-7.961 z-1.000
x-8.587 y-7.942 z-1.000
x-8.639 y-7.920 z-1.000
x-8.690 y-7.897 z-1.000
x-8.741 y-7.872 z-1.000
x-8.791 y-7.845 z-1.000
x-8.839 y-7.817 z-1.000
x-8.887 y-7.787 z-1.000
x-8.933 y-7.755 z-1.000
x-8.978 y-7.721 z-1.000
x-9.023 y-7.686 z-1.000
x-9.065 y-7.650 z-1.000
x-9.107 y-7.612 z-1.000
x-9.147 y-7.572 z-1.000
x-9.186 y-7.531 z-1.000
x-9.223 y-7.489 z-1.000
x-9.258 y-7.445 z-1.000
x-9.293 y-7.400 z-1.000
x-9.325 y-7.354 z-1.000
x-9.356 y-7.307 z-1.000
x-9.385 y-7.259 z-1.000
x-9.412 y-7.210 z-1.000
x-9.438 y-7.159 z-1.000
x-9.462 y-7.108 z-1.000
x-9.484 y-7.056 z-1.000
x-9.504 y-7.004 z-1.000
x-9.522 y-6.951 z-1.000
x-9.539 y-6.897 z-1.000
x-9.553 y-6.842 z-1.000
x-9.566 y-6.787 z-1.000
x-9.576 y-6.732 z-1.000
x-9.585 y-6.676 z-1.000
x-9.592 y-6.620 z-1.000
x-9.596 y-6.564 z-1.000
x-9.599 y-6.508 z-1.000
x-9.600 y-6.462 z-1.000
x-9.600 y3.906 z-1.000
x-11.499 y4.278 z-1.000
x-11.499 y-10.831 z-1.000
x11.492 y-15.330 z-1.000
x11.492 y-0.220 z-1.000

( Current depth = -2.000 )

( Loop )
G90 F250
x11.492 y-0.220 z-2.000
F250
x9.594 y0.153 z-2.000
x9.594 y-9.591 z-2.000
x9.593 y-9.647 z-2.000
x9.590 y-9.704 z-2.000
x9.585 y-9.760 z-2.000
x9.578 y-9.816 z-2.000
x9.569 y-9.871 z-2.000
x9.558 y-9.927 z-2.000
x9.545 y-9.981 z-2.000
x9.530 y-10.036 z-2.000
x9.513 y-10.090 z-2.000
x9.495 y-10.143 z-2.000
x9.474 y-10.195 z-2.000
x9.452 y-10.247 z-2.000
x9.427 y-10.298 z-2.000
x9.401 y-10.348 z-2.000
x9.374 y-10.397 z-2.000
x9.344 y-10.445 z-2.000
x9.313 y-10.492 z-2.000
x9.280 y-10.538 z-2.000
x9.246 y-10.582 z-2.000
x9.210 y-10.626 z-2.000
x9.173 y-10.668 z-2.000
x9.134 y-10.708 z-2.000
x9.093 y-10.748 z-2.000
x9.051 y-10.786 z-2.000
x9.008 y-10.822 z-2.000
x8.964 y-10.857 z-2.000
x8.919 y-10.890 z-2.000
x8.872 y-10.922 z-2.000
x8.824 y-10.951 z-2.000
x8.775 y-10.980 z-2.000
x8.726 y-11.006 z-2.000
x8.675 y-11.031 z-2.000
x8.623 y-11.054 z-2.000
x8.571 y-11.075 z-2.000
x8.518 y-11.094 z-2.000
x8.464 y-11.111 z-2.000
x8.410 y-11.126 z-2.000
x8.356 y-11.140 z-2.000
x8.300 y-11.151 z-2.000
x8.245 y-11.160 z-2.000
x8.189 y-11.168 z-2.000
x8.133 y-11.173 z-2.000
x8.077 y-11.177 z-2.000
x8.020 y-11.178 z-2.000
x7.964 y-11.178 z-2.000
x7.908 y-11.175 z-2.000
x7.852 y-11.171 z-2.000
x7.796 y-11.164 z-2.000
x7.740 y-11.156 z-2.000
x7.701 y-11.149 z-2.000
x2.156 y-10.065 z-2.000
x2.101 y-10.053 z-2.000
x2.047 y-10.039 z-2.000
x1.993 y-10.024 z-2.000
x1.939 y-10.006 z-2.000
x1.886 y-9.987 z-2.000
x1.834 y-9.965 z-2.000
x1.783 y-9.942 z-2.000
x1.732 y-9.917 z-2.000
x1.683 y-9.891 z-2.000
x1.634 y-9.862 z-2.000
x1.586 y-9.832 z-2.000
x1.540 y-9.800 z-2.000
x1.495 y-9.766 z-2.000
x1.451 y-9.731 z-2.000
x1.408 y-9.695 z-2.000
x1.366 y-9.657 z-2.000
x1.326 y-9.617 z-2.000
x1.287 y-9.576 z-2.000
x1.250 y-9.534 z-2.000
x1.215 y-9.490 z-2.000
x1.180 y-9.445 z-2.000
x1.148 y-9.399 z-2.000
x1.117 y-9.352 z-2.000
x1.088 y-9.304 z-2.000
x1.061 y-9.255 z-2.000
x1.035 y-9.204 z-2.000
x1.011 y-9.153 z-2.000
x0.989 y-9.102 z-2.000
x0.969 y-9.049 z-2.000
x0.951 y-8.996 z-2.000
x0.934 y-8.942 z-2.000
x0.920 y-8.887 z-2.000
x0.907 y-8.832 z-2.000
x0.897 y-8.777 z-2.000
x0.888 y-8.721 z-2.000
x0.881 y-8.665 z-2.000
x0.877 y-8.609 z-2.000
x0.874 y-8.553 z-2.000
x0.874 y0.925 z-2.000
x-1.025 y1.295 z-2.000
x-1.025 y-7.574 z-2.000
x-1.028 y-7.631 z-2.000
x-1.033 y-7.687 z-2.000
x-1.040 y-7.743 z-2.000
x-1.049 y-7.798 z-2.000
x-1.060 y-7.854 z-2.000
x-1.073 y-7.908 z-2.000
x-1.088 y-7.963 z-2.000
x-1.105 y-8.017 z-2.000
x-1.123 y-8.070 z-2.000
x-1.144 y-8.122 z-2.000
x-1.166 y-8.174 z-2.000
x-1.191 y-8.225 z-2.000
x-1.217 y-8.275 z-2.000
x-1.244 y-8.324 z-2.000
x-1.274 y-8.372 z-2.000
x-1.305 y-8.419 z-2.000
x-1.338 y-8.465 z-2.000
x-1.372 y-8.509 z-2.000
x-1.408 y-8.553 z-2.000
x-1.445 y-8.595 z-2.000
x-1.484 y-8.635 z-2.000
x-1.525 y-8.675 z-2.000
x-1.567 y-8.713 z-2.000
x-1.610 y-8.749 z-2.000
x-1.654 y-8.784 z-2.000
x-1.699 y-8.817 z-2.000
x-1.746 y-8.849 z-2.000
x-1.794 y-8.878 z-2.000
x-1.843 y-8.907 z-2.000
x-1.892 y-8.933 z-2.000
x-1.943 y-8.958 z-2.000
x-1.995 y-8.981 z-2.000
x-2.047 y-9.002 z-2.000
x-2.100 y-9.021 z-2.000
x-2.154 y-9.038 z-2.000
x-2.208 y-9.053 z-2.000
x-2.262 y-9.067 z-2.000
x-2.318 y-9.078 z-2.000
x-2.373 y-9.087 z-2.000
x-2.429 y-9.095 z-2.000
x-2.485 y-9.100 z-2.000
x-2.541 y-9.104 z-2.000
x-2.598 y-9.105 z-2.000
x-2.654 y-9.105 z-2.000
x-2.710 y-9.102 z-2.000
x-2.766 y-9.098 z-2.000
x-2.822 y-9.091 z-2.000
x-2.878 y-9.083 z-2.000
x-2.917 y-9.076 z-2.000
x-8.317 y-8.020 z-2.000
x-8.372 y-8.008 z-2.000
x-8.426 y-7.994 z-2.000
x-8.481 y-7.979 z-2.000
x-8.534 y-7.961 z-2.000
x-8.587 y-7.942 z-2.000
x-8.639 y-7.920 z-2.000
x-8.690 y-7.897 z-2.000
x-8.741 y-7.872 z-2.000
x-8.791 y-7.845 z-2.000
x-8.839 y-7.817 z-2.000
x-8.887 y-7.787 z-2.000
x-8.933 y-7.755 z-2.000
x-8.978 y-7.721 z-2.000
x-9.023 y-7.686 z-2.000
x-9.065 y-7.650 z-2.000
x-9.107 y-7.612 z-2.000
x-9.147 y-7.572 z-2.000
x-9.186 y-7.531 z-2.000
x-9.223 y-7.489 z-2.000
x-9.258 y-7.445 z-2.000
x-9.293 y-7.400 z-2.000
x-9.325 y-7.354 z-2.000
x-9.356 y-7.307 z-2.000
x-9.385 y-7.259 z-2.000
x-9.412 y-7.210 z-2.000
x-9.438 y-7.159 z-2.000
x-9.462 y-7.108 z-2.000
x-9.484 y-7.056 z-2.000
x-9.504 y-7.004 z-2.000
x-9.522 y-6.951 z-2.000
x-9.539 y-6.897 z-2.000
x-9.553 y-6.842 z-2.000
x-9.566 y-6.787 z-2.000
x-9.576 y-6.732 z-2.000
x-9.585 y-6.676 z-2.000
x-9.592 y-6.620 z-2.000
x-9.596 y-6.564 z-2.000
x-9.599 y-6.508 z-2.000
x-9.600 y-6.462 z-2.000
x-9.600 y3.906 z-2.000
x-11.499 y4.278 z-2.000
x-11.499 y-10.831 z-2.000
x11.492 y-15.330 z-2.000
x11.492 y-0.220 z-2.000

( Current depth = -3.000 )

( Loop )
G90 F250
x11.492 y-0.220 z-3.000
F250
x9.594 y0.153 z-3.000
x9.594 y-9.591 z-3.000
x9.593 y-9.647 z-3.000
x9.590 y-9.704 z-3.000
x9.585 y-9.760 z-3.000
x9.578 y-9.816 z-3.000
x9.569 y-9.871 z-3.000
x9.558 y-9.927 z-3.000
x9.545 y-9.981 z-3.000
x9.530 y-10.036 z-3.000
x9.513 y-10.090 z-3.000
x9.495 y-10.143 z-3.000
x9.474 y-10.195 z-3.000
x9.452 y-10.247 z-3.000
x9.427 y-10.298 z-3.000
x9.401 y-10.348 z-3.000
x9.374 y-10.397 z-3.000
x9.344 y-10.445 z-3.000
x9.313 y-10.492 z-3.000
x9.280 y-10.538 z-3.000
x9.246 y-10.582 z-3.000
x9.210 y-10.626 z-3.000
x9.173 y-10.668 z-3.000
x9.134 y-10.708 z-3.000
x9.093 y-10.748 z-3.000
x9.051 y-10.786 z-3.000
x9.008 y-10.822 z-3.000
x8.964 y-10.857 z-3.000
x8.919 y-10.890 z-3.000
x8.872 y-10.922 z-3.000
x8.824 y-10.951 z-3.000
x8.775 y-10.980 z-3.000
x8.726 y-11.006 z-3.000
x8.675 y-11.031 z-3.000
x8.623 y-11.054 z-3.000
x8.571 y-11.075 z-3.000
x8.518 y-11.094 z-3.000
x8.464 y-11.111 z-3.000
x8.410 y-11.126 z-3.000
x8.356 y-11.140 z-3.000
x8.300 y-11.151 z-3.000
x8.245 y-11.160 z-3.000
x8.189 y-11.168 z-3.000
x8.133 y-11.173 z-3.000
x8.077 y-11.177 z-3.000
x8.020 y-11.178 z-3.000
x7.964 y-11.178 z-3.000
x7.908 y-11.175 z-3.000
x7.852 y-11.171 z-3.000
x7.796 y-11.164 z-3.000
x7.740 y-11.156 z-3.000
x7.701 y-11.149 z-3.000
x2.156 y-10.065 z-3.000
x2.101 y-10.053 z-3.000
x2.047 y-10.039 z-3.000
x1.993 y-10.024 z-3.000
x1.939 y-10.006 z-3.000
x1.886 y-9.987 z-3.000
x1.834 y-9.965 z-3.000
x1.783 y-9.942 z-3.000
x1.732 y-9.917 z-3.000
x1.683 y-9.891 z-3.000
x1.634 y-9.862 z-3.000
x1.586 y-9.832 z-3.000
x1.540 y-9.800 z-3.000
x1.495 y-9.766 z-3.000
x1.451 y-9.731 z-3.000
x1.408 y-9.695 z-3.000
x1.366 y-9.657 z-3.000
x1.326 y-9.617 z-3.000
x1.287 y-9.576 z-3.000
x1.250 y-9.534 z-3.000
x1.215 y-9.490 z-3.000
x1.180 y-9.445 z-3.000
x1.148 y-9.399 z-3.000
x1.117 y-9.352 z-3.000
x1.088 y-9.304 z-3.000
x1.061 y-9.255 z-3.000
x1.035 y-9.204 z-3.000
x1.011 y-9.153 z-3.000
x0.989 y-9.102 z-3.000
x0.969 y-9.049 z-3.000
x0.951 y-8.996 z-3.000
x0.934 y-8.942 z-3.000
x0.920 y-8.887 z-3.000
x0.907 y-8.832 z-3.000
x0.897 y-8.777 z-3.000
x0.888 y-8.721 z-3.000
x0.881 y-8.665 z-3.000
x0.877 y-8.609 z-3.000
x0.874 y-8.553 z-3.000
x0.874 y0.925 z-3.000
x-1.025 y1.295 z-3.000
x-1.025 y-7.574 z-3.000
x-1.028 y-7.631 z-3.000
x-1.033 y-7.687 z-3.000
x-1.040 y-7.743 z-3.000
x-1.049 y-7.798 z-3.000
x-1.060 y-7.854 z-3.000
x-1.073 y-7.908 z-3.000
x-1.088 y-7.963 z-3.000
x-1.105 y-8.017 z-3.000
x-1.123 y-8.070 z-3.000
x-1.144 y-8.122 z-3.000
x-1.166 y-8.174 z-3.000
x-1.191 y-8.225 z-3.000
x-1.217 y-8.275 z-3.000
x-1.244 y-8.324 z-3.000
x-1.274 y-8.372 z-3.000
x-1.305 y-8.419 z-3.000
x-1.338 y-8.465 z-3.000
x-1.372 y-8.509 z-3.000
x-1.408 y-8.553 z-3.000
x-1.445 y-8.595 z-3.000
x-1.484 y-8.635 z-3.000
x-1.525 y-8.675 z-3.000
x-1.567 y-8.713 z-3.000
x-1.610 y-8.749 z-3.000
x-1.654 y-8.784 z-3.000
x-1.699 y-8.817 z-3.000
x-1.746 y-8.849 z-3.000
x-1.794 y-8.878 z-3.000
x-1.843 y-8.907 z-3.000
x-1.892 y-8.933 z-3.000
x-1.943 y-8.958 z-3.000
x-1.995 y-8.981 z-3.000
x-2.047 y-9.002 z-3.000
x-2.100 y-9.021 z-3.000
x-2.154 y-9.038 z-3.000
x-2.208 y-9.053 z-3.000
x-2.262 y-9.067 z-3.000
x-2.318 y-9.078 z-3.000
x-2.373 y-9.087 z-3.000
x-2.429 y-9.095 z-3.000
x-2.485 y-9.100 z-3.000
x-2.541 y-9.104 z-3.000
x-2.598 y-9.105 z-3.000
x-2.654 y-9.105 z-3.000
x-2.710 y-9.102 z-3.000
x-2.766 y-9.098 z-3.000
x-2.822 y-9.091 z-3.000
x-2.878 y-9.083 z-3.000
x-2.917 y-9.076 z-3.000
x-8.317 y-8.020 z-3.000
x-8.372 y-8.008 z-3.000
x-8.426 y-7.994 z-3.000
x-8.481 y-7.979 z-3.000
x-8.534 y-7.961 z-3.000
x-8.587 y-7.942 z-3.000
x-8.639 y-7.920 z-3.000
x-8.690 y-7.897 z-3.000
x-8.741 y-7.872 z-3.000
x-8.791 y-7.845 z-3.000
x-8.839 y-7.817 z-3.000
x-8.887 y-7.787 z-3.000
x-8.933 y-7.755 z-3.000
x-8.978 y-7.721 z-3.000
x-9.023 y-7.686 z-3.000
x-9.065 y-7.650 z-3.000
x-9.107 y-7.612 z-3.000
x-9.147 y-7.572 z-3.000
x-9.186 y-7.531 z-3.000
x-9.223 y-7.489 z-3.000
x-9.258 y-7.445 z-3.000
x-9.293 y-7.400 z-3.000
x-9.325 y-7.354 z-3.000
x-9.356 y-7.307 z-3.000
x-9.385 y-7.259 z-3.000
x-9.412 y-7.210 z-3.000
x-9.438 y-7.159 z-3.000
x-9.462 y-7.108 z-3.000
x-9.484 y-7.056 z-3.000
x-9.504 y-7.004 z-3.000
x-9.522 y-6.951 z-3.000
x-9.539 y-6.897 z-3.000
x-9.553 y-6.842 z-3.000
x-9.566 y-6.787 z-3.000
x-9.576 y-6.732 z-3.000
x-9.585 y-6.676 z-3.000
x-9.592 y-6.620 z-3.000
x-9.596 y-6.564 z-3.000
x-9.599 y-6.508 z-3.000
x-9.600 y-6.462 z-3.000
x-9.600 y3.906 z-3.000
x-11.499 y4.278 z-3.000
x-11.499 y-10.831 z-3.000
x11.492 y-15.330 z-3.000
x11.492 y-0.220 z-3.000

( Lift to 10.000 )
F2000 z10.000

( Trajeto da ferramenta 9 )
( ------------------------- )

( Spindle on )
M3
S500

( Current depth = -1.000 )

( MoveToStartpoint2 )
F2000 G90 z10.000
F2000 x11.492 y34.372 z10.000
F2000 x11.492 y34.372 z0.000

( Loop )
G90 F250
x11.492 y34.372 z-1.000
F250
x-11.499 y38.871 z-1.000
x-11.499 y35.435 z-1.000
x11.492 y30.935 z-1.000
x11.492 y34.372 z-1.000

( Current depth = -2.000 )

( Loop )
G90 F250
x11.492 y34.372 z-2.000
F250
x-11.499 y38.871 z-2.000
x-11.499 y35.435 z-2.000
x11.492 y30.935 z-2.000
x11.492 y34.372 z-2.000

( Current depth = -3.000 )

( Loop )
G90 F250
x11.492 y34.372 z-3.000
F250
x-11.499 y38.871 z-3.000
x-11.499 y35.435 z-3.000
x11.492 y30.935 z-3.000
x11.492 y34.372 z-3.000

( Lift to 10.000 )
F2000 z10.000

( Job: Job Trajeto da ferramenta 0 -> Inside 3,175mm )
( ------------------------------- )

( Job mode = 0, CUT )
( Type of tool = 0, SPINDLE )

( TransformationTyp = NONE )
( Plano de segurança = 10 )
( Soma da profundidade = 3 )
( Profundidade por passo = 1 )
( #jobdivingramp = 0 )
( Tamanho de partição = 2 )
( Avanço de corte = 250 )
( Avanço rápido = 2000 )
( Avanço de mergulho = 250 )
( Tool = Endmill 3.175mm )
( Tool diameter = 3.175 )



G1 G90 F100

( Trajeto da ferramenta 0 )
( ------------------------- )

( Spindle on )
M3
S500

( Current depth = -1.000 )

( MoveToStartpoint2 )
F2000 G90 z10.000
F2000 x31.878 y67.311 z10.000
F2000 x31.878 y67.311 z0.000

( Loop )
G90 F250
x31.878 y67.311 z-1.000
F250
x-31.878 y67.311 z-1.000
x-31.878 y-67.311 z-1.000
x31.878 y-67.311 z-1.000
x31.878 y67.311 z-1.000

( Current depth = -2.000 )

( Loop )
G90 F250
x31.878 y67.311 z-2.000
F250
x-31.878 y67.311 z-2.000
x-31.878 y-67.311 z-2.000
x31.878 y-67.311 z-2.000
x31.878 y67.311 z-2.000

( Current depth = -3.000 )

( Loop )
G90 F250
x31.878 y67.311 z-3.000
F250
x-31.878 y67.311 z-3.000
x-31.878 y-67.311 z-3.000
x31.878 y-67.311 z-3.000
x31.878 y67.311 z-3.000

( Lift to 10.000 )
F2000 z10.000

( Program end, back to origin )
G90 F2000 z10.000

( Spindle off )
M5
F2000 x0.000 y0.000 z10.000
