( Created by GrblGru )
( 23.10.2023 16:10:20 )



( Additional commands from settings )
G1 F200 Z25
G4 P2

( Job: Job Path 0 -> Inside 3,175mm )
( ------------------------------- )

( Job mode = 0, CUT )
( Type of tool = 0, SPINDLE )

( TransformationTyp = NONE )
( Clearance Plane = 10 )
( Sum of depths = 15.5 )
( Depth per path = 2 )
( Diving Ramp = 0 )
( Tab Ramp = 0 )
( Splitting size = 2 )
( Cut Feedrate = 250 )
( Rapid Feedrate = 2000 )
( Plunge Feedrate = 250 )
( Tool = Endmill 3.175mm )
( Tool diameter = 3.175 )



G1 G90 F100

( Path 0 )
( ------------------------- )

( Spindle on )
M3
S500

( Current depth = -2.000 )

( MoveToStartpoint2 )
F2000 G90 z10.000
F2000 x3.982 y0.000 z10.000
F2000 x3.982 y0.000 z0.000

( Loop )
G90 F250
x3.982 y0.000 z-2.000
F250
x3.956 y0.504 z-2.000
x3.875 y1.013 z-2.000
x3.743 y1.505 z-2.000
x3.561 y1.979 z-2.000
x3.331 y2.431 z-2.000
x3.055 y2.856 z-2.000
x2.731 y3.255 z-2.000
x2.373 y3.614 z-2.000
x1.977 y3.935 z-2.000
x1.545 y4.215 z-2.000
x1.097 y4.443 z-2.000
x0.618 y4.627 z-2.000
x0.131 y4.758 z-2.000
x-0.374 y4.837 z-2.000
x-0.882 y4.864 z-2.000
x-1.389 y4.837 z-2.000
x-1.894 y4.758 z-2.000
x-2.387 y4.626 z-2.000
x-2.860 y4.444 z-2.000
x-3.312 y4.214 z-2.000
x-3.738 y3.937 z-2.000
x-4.133 y3.617 z-2.000
x-4.499 y3.251 z-2.000
x-4.819 y2.856 z-2.000
x-5.096 y2.430 z-2.000
x-5.326 y1.978 z-2.000
x-5.508 y1.505 z-2.000
x-5.640 y1.011 z-2.000
x-5.719 y0.508 z-2.000
x-5.746 y0.000 z-2.000
x-5.720 y-0.503 z-2.000
x-5.639 y-1.011 z-2.000
x-5.507 y-1.507 z-2.000
x-5.326 y-1.977 z-2.000
x-5.096 y-2.429 z-2.000
x-4.819 y-2.855 z-2.000
x-4.499 y-3.250 z-2.000
x-4.133 y-3.616 z-2.000
x-3.738 y-3.936 z-2.000
x-3.312 y-4.213 z-2.000
x-2.860 y-4.443 z-2.000
x-2.387 y-4.625 z-2.000
x-1.894 y-4.757 z-2.000
x-1.389 y-4.836 z-2.000
x-0.882 y-4.863 z-2.000
x-0.374 y-4.836 z-2.000
x0.131 y-4.757 z-2.000
x0.618 y-4.626 z-2.000
x1.097 y-4.442 z-2.000
x1.545 y-4.214 z-2.000
x1.977 y-3.934 z-2.000
x2.373 y-3.613 z-2.000
x2.731 y-3.254 z-2.000
x3.055 y-2.855 z-2.000
x3.331 y-2.430 z-2.000
x3.561 y-1.978 z-2.000
x3.743 y-1.504 z-2.000
x3.875 y-1.012 z-2.000
x3.956 y-0.503 z-2.000
x3.982 y0.000 z-2.000

( Current depth = -4.000 )

( Loop )
G90 F250
x3.982 y0.000 z-4.000
F250
x3.956 y0.504 z-4.000
x3.875 y1.013 z-4.000
x3.743 y1.505 z-4.000
x3.561 y1.979 z-4.000
x3.331 y2.431 z-4.000
x3.055 y2.856 z-4.000
x2.731 y3.255 z-4.000
x2.373 y3.614 z-4.000
x1.977 y3.935 z-4.000
x1.545 y4.215 z-4.000
x1.097 y4.443 z-4.000
x0.618 y4.627 z-4.000
x0.131 y4.758 z-4.000
x-0.374 y4.837 z-4.000
x-0.882 y4.864 z-4.000
x-1.389 y4.837 z-4.000
x-1.894 y4.758 z-4.000
x-2.387 y4.626 z-4.000
x-2.860 y4.444 z-4.000
x-3.312 y4.214 z-4.000
x-3.738 y3.937 z-4.000
x-4.133 y3.617 z-4.000
x-4.499 y3.251 z-4.000
x-4.819 y2.856 z-4.000
x-5.096 y2.430 z-4.000
x-5.326 y1.978 z-4.000
x-5.508 y1.505 z-4.000
x-5.640 y1.011 z-4.000
x-5.719 y0.508 z-4.000
x-5.746 y0.000 z-4.000
x-5.720 y-0.503 z-4.000
x-5.639 y-1.011 z-4.000
x-5.507 y-1.507 z-4.000
x-5.326 y-1.977 z-4.000
x-5.096 y-2.429 z-4.000
x-4.819 y-2.855 z-4.000
x-4.499 y-3.250 z-4.000
x-4.133 y-3.616 z-4.000
x-3.738 y-3.936 z-4.000
x-3.312 y-4.213 z-4.000
x-2.860 y-4.443 z-4.000
x-2.387 y-4.625 z-4.000
x-1.894 y-4.757 z-4.000
x-1.389 y-4.836 z-4.000
x-0.882 y-4.863 z-4.000
x-0.374 y-4.836 z-4.000
x0.131 y-4.757 z-4.000
x0.618 y-4.626 z-4.000
x1.097 y-4.442 z-4.000
x1.545 y-4.214 z-4.000
x1.977 y-3.934 z-4.000
x2.373 y-3.613 z-4.000
x2.731 y-3.254 z-4.000
x3.055 y-2.855 z-4.000
x3.331 y-2.430 z-4.000
x3.561 y-1.978 z-4.000
x3.743 y-1.504 z-4.000
x3.875 y-1.012 z-4.000
x3.956 y-0.503 z-4.000
x3.982 y0.000 z-4.000

( Current depth = -6.000 )

( Loop )
G90 F250
x3.982 y0.000 z-6.000
F250
x3.956 y0.504 z-6.000
x3.875 y1.013 z-6.000
x3.743 y1.505 z-6.000
x3.561 y1.979 z-6.000
x3.331 y2.431 z-6.000
x3.055 y2.856 z-6.000
x2.731 y3.255 z-6.000
x2.373 y3.614 z-6.000
x1.977 y3.935 z-6.000
x1.545 y4.215 z-6.000
x1.097 y4.443 z-6.000
x0.618 y4.627 z-6.000
x0.131 y4.758 z-6.000
x-0.374 y4.837 z-6.000
x-0.882 y4.864 z-6.000
x-1.389 y4.837 z-6.000
x-1.894 y4.758 z-6.000
x-2.387 y4.626 z-6.000
x-2.860 y4.444 z-6.000
x-3.312 y4.214 z-6.000
x-3.738 y3.937 z-6.000
x-4.133 y3.617 z-6.000
x-4.499 y3.251 z-6.000
x-4.819 y2.856 z-6.000
x-5.096 y2.430 z-6.000
x-5.326 y1.978 z-6.000
x-5.508 y1.505 z-6.000
x-5.640 y1.011 z-6.000
x-5.719 y0.508 z-6.000
x-5.746 y0.000 z-6.000
x-5.720 y-0.503 z-6.000
x-5.639 y-1.011 z-6.000
x-5.507 y-1.507 z-6.000
x-5.326 y-1.977 z-6.000
x-5.096 y-2.429 z-6.000
x-4.819 y-2.855 z-6.000
x-4.499 y-3.250 z-6.000
x-4.133 y-3.616 z-6.000
x-3.738 y-3.936 z-6.000
x-3.312 y-4.213 z-6.000
x-2.860 y-4.443 z-6.000
x-2.387 y-4.625 z-6.000
x-1.894 y-4.757 z-6.000
x-1.389 y-4.836 z-6.000
x-0.882 y-4.863 z-6.000
x-0.374 y-4.836 z-6.000
x0.131 y-4.757 z-6.000
x0.618 y-4.626 z-6.000
x1.097 y-4.442 z-6.000
x1.545 y-4.214 z-6.000
x1.977 y-3.934 z-6.000
x2.373 y-3.613 z-6.000
x2.731 y-3.254 z-6.000
x3.055 y-2.855 z-6.000
x3.331 y-2.430 z-6.000
x3.561 y-1.978 z-6.000
x3.743 y-1.504 z-6.000
x3.875 y-1.012 z-6.000
x3.956 y-0.503 z-6.000
x3.982 y0.000 z-6.000

( Current depth = -8.000 )

( Loop )
G90 F250
x3.982 y0.000 z-8.000
F250
x3.956 y0.504 z-8.000
x3.875 y1.013 z-8.000
x3.743 y1.505 z-8.000
x3.561 y1.979 z-8.000
x3.331 y2.431 z-8.000
x3.055 y2.856 z-8.000
x2.731 y3.255 z-8.000
x2.373 y3.614 z-8.000
x1.977 y3.935 z-8.000
x1.545 y4.215 z-8.000
x1.097 y4.443 z-8.000
x0.618 y4.627 z-8.000
x0.131 y4.758 z-8.000
x-0.374 y4.837 z-8.000
x-0.882 y4.864 z-8.000
x-1.389 y4.837 z-8.000
x-1.894 y4.758 z-8.000
x-2.387 y4.626 z-8.000
x-2.860 y4.444 z-8.000
x-3.312 y4.214 z-8.000
x-3.738 y3.937 z-8.000
x-4.133 y3.617 z-8.000
x-4.499 y3.251 z-8.000
x-4.819 y2.856 z-8.000
x-5.096 y2.430 z-8.000
x-5.326 y1.978 z-8.000
x-5.508 y1.505 z-8.000
x-5.640 y1.011 z-8.000
x-5.719 y0.508 z-8.000
x-5.746 y0.000 z-8.000
x-5.720 y-0.503 z-8.000
x-5.639 y-1.011 z-8.000
x-5.507 y-1.507 z-8.000
x-5.326 y-1.977 z-8.000
x-5.096 y-2.429 z-8.000
x-4.819 y-2.855 z-8.000
x-4.499 y-3.250 z-8.000
x-4.133 y-3.616 z-8.000
x-3.738 y-3.936 z-8.000
x-3.312 y-4.213 z-8.000
x-2.860 y-4.443 z-8.000
x-2.387 y-4.625 z-8.000
x-1.894 y-4.757 z-8.000
x-1.389 y-4.836 z-8.000
x-0.882 y-4.863 z-8.000
x-0.374 y-4.836 z-8.000
x0.131 y-4.757 z-8.000
x0.618 y-4.626 z-8.000
x1.097 y-4.442 z-8.000
x1.545 y-4.214 z-8.000
x1.977 y-3.934 z-8.000
x2.373 y-3.613 z-8.000
x2.731 y-3.254 z-8.000
x3.055 y-2.855 z-8.000
x3.331 y-2.430 z-8.000
x3.561 y-1.978 z-8.000
x3.743 y-1.504 z-8.000
x3.875 y-1.012 z-8.000
x3.956 y-0.503 z-8.000
x3.982 y0.000 z-8.000

( Current depth = -10.000 )

( Loop )
G90 F250
x3.982 y0.000 z-10.000
F250
x3.956 y0.504 z-10.000
x3.875 y1.013 z-10.000
x3.743 y1.505 z-10.000
x3.561 y1.979 z-10.000
x3.331 y2.431 z-10.000
x3.055 y2.856 z-10.000
x2.731 y3.255 z-10.000
x2.373 y3.614 z-10.000
x1.977 y3.935 z-10.000
x1.545 y4.215 z-10.000
x1.097 y4.443 z-10.000
x0.618 y4.627 z-10.000
x0.131 y4.758 z-10.000
x-0.374 y4.837 z-10.000
x-0.882 y4.864 z-10.000
x-1.389 y4.837 z-10.000
x-1.894 y4.758 z-10.000
x-2.387 y4.626 z-10.000
x-2.860 y4.444 z-10.000
x-3.312 y4.214 z-10.000
x-3.738 y3.937 z-10.000
x-4.133 y3.617 z-10.000
x-4.499 y3.251 z-10.000
x-4.819 y2.856 z-10.000
x-5.096 y2.430 z-10.000
x-5.326 y1.978 z-10.000
x-5.508 y1.505 z-10.000
x-5.640 y1.011 z-10.000
x-5.719 y0.508 z-10.000
x-5.746 y0.000 z-10.000
x-5.720 y-0.503 z-10.000
x-5.639 y-1.011 z-10.000
x-5.507 y-1.507 z-10.000
x-5.326 y-1.977 z-10.000
x-5.096 y-2.429 z-10.000
x-4.819 y-2.855 z-10.000
x-4.499 y-3.250 z-10.000
x-4.133 y-3.616 z-10.000
x-3.738 y-3.936 z-10.000
x-3.312 y-4.213 z-10.000
x-2.860 y-4.443 z-10.000
x-2.387 y-4.625 z-10.000
x-1.894 y-4.757 z-10.000
x-1.389 y-4.836 z-10.000
x-0.882 y-4.863 z-10.000
x-0.374 y-4.836 z-10.000
x0.131 y-4.757 z-10.000
x0.618 y-4.626 z-10.000
x1.097 y-4.442 z-10.000
x1.545 y-4.214 z-10.000
x1.977 y-3.934 z-10.000
x2.373 y-3.613 z-10.000
x2.731 y-3.254 z-10.000
x3.055 y-2.855 z-10.000
x3.331 y-2.430 z-10.000
x3.561 y-1.978 z-10.000
x3.743 y-1.504 z-10.000
x3.875 y-1.012 z-10.000
x3.956 y-0.503 z-10.000
x3.982 y0.000 z-10.000

( Current depth = -12.000 )

( Loop )
G90 F250
x3.982 y0.000 z-12.000
F250
x3.956 y0.504 z-12.000
x3.875 y1.013 z-12.000
x3.743 y1.505 z-12.000
x3.561 y1.979 z-12.000
x3.331 y2.431 z-12.000
x3.055 y2.856 z-12.000
x2.731 y3.255 z-12.000
x2.373 y3.614 z-12.000
x1.977 y3.935 z-12.000
x1.545 y4.215 z-12.000
x1.097 y4.443 z-12.000
x0.618 y4.627 z-12.000
x0.131 y4.758 z-12.000
x-0.374 y4.837 z-12.000
x-0.882 y4.864 z-12.000
x-1.389 y4.837 z-12.000
x-1.894 y4.758 z-12.000
x-2.387 y4.626 z-12.000
x-2.860 y4.444 z-12.000
x-3.312 y4.214 z-12.000
x-3.738 y3.937 z-12.000
x-4.133 y3.617 z-12.000
x-4.499 y3.251 z-12.000
x-4.819 y2.856 z-12.000
x-5.096 y2.430 z-12.000
x-5.326 y1.978 z-12.000
x-5.508 y1.505 z-12.000
x-5.640 y1.011 z-12.000
x-5.719 y0.508 z-12.000
x-5.746 y0.000 z-12.000
x-5.720 y-0.503 z-12.000
x-5.639 y-1.011 z-12.000
x-5.507 y-1.507 z-12.000
x-5.326 y-1.977 z-12.000
x-5.096 y-2.429 z-12.000
x-4.819 y-2.855 z-12.000
x-4.499 y-3.250 z-12.000
x-4.133 y-3.616 z-12.000
x-3.738 y-3.936 z-12.000
x-3.312 y-4.213 z-12.000
x-2.860 y-4.443 z-12.000
x-2.387 y-4.625 z-12.000
x-1.894 y-4.757 z-12.000
x-1.389 y-4.836 z-12.000
x-0.882 y-4.863 z-12.000
x-0.374 y-4.836 z-12.000
x0.131 y-4.757 z-12.000
x0.618 y-4.626 z-12.000
x1.097 y-4.442 z-12.000
x1.545 y-4.214 z-12.000
x1.977 y-3.934 z-12.000
x2.373 y-3.613 z-12.000
x2.731 y-3.254 z-12.000
x3.055 y-2.855 z-12.000
x3.331 y-2.430 z-12.000
x3.561 y-1.978 z-12.000
x3.743 y-1.504 z-12.000
x3.875 y-1.012 z-12.000
x3.956 y-0.503 z-12.000
x3.982 y0.000 z-12.000

( Current depth = -14.000 )

( Loop )
G90 F250
x3.982 y0.000 z-14.000
F250
x3.956 y0.504 z-14.000
x3.875 y1.013 z-14.000
x3.743 y1.505 z-14.000
x3.561 y1.979 z-14.000
x3.331 y2.431 z-14.000
x3.055 y2.856 z-14.000
x2.731 y3.255 z-14.000
x2.373 y3.614 z-14.000
x1.977 y3.935 z-14.000
x1.545 y4.215 z-14.000
x1.097 y4.443 z-14.000
x0.618 y4.627 z-14.000
x0.131 y4.758 z-14.000
x-0.374 y4.837 z-14.000
x-0.882 y4.864 z-14.000
x-1.389 y4.837 z-14.000
x-1.894 y4.758 z-14.000
x-2.387 y4.626 z-14.000
x-2.860 y4.444 z-14.000
x-3.312 y4.214 z-14.000
x-3.738 y3.937 z-14.000
x-4.133 y3.617 z-14.000
x-4.499 y3.251 z-14.000
x-4.819 y2.856 z-14.000
x-5.096 y2.430 z-14.000
x-5.326 y1.978 z-14.000
x-5.508 y1.505 z-14.000
x-5.640 y1.011 z-14.000
x-5.719 y0.508 z-14.000
x-5.746 y0.000 z-14.000
x-5.720 y-0.503 z-14.000
x-5.639 y-1.011 z-14.000
x-5.507 y-1.507 z-14.000
x-5.326 y-1.977 z-14.000
x-5.096 y-2.429 z-14.000
x-4.819 y-2.855 z-14.000
x-4.499 y-3.250 z-14.000
x-4.133 y-3.616 z-14.000
x-3.738 y-3.936 z-14.000
x-3.312 y-4.213 z-14.000
x-2.860 y-4.443 z-14.000
x-2.387 y-4.625 z-14.000
x-1.894 y-4.757 z-14.000
x-1.389 y-4.836 z-14.000
x-0.882 y-4.863 z-14.000
x-0.374 y-4.836 z-14.000
x0.131 y-4.757 z-14.000
x0.618 y-4.626 z-14.000
x1.097 y-4.442 z-14.000
x1.545 y-4.214 z-14.000
x1.977 y-3.934 z-14.000
x2.373 y-3.613 z-14.000
x2.731 y-3.254 z-14.000
x3.055 y-2.855 z-14.000
x3.331 y-2.430 z-14.000
x3.561 y-1.978 z-14.000
x3.743 y-1.504 z-14.000
x3.875 y-1.012 z-14.000
x3.956 y-0.503 z-14.000
x3.982 y0.000 z-14.000

( Current depth = -15.500 )

( Loop )
G90 F250
x3.982 y0.000 z-15.500
F250
x3.956 y0.504 z-15.500
x3.875 y1.013 z-15.500
x3.743 y1.505 z-15.500
x3.561 y1.979 z-15.500
x3.331 y2.431 z-15.500
x3.055 y2.856 z-15.500
x2.731 y3.255 z-15.500
x2.373 y3.614 z-15.500
x1.977 y3.935 z-15.500
x1.571 y4.198 z-15.500
x1.545 y4.215 z-15.190
x1.439 y4.269 z-14.000
x1.097 y4.443 z-14.000
x0.618 y4.627 z-14.000
x0.131 y4.758 z-14.000
x-0.374 y4.837 z-14.000
x-0.882 y4.864 z-14.000
x-1.389 y4.837 z-14.000
x-1.894 y4.758 z-14.000
x-2.387 y4.626 z-14.000
x-2.860 y4.444 z-14.000
x-3.054 y4.345 z-14.000
F250
x-3.188 y4.277 z-15.500
F250
x-3.312 y4.214 z-15.500
x-3.738 y3.937 z-15.500
x-4.133 y3.617 z-15.500
x-4.499 y3.251 z-15.500
x-4.819 y2.856 z-15.500
x-5.096 y2.430 z-15.500
x-5.326 y1.978 z-15.500
x-5.508 y1.505 z-15.500
x-5.640 y1.011 z-15.500
x-5.719 y0.508 z-15.500
x-5.746 y0.000 z-15.500
x-5.720 y-0.503 z-15.500
x-5.639 y-1.011 z-15.500
x-5.507 y-1.507 z-15.500
x-5.326 y-1.977 z-15.500
x-5.096 y-2.429 z-15.500
x-4.819 y-2.855 z-15.500
x-4.499 y-3.250 z-15.500
x-4.133 y-3.616 z-15.500
x-3.738 y-3.936 z-15.500
x-3.336 y-4.198 z-15.500
x-3.312 y-4.213 z-15.218
x-3.203 y-4.268 z-14.000
x-2.860 y-4.443 z-14.000
x-2.387 y-4.625 z-14.000
x-1.894 y-4.757 z-14.000
x-1.389 y-4.836 z-14.000
x-0.882 y-4.863 z-14.000
x-0.374 y-4.836 z-14.000
x0.131 y-4.757 z-14.000
x0.618 y-4.626 z-14.000
x1.097 y-4.442 z-14.000
x1.290 y-4.344 z-14.000
F250
x1.423 y-4.276 z-15.500
F250
x1.545 y-4.214 z-15.500
x1.977 y-3.934 z-15.500
x2.373 y-3.613 z-15.500
x2.731 y-3.254 z-15.500
x3.055 y-2.855 z-15.500
x3.331 y-2.430 z-15.500
x3.561 y-1.978 z-15.500
x3.743 y-1.504 z-15.500
x3.875 y-1.012 z-15.500
x3.956 y-0.503 z-15.500
x3.982 y0.000 z-15.500

( Lift to 10.000 )
F2000 z10.000

( Job: Job Path 1 -> Outside 3.175mm )
( ------------------------------- )

( Job mode = 0, CUT )
( Type of tool = 0, SPINDLE )

( TransformationTyp = NONE )
( Clearance Plane = 10 )
( Sum of depths = 15.5 )
( Depth per path = 2 )
( Diving Ramp = 0 )
( Tab Ramp = 0 )
( Splitting size = 2 )
( Cut Feedrate = 800 )
( Rapid Feedrate = 2000 )
( Plunge Feedrate = 250 )
( Tool = Endmill 3.175mm )
( Tool diameter = 3.175 )



G1 G90 F100

( Path 1 )
( ------------------------- )

( Spindle on )
M3
S500

( Current depth = -2.000 )

( MoveToStartpoint2 )
F2000 G90 z10.000
F2000 x16.198 y16.741 z10.000
F2000 x16.198 y16.741 z0.000

( Loop )
G90 F250
x16.198 y16.741 z-2.000
F800
x16.195 y17.323 z-2.000
x16.194 y17.380 z-2.000
x16.191 y17.436 z-2.000
x16.186 y17.492 z-2.000
x16.178 y17.548 z-2.000
x16.169 y17.603 z-2.000
x16.158 y17.659 z-2.000
x16.145 y17.713 z-2.000
x16.130 y17.768 z-2.000
x16.113 y17.821 z-2.000
x16.094 y17.874 z-2.000
x16.073 y17.927 z-2.000
x16.050 y17.978 z-2.000
x16.026 y18.029 z-2.000
x16.000 y18.079 z-2.000
x15.972 y18.128 z-2.000
x15.942 y18.176 z-2.000
x15.910 y18.223 z-2.000
x15.877 y18.268 z-2.000
x15.843 y18.313 z-2.000
x15.807 y18.356 z-2.000
x15.769 y18.398 z-2.000
x15.730 y18.438 z-2.000
x15.669 y18.496 z-2.000
x15.570 y18.585 z-2.000
x15.552 y18.601 z-2.000
x15.451 y18.689 z-2.000
x15.450 y18.690 z-2.000
x15.350 y18.777 z-2.000
x15.344 y18.782 z-2.000
x15.243 y18.869 z-2.000
x15.230 y18.880 z-2.000
x15.026 y19.052 z-2.000
x15.019 y19.058 z-2.000
x14.917 y19.143 z-2.000
x14.904 y19.153 z-2.000
x14.698 y19.321 z-2.000
x14.685 y19.332 z-2.000
x14.581 y19.415 z-2.000
x14.578 y19.417 z-2.000
x14.476 y19.498 z-2.000
x14.463 y19.509 z-2.000
x14.360 y19.589 z-2.000
x14.358 y19.590 z-2.000
x14.256 y19.669 z-2.000
x14.244 y19.678 z-2.000
x14.146 y19.753 z-2.000
x14.043 y19.832 z-2.000
x14.030 y19.842 z-2.000
x13.926 y19.920 z-2.000
x13.912 y19.930 z-2.000
x13.807 y20.007 z-2.000
x13.799 y20.013 z-2.000
x13.589 y20.165 z-2.000
x13.583 y20.169 z-2.000
x13.477 y20.245 z-2.000
x13.431 y20.277 z-2.000
x13.383 y20.308 z-2.000
x13.335 y20.336 z-2.000
x13.285 y20.363 z-2.000
x13.235 y20.388 z-2.000
x13.183 y20.412 z-2.000
x13.131 y20.433 z-2.000
x13.079 y20.453 z-2.000
x13.025 y20.470 z-2.000
x12.971 y20.486 z-2.000
x12.916 y20.500 z-2.000
x12.861 y20.512 z-2.000
x12.806 y20.522 z-2.000
x12.750 y20.530 z-2.000
x12.694 y20.536 z-2.000
x12.638 y20.540 z-2.000
x12.582 y20.542 z-2.000
x12.525 y20.542 z-2.000
x12.469 y20.540 z-2.000
x12.413 y20.536 z-2.000
x12.357 y20.530 z-2.000
x12.301 y20.523 z-2.000
x12.245 y20.513 z-2.000
x12.206 y20.504 z-2.000
x11.637 y20.377 z-2.000
x11.571 y20.361 z-2.000
x10.968 y20.199 z-2.000
x10.907 y20.181 z-2.000
x10.343 y20.005 z-2.000
x10.279 y19.984 z-2.000
x9.748 y19.793 z-2.000
x9.686 y19.769 z-2.000
x9.193 y19.568 z-2.000
x9.132 y19.542 z-2.000
x8.673 y19.332 z-2.000
x8.612 y19.303 z-2.000
x8.188 y19.087 z-2.000
x8.131 y19.056 z-2.000
x7.745 y18.839 z-2.000
x7.687 y18.805 z-2.000
x7.335 y18.587 z-2.000
x7.288 y18.556 z-2.000
x7.252 y18.532 z-2.000
x6.649 y18.104 z-2.000
x6.604 y18.070 z-2.000
x6.546 y18.024 z-2.000
x6.073 y17.626 z-2.000
x6.030 y17.589 z-2.000
x5.974 y17.535 z-2.000
x5.623 y17.185 z-2.000
x5.584 y17.145 z-2.000
x5.546 y17.103 z-2.000
x5.522 y17.074 z-2.000
x5.212 y16.700 z-2.000
x5.177 y16.656 z-2.000
x5.143 y16.611 z-2.000
x5.111 y16.564 z-2.000
x5.081 y16.517 z-2.000
x5.052 y16.468 z-2.000
x5.025 y16.419 z-2.000
x5.000 y16.368 z-2.000
x4.977 y16.317 z-2.000
x4.955 y16.265 z-2.000
x4.936 y16.212 z-2.000
x4.918 y16.159 z-2.000
x4.902 y16.105 z-2.000
x4.889 y16.050 z-2.000
x4.877 y15.995 z-2.000
x4.865 y15.930 z-2.000
x4.795 y15.476 z-2.000
x4.707 y15.093 z-2.000
x4.609 y14.767 z-2.000
x4.498 y14.486 z-2.000
x4.370 y14.221 z-2.000
x4.247 y14.015 z-2.000
x4.125 y13.849 z-2.000
x4.016 y13.727 z-2.000
x3.914 y13.636 z-2.000
x3.844 y13.587 z-2.000
x3.818 y13.573 z-2.000
x3.123 y13.795 z-2.000
x3.069 y13.812 z-2.000
x3.037 y13.820 z-2.000
x2.357 y13.995 z-2.000
x2.302 y14.008 z-2.000
x2.271 y14.015 z-2.000
x1.583 y14.152 z-2.000
x1.528 y14.162 z-2.000
x1.495 y14.167 z-2.000
x0.772 y14.269 z-2.000
x0.762 y14.282 z-2.000
x0.712 y14.371 z-2.000
x0.662 y14.491 z-2.000
x0.616 y14.650 z-2.000
x0.579 y14.851 z-2.000
x0.556 y15.104 z-2.000
x0.554 y15.367 z-2.000
x0.580 y15.691 z-2.000
x0.632 y16.034 z-2.000
x0.718 y16.405 z-2.000
x0.852 y16.847 z-2.000
x0.867 y16.901 z-2.000
x0.881 y16.956 z-2.000
x0.892 y17.011 z-2.000
x0.902 y17.066 z-2.000
x0.910 y17.122 z-2.000
x0.915 y17.178 z-2.000
x0.919 y17.234 z-2.000
x0.920 y17.291 z-2.000
x0.920 y17.347 z-2.000
x0.918 y17.403 z-2.000
x0.913 y17.460 z-2.000
x0.907 y17.516 z-2.000
x0.899 y17.571 z-2.000
x0.888 y17.627 z-2.000
x0.874 y17.691 z-2.000
x0.757 y18.162 z-2.000
x0.742 y18.216 z-2.000
x0.726 y18.270 z-2.000
x0.713 y18.307 z-2.000
x0.548 y18.775 z-2.000
x0.528 y18.828 z-2.000
x0.500 y18.896 z-2.000
x0.247 y19.461 z-2.000
x0.223 y19.512 z-2.000
x0.187 y19.581 z-2.000
x-0.171 y20.227 z-2.000
x-0.200 y20.276 z-2.000
x-0.219 y20.308 z-2.000
x-0.441 y20.658 z-2.000
x-0.481 y20.717 z-2.000
x-0.734 y21.079 z-2.000
x-0.773 y21.133 z-2.000
x-1.062 y21.512 z-2.000
x-1.102 y21.563 z-2.000
x-1.424 y21.951 z-2.000
x-1.468 y22.001 z-2.000
x-1.825 y22.396 z-2.000
x-1.871 y22.445 z-2.000
x-2.267 y22.848 z-2.000
x-2.315 y22.894 z-2.000
x-2.747 y23.298 z-2.000
x-2.796 y23.342 z-2.000
x-3.269 y23.749 z-2.000
x-3.320 y23.792 z-2.000
x-3.777 y24.153 z-2.000
x-3.822 y24.187 z-2.000
x-3.868 y24.219 z-2.000
x-3.915 y24.250 z-2.000
x-3.963 y24.279 z-2.000
x-4.012 y24.307 z-2.000
x-4.062 y24.333 z-2.000
x-4.114 y24.356 z-2.000
x-4.165 y24.379 z-2.000
x-4.218 y24.399 z-2.000
x-4.271 y24.417 z-2.000
x-4.325 y24.433 z-2.000
x-4.380 y24.448 z-2.000
x-4.435 y24.461 z-2.000
x-4.490 y24.471 z-2.000
x-4.546 y24.480 z-2.000
x-4.601 y24.486 z-2.000
x-4.658 y24.491 z-2.000
x-4.714 y24.494 z-2.000
x-4.770 y24.494 z-2.000
x-4.827 y24.493 z-2.000
x-4.883 y24.490 z-2.000
x-4.939 y24.484 z-2.000
x-4.995 y24.477 z-2.000
x-5.037 y24.470 z-2.000
x-5.275 y24.428 z-2.000
x-5.277 y24.428 z-2.000
x-5.395 y24.407 z-2.000
x-5.421 y24.402 z-2.000
x-5.524 y24.382 z-2.000
x-5.643 y24.360 z-2.000
x-5.670 y24.355 z-2.000
x-5.906 y24.307 z-2.000
x-5.922 y24.303 z-2.000
x-6.036 y24.279 z-2.000
x-6.154 y24.254 z-2.000
x-6.167 y24.251 z-2.000
x-6.285 y24.225 z-2.000
x-6.289 y24.224 z-2.000
x-6.428 y24.193 z-2.000
x-6.449 y24.189 z-2.000
x-6.727 y24.123 z-2.000
x-6.740 y24.119 z-2.000
x-6.878 y24.085 z-2.000
x-6.886 y24.083 z-2.000
x-7.025 y24.048 z-2.000
x-7.038 y24.045 z-2.000
x-7.337 y23.967 z-2.000
x-7.471 y23.930 z-2.000
x-7.609 y23.892 z-2.000
x-7.623 y23.888 z-2.000
x-7.760 y23.849 z-2.000
x-7.814 y23.832 z-2.000
x-7.867 y23.814 z-2.000
x-7.919 y23.794 z-2.000
x-7.971 y23.772 z-2.000
x-8.022 y23.748 z-2.000
x-8.073 y23.722 z-2.000
x-8.122 y23.695 z-2.000
x-8.170 y23.666 z-2.000
x-8.217 y23.635 z-2.000
x-8.263 y23.603 z-2.000
x-8.308 y23.569 z-2.000
x-8.352 y23.533 z-2.000
x-8.394 y23.496 z-2.000
x-8.435 y23.457 z-2.000
x-8.475 y23.417 z-2.000
x-8.513 y23.375 z-2.000
x-8.549 y23.333 z-2.000
x-8.584 y23.288 z-2.000
x-8.618 y23.243 z-2.000
x-8.650 y23.197 z-2.000
x-8.680 y23.149 z-2.000
x-8.708 y23.101 z-2.000
x-8.735 y23.051 z-2.000
x-8.752 y23.017 z-2.000
x-9.007 y22.493 z-2.000
x-9.035 y22.434 z-2.000
x-9.285 y21.862 z-2.000
x-9.310 y21.801 z-2.000
x-9.524 y21.250 z-2.000
x-9.547 y21.186 z-2.000
x-9.729 y20.651 z-2.000
x-9.749 y20.587 z-2.000
x-9.899 y20.076 z-2.000
x-9.916 y20.013 z-2.000
x-10.038 y19.524 z-2.000
x-10.053 y19.460 z-2.000
x-10.149 y18.993 z-2.000
x-10.161 y18.925 z-2.000
x-10.231 y18.489 z-2.000
x-10.240 y18.424 z-2.000
x-10.289 y18.012 z-2.000
x-10.295 y17.956 z-2.000
x-10.298 y17.915 z-2.000
x-10.340 y17.178 z-2.000
x-10.342 y17.122 z-2.000
x-10.342 y17.044 z-2.000
x-10.325 y16.425 z-2.000
x-10.322 y16.369 z-2.000
x-10.316 y16.296 z-2.000
x-10.262 y15.803 z-2.000
x-10.255 y15.747 z-2.000
x-10.246 y15.692 z-2.000
x-10.238 y15.652 z-2.000
x-10.139 y15.177 z-2.000
x-10.127 y15.122 z-2.000
x-10.112 y15.068 z-2.000
x-10.096 y15.014 z-2.000
x-10.078 y14.960 z-2.000
x-10.058 y14.908 z-2.000
x-10.036 y14.856 z-2.000
x-10.012 y14.805 z-2.000
x-9.986 y14.755 z-2.000
x-9.959 y14.705 z-2.000
x-9.930 y14.657 z-2.000
x-9.899 y14.610 z-2.000
x-9.866 y14.564 z-2.000
x-9.832 y14.519 z-2.000
x-9.797 y14.475 z-2.000
x-9.753 y14.426 z-2.000
x-9.438 y14.084 z-2.000
x-9.202 y13.789 z-2.000
x-9.006 y13.503 z-2.000
x-8.845 y13.225 z-2.000
x-8.726 y12.975 z-2.000
x-8.641 y12.748 z-2.000
x-8.588 y12.553 z-2.000
x-8.560 y12.387 z-2.000
x-8.552 y12.248 z-2.000
x-8.557 y12.165 z-2.000
x-8.562 y12.139 z-2.000
x-9.171 y11.732 z-2.000
x-9.217 y11.700 z-2.000
x-9.244 y11.681 z-2.000
x-9.805 y11.258 z-2.000
x-9.849 y11.223 z-2.000
x-9.872 y11.204 z-2.000
x-10.408 y10.752 z-2.000
x-10.451 y10.715 z-2.000
x-10.475 y10.693 z-2.000
x-11.008 y10.190 z-2.000
x-11.028 y10.191 z-2.000
x-11.128 y10.207 z-2.000
x-11.249 y10.242 z-2.000
x-11.400 y10.304 z-2.000
x-11.585 y10.403 z-2.000
x-11.792 y10.539 z-2.000
x-12.004 y10.707 z-2.000
x-12.239 y10.926 z-2.000
x-12.470 y11.177 z-2.000
x-12.713 y11.482 z-2.000
x-12.973 y11.860 z-2.000
x-13.006 y11.906 z-2.000
x-13.040 y11.950 z-2.000
x-13.076 y11.994 z-2.000
x-13.114 y12.036 z-2.000
x-13.153 y12.077 z-2.000
x-13.193 y12.116 z-2.000
x-13.235 y12.154 z-2.000
x-13.278 y12.190 z-2.000
x-13.322 y12.225 z-2.000
x-13.368 y12.258 z-2.000
x-13.414 y12.290 z-2.000
x-13.462 y12.320 z-2.000
x-13.511 y12.348 z-2.000
x-13.561 y12.374 z-2.000
x-13.619 y12.402 z-2.000
x-14.060 y12.604 z-2.000
x-14.112 y12.627 z-2.000
x-14.164 y12.648 z-2.000
x-14.200 y12.661 z-2.000
x-14.669 y12.824 z-2.000
x-14.722 y12.841 z-2.000
x-14.795 y12.862 z-2.000
x-15.394 y13.016 z-2.000
x-15.449 y13.029 z-2.000
x-15.523 y13.043 z-2.000
x-16.252 y13.167 z-2.000
x-16.308 y13.175 z-2.000
x-16.353 y13.181 z-2.000
x-16.765 y13.224 z-2.000
x-16.826 y13.229 z-2.000
x-17.267 y13.258 z-2.000
x-17.338 y13.261 z-2.000
x-17.814 y13.271 z-2.000
x-17.878 y13.271 z-2.000
x-18.383 y13.261 z-2.000
x-18.450 y13.258 z-2.000
x-18.981 y13.225 z-2.000
x-19.046 y13.220 z-2.000
x-19.607 y13.162 z-2.000
x-19.675 y13.154 z-2.000
x-20.260 y13.068 z-2.000
x-20.324 y13.057 z-2.000
x-20.938 y12.941 z-2.000
x-21.003 y12.927 z-2.000
x-21.570 y12.795 z-2.000
x-21.625 y12.781 z-2.000
x-21.679 y12.766 z-2.000
x-21.732 y12.748 z-2.000
x-21.785 y12.729 z-2.000
x-21.837 y12.707 z-2.000
x-21.889 y12.684 z-2.000
x-21.939 y12.659 z-2.000
x-21.989 y12.632 z-2.000
x-22.037 y12.604 z-2.000
x-22.085 y12.574 z-2.000
x-22.131 y12.542 z-2.000
x-22.177 y12.508 z-2.000
x-22.221 y12.473 z-2.000
x-22.264 y12.437 z-2.000
x-22.305 y12.398 z-2.000
x-22.345 y12.359 z-2.000
x-22.384 y12.318 z-2.000
x-22.421 y12.276 z-2.000
x-22.457 y12.232 z-2.000
x-22.491 y12.187 z-2.000
x-22.523 y12.141 z-2.000
x-22.554 y12.094 z-2.000
x-22.583 y12.046 z-2.000
x-22.603 y12.010 z-2.000
x-22.721 y11.794 z-2.000
x-22.729 y11.779 z-2.000
x-22.845 y11.561 z-2.000
x-22.851 y11.551 z-2.000
x-22.908 y11.442 z-2.000
x-22.913 y11.431 z-2.000
x-22.969 y11.322 z-2.000
x-22.972 y11.317 z-2.000
x-23.028 y11.207 z-2.000
x-23.148 y10.967 z-2.000
x-23.202 y10.857 z-2.000
x-23.208 y10.844 z-2.000
x-23.269 y10.717 z-2.000
x-23.271 y10.713 z-2.000
x-23.331 y10.587 z-2.000
x-23.338 y10.573 z-2.000
x-23.456 y10.319 z-2.000
x-23.462 y10.305 z-2.000
x-23.520 y10.177 z-2.000
x-23.524 y10.168 z-2.000
x-23.581 y10.040 z-2.000
x-23.585 y10.030 z-2.000
x-23.641 y9.902 z-2.000
x-23.643 y9.898 z-2.000
x-23.699 y9.769 z-2.000
x-23.706 y9.754 z-2.000
x-23.760 y9.626 z-2.000
x-23.763 y9.618 z-2.000
x-23.817 y9.488 z-2.000
x-23.838 y9.436 z-2.000
x-23.857 y9.382 z-2.000
x-23.873 y9.329 z-2.000
x-23.888 y9.274 z-2.000
x-23.902 y9.220 z-2.000
x-23.913 y9.164 z-2.000
x-23.922 y9.109 z-2.000
x-23.929 y9.053 z-2.000
x-23.934 y8.997 z-2.000
x-23.937 y8.941 z-2.000
x-23.938 y8.884 z-2.000
x-23.938 y8.828 z-2.000
x-23.935 y8.772 z-2.000
x-23.930 y8.715 z-2.000
x-23.923 y8.659 z-2.000
x-23.914 y8.604 z-2.000
x-23.904 y8.549 z-2.000
x-23.891 y8.494 z-2.000
x-23.876 y8.439 z-2.000
x-23.860 y8.385 z-2.000
x-23.841 y8.332 z-2.000
x-23.821 y8.280 z-2.000
x-23.799 y8.228 z-2.000
x-23.785 y8.198 z-2.000
x-23.535 y7.672 z-2.000
x-23.504 y7.611 z-2.000
x-23.212 y7.059 z-2.000
x-23.182 y7.003 z-2.000
x-22.885 y6.492 z-2.000
x-22.848 y6.432 z-2.000
x-22.543 y5.957 z-2.000
x-22.508 y5.905 z-2.000
x-22.203 y5.469 z-2.000
x-22.161 y5.412 z-2.000
x-21.854 y5.012 z-2.000
x-21.815 y4.963 z-2.000
x-21.510 y4.597 z-2.000
x-21.467 y4.547 z-2.000
x-21.170 y4.219 z-2.000
x-21.121 y4.168 z-2.000
x-20.829 y3.873 z-2.000
x-20.789 y3.834 z-2.000
x-20.759 y3.807 z-2.000
x-20.209 y3.315 z-2.000
x-20.167 y3.278 z-2.000
x-20.106 y3.230 z-2.000
x-19.611 y2.857 z-2.000
x-19.566 y2.824 z-2.000
x-19.502 y2.782 z-2.000
x-19.083 y2.518 z-2.000
x-19.035 y2.489 z-2.000
x-18.986 y2.461 z-2.000
x-18.953 y2.444 z-2.000
x-18.520 y2.225 z-2.000
x-18.470 y2.201 z-2.000
x-18.418 y2.178 z-2.000
x-18.366 y2.157 z-2.000
x-18.313 y2.138 z-2.000
x-18.259 y2.121 z-2.000
x-18.205 y2.106 z-2.000
x-18.150 y2.093 z-2.000
x-18.095 y2.081 z-2.000
x-18.039 y2.072 z-2.000
x-17.983 y2.065 z-2.000
x-17.927 y2.059 z-2.000
x-17.871 y2.056 z-2.000
x-17.815 y2.055 z-2.000
x-17.758 y2.055 z-2.000
x-17.693 y2.058 z-2.000
x-17.219 y2.091 z-2.000
x-16.862 y2.092 z-2.000
x-16.497 y2.066 z-2.000
x-16.191 y2.020 z-2.000
x-15.922 y1.958 z-2.000
x-15.684 y1.880 z-2.000
x-15.502 y1.802 z-2.000
x-15.357 y1.722 z-2.000
x-15.246 y1.643 z-2.000
x-15.173 y1.576 z-2.000
x-15.162 y1.563 z-2.000
x-15.223 y0.834 z-2.000
x-15.227 y0.778 z-2.000
x-15.228 y0.744 z-2.000
x-15.247 y0.043 z-2.000
x-15.247 y-0.043 z-2.000
x-15.228 y-0.744 z-2.000
x-15.225 y-0.800 z-2.000
x-15.223 y-0.834 z-2.000
x-15.162 y-1.563 z-2.000
x-15.174 y-1.577 z-2.000
x-15.249 y-1.645 z-2.000
x-15.357 y-1.722 z-2.000
x-15.502 y-1.802 z-2.000
x-15.684 y-1.880 z-2.000
x-15.922 y-1.958 z-2.000
x-16.191 y-2.020 z-2.000
x-16.497 y-2.066 z-2.000
x-16.862 y-2.092 z-2.000
x-17.219 y-2.091 z-2.000
x-17.694 y-2.058 z-2.000
x-17.750 y-2.055 z-2.000
x-17.806 y-2.055 z-2.000
x-17.862 y-2.056 z-2.000
x-17.919 y-2.059 z-2.000
x-17.975 y-2.064 z-2.000
x-18.031 y-2.071 z-2.000
x-18.086 y-2.080 z-2.000
x-18.142 y-2.091 z-2.000
x-18.196 y-2.104 z-2.000
x-18.251 y-2.119 z-2.000
x-18.305 y-2.135 z-2.000
x-18.358 y-2.154 z-2.000
x-18.410 y-2.175 z-2.000
x-18.462 y-2.197 z-2.000
x-18.520 y-2.225 z-2.000
x-18.953 y-2.444 z-2.000
x-19.003 y-2.471 z-2.000
x-19.052 y-2.499 z-2.000
x-19.083 y-2.518 z-2.000
x-19.502 y-2.782 z-2.000
x-19.549 y-2.813 z-2.000
x-19.611 y-2.857 z-2.000
x-20.106 y-3.230 z-2.000
x-20.151 y-3.265 z-2.000
x-20.211 y-3.316 z-2.000
x-20.761 y-3.809 z-2.000
x-20.802 y-3.847 z-2.000
x-20.831 y-3.876 z-2.000
x-21.122 y-4.171 z-2.000
x-21.165 y-4.217 z-2.000
x-21.463 y-4.544 z-2.000
x-21.510 y-4.597 z-2.000
x-21.815 y-4.963 z-2.000
x-21.856 y-5.014 z-2.000
x-22.162 y-5.414 z-2.000
x-22.200 y-5.467 z-2.000
x-22.506 y-5.903 z-2.000
x-22.544 y-5.959 z-2.000
x-22.848 y-6.434 z-2.000
x-22.882 y-6.490 z-2.000
x-23.180 y-7.001 z-2.000
x-23.212 y-7.059 z-2.000
x-23.504 y-7.611 z-2.000
x-23.535 y-7.672 z-2.000
x-23.785 y-8.198 z-2.000
x-23.808 y-8.249 z-2.000
x-23.830 y-8.301 z-2.000
x-23.849 y-8.354 z-2.000
x-23.867 y-8.407 z-2.000
x-23.883 y-8.461 z-2.000
x-23.896 y-8.516 z-2.000
x-23.908 y-8.571 z-2.000
x-23.918 y-8.627 z-2.000
x-23.926 y-8.682 z-2.000
x-23.932 y-8.738 z-2.000
x-23.936 y-8.795 z-2.000
x-23.938 y-8.851 z-2.000
x-23.938 y-8.907 z-2.000
x-23.936 y-8.963 z-2.000
x-23.932 y-9.020 z-2.000
x-23.926 y-9.076 z-2.000
x-23.918 y-9.131 z-2.000
x-23.908 y-9.187 z-2.000
x-23.896 y-9.242 z-2.000
x-23.883 y-9.297 z-2.000
x-23.867 y-9.351 z-2.000
x-23.849 y-9.404 z-2.000
x-23.830 y-9.457 z-2.000
x-23.819 y-9.484 z-2.000
x-23.772 y-9.598 z-2.000
x-23.762 y-9.620 z-2.000
x-23.713 y-9.734 z-2.000
x-23.670 y-9.837 z-2.000
x-23.659 y-9.863 z-2.000
x-23.509 y-10.202 z-2.000
x-23.502 y-10.218 z-2.000
x-23.451 y-10.330 z-2.000
x-23.448 y-10.336 z-2.000
x-23.396 y-10.449 z-2.000
x-23.392 y-10.458 z-2.000
x-23.340 y-10.569 z-2.000
x-23.337 y-10.575 z-2.000
x-23.284 y-10.687 z-2.000
x-23.278 y-10.700 z-2.000
x-23.217 y-10.826 z-2.000
x-23.215 y-10.830 z-2.000
x-23.154 y-10.955 z-2.000
x-23.149 y-10.964 z-2.000
x-23.087 y-11.089 z-2.000
x-23.083 y-11.098 z-2.000
x-23.020 y-11.223 z-2.000
x-23.017 y-11.228 z-2.000
x-22.954 y-11.352 z-2.000
x-22.950 y-11.361 z-2.000
x-22.886 y-11.485 z-2.000
x-22.881 y-11.494 z-2.000
x-22.816 y-11.618 z-2.000
x-22.809 y-11.632 z-2.000
x-22.743 y-11.755 z-2.000
x-22.738 y-11.763 z-2.000
x-22.671 y-11.886 z-2.000
x-22.668 y-11.891 z-2.000
x-22.601 y-12.013 z-2.000
x-22.573 y-12.062 z-2.000
x-22.544 y-12.110 z-2.000
x-22.512 y-12.157 z-2.000
x-22.479 y-12.202 z-2.000
x-22.445 y-12.247 z-2.000
x-22.409 y-12.290 z-2.000
x-22.371 y-12.332 z-2.000
x-22.332 y-12.372 z-2.000
x-22.291 y-12.411 z-2.000
x-22.249 y-12.449 z-2.000
x-22.206 y-12.485 z-2.000
x-22.161 y-12.520 z-2.000
x-22.116 y-12.553 z-2.000
x-22.069 y-12.584 z-2.000
x-22.021 y-12.614 z-2.000
x-21.972 y-12.642 z-2.000
x-21.922 y-12.668 z-2.000
x-21.871 y-12.692 z-2.000
x-21.820 y-12.715 z-2.000
x-21.767 y-12.735 z-2.000
x-21.714 y-12.754 z-2.000
x-21.660 y-12.771 z-2.000
x-21.606 y-12.786 z-2.000
x-21.570 y-12.795 z-2.000
x-21.003 y-12.927 z-2.000
x-20.938 y-12.941 z-2.000
x-20.324 y-13.057 z-2.000
x-20.260 y-13.068 z-2.000
x-19.675 y-13.154 z-2.000
x-19.607 y-13.162 z-2.000
x-19.046 y-13.220 z-2.000
x-18.981 y-13.225 z-2.000
x-18.450 y-13.258 z-2.000
x-18.383 y-13.261 z-2.000
x-17.878 y-13.271 z-2.000
x-17.814 y-13.271 z-2.000
x-17.338 y-13.261 z-2.000
x-17.267 y-13.258 z-2.000
x-16.826 y-13.229 z-2.000
x-16.761 y-13.224 z-2.000
x-16.349 y-13.180 z-2.000
x-16.294 y-13.173 z-2.000
x-16.254 y-13.166 z-2.000
x-15.525 y-13.043 z-2.000
x-15.469 y-13.033 z-2.000
x-15.394 y-13.016 z-2.000
x-14.795 y-12.862 z-2.000
x-14.740 y-12.847 z-2.000
x-14.669 y-12.824 z-2.000
x-14.200 y-12.661 z-2.000
x-14.147 y-12.641 z-2.000
x-14.095 y-12.620 z-2.000
x-14.060 y-12.604 z-2.000
x-13.619 y-12.402 z-2.000
x-13.568 y-12.378 z-2.000
x-13.518 y-12.352 z-2.000
x-13.469 y-12.324 z-2.000
x-13.421 y-12.294 z-2.000
x-13.374 y-12.263 z-2.000
x-13.329 y-12.230 z-2.000
x-13.284 y-12.195 z-2.000
x-13.241 y-12.159 z-2.000
x-13.199 y-12.122 z-2.000
x-13.159 y-12.083 z-2.000
x-13.119 y-12.042 z-2.000
x-13.082 y-12.000 z-2.000
x-13.045 y-11.957 z-2.000
x-13.011 y-11.913 z-2.000
x-12.972 y-11.859 z-2.000
x-12.709 y-11.477 z-2.000
x-12.472 y-11.180 z-2.000
x-12.242 y-10.929 z-2.000
x-12.004 y-10.707 z-2.000
x-11.792 y-10.539 z-2.000
x-11.585 y-10.403 z-2.000
x-11.400 y-10.304 z-2.000
x-11.250 y-10.242 z-2.000
x-11.117 y-10.203 z-2.000
x-11.039 y-10.191 z-2.000
x-11.006 y-10.190 z-2.000
x-10.475 y-10.692 z-2.000
x-10.434 y-10.730 z-2.000
x-10.408 y-10.752 z-2.000
x-9.872 y-11.204 z-2.000
x-9.829 y-11.239 z-2.000
x-9.805 y-11.258 z-2.000
x-9.244 y-11.681 z-2.000
x-9.198 y-11.714 z-2.000
x-9.171 y-11.732 z-2.000
x-8.562 y-12.139 z-2.000
x-8.557 y-12.165 z-2.000
x-8.552 y-12.249 z-2.000
x-8.560 y-12.386 z-2.000
x-8.588 y-12.553 z-2.000
x-8.643 y-12.754 z-2.000
x-8.723 y-12.968 z-2.000
x-8.850 y-13.234 z-2.000
x-9.008 y-13.506 z-2.000
x-9.197 y-13.781 z-2.000
x-9.448 y-14.094 z-2.000
x-9.753 y-14.426 z-2.000
x-9.790 y-14.468 z-2.000
x-9.826 y-14.511 z-2.000
x-9.860 y-14.556 z-2.000
x-9.893 y-14.602 z-2.000
x-9.924 y-14.649 z-2.000
x-9.954 y-14.697 z-2.000
x-9.981 y-14.746 z-2.000
x-10.007 y-14.796 z-2.000
x-10.031 y-14.847 z-2.000
x-10.054 y-14.898 z-2.000
x-10.074 y-14.951 z-2.000
x-10.093 y-15.004 z-2.000
x-10.109 y-15.058 z-2.000
x-10.124 y-15.112 z-2.000
x-10.139 y-15.177 z-2.000
x-10.238 y-15.652 z-2.000
x-10.249 y-15.707 z-2.000
x-10.257 y-15.763 z-2.000
x-10.262 y-15.803 z-2.000
x-10.316 y-16.296 z-2.000
x-10.321 y-16.352 z-2.000
x-10.325 y-16.425 z-2.000
x-10.342 y-17.044 z-2.000
x-10.342 y-17.101 z-2.000
x-10.340 y-17.178 z-2.000
x-10.298 y-17.915 z-2.000
x-10.294 y-17.972 z-2.000
x-10.289 y-18.012 z-2.000
x-10.240 y-18.424 z-2.000
x-10.231 y-18.489 z-2.000
x-10.161 y-18.925 z-2.000
x-10.149 y-18.993 z-2.000
x-10.053 y-19.460 z-2.000
x-10.038 y-19.524 z-2.000
x-9.916 y-20.013 z-2.000
x-9.899 y-20.076 z-2.000
x-9.749 y-20.587 z-2.000
x-9.729 y-20.652 z-2.000
x-9.547 y-21.186 z-2.000
x-9.524 y-21.248 z-2.000
x-9.310 y-21.800 z-2.000
x-9.285 y-21.862 z-2.000
x-9.035 y-22.434 z-2.000
x-9.007 y-22.493 z-2.000
x-8.752 y-23.017 z-2.000
x-8.727 y-23.067 z-2.000
x-8.700 y-23.116 z-2.000
x-8.671 y-23.164 z-2.000
x-8.640 y-23.212 z-2.000
x-8.607 y-23.258 z-2.000
x-8.573 y-23.303 z-2.000
x-8.538 y-23.346 z-2.000
x-8.501 y-23.389 z-2.000
x-8.462 y-23.430 z-2.000
x-8.422 y-23.469 z-2.000
x-8.381 y-23.508 z-2.000
x-8.338 y-23.544 z-2.000
x-8.294 y-23.580 z-2.000
x-8.249 y-23.613 z-2.000
x-8.202 y-23.645 z-2.000
x-8.155 y-23.675 z-2.000
x-8.106 y-23.704 z-2.000
x-8.057 y-23.731 z-2.000
x-8.006 y-23.756 z-2.000
x-7.955 y-23.779 z-2.000
x-7.903 y-23.801 z-2.000
x-7.850 y-23.820 z-2.000
x-7.796 y-23.838 z-2.000
x-7.755 y-23.850 z-2.000
x-7.471 y-23.930 z-2.000
x-7.451 y-23.936 z-2.000
x-7.167 y-24.012 z-2.000
x-7.155 y-24.015 z-2.000
x-7.012 y-24.052 z-2.000
x-7.002 y-24.054 z-2.000
x-6.859 y-24.090 z-2.000
x-6.848 y-24.093 z-2.000
x-6.705 y-24.128 z-2.000
x-6.693 y-24.131 z-2.000
x-6.549 y-24.165 z-2.000
x-6.541 y-24.167 z-2.000
x-6.385 y-24.203 z-2.000
x-6.241 y-24.235 z-2.000
x-6.240 y-24.235 z-2.000
x-6.127 y-24.260 z-2.000
x-6.114 y-24.263 z-2.000
x-6.001 y-24.287 z-2.000
x-5.998 y-24.287 z-2.000
x-5.884 y-24.311 z-2.000
x-5.874 y-24.314 z-2.000
x-5.761 y-24.337 z-2.000
x-5.745 y-24.340 z-2.000
x-5.631 y-24.362 z-2.000
x-5.631 y-24.361 z-2.000
x-5.520 y-24.383 z-2.000
x-5.505 y-24.386 z-2.000
x-5.277 y-24.428 z-2.000
x-5.263 y-24.431 z-2.000
x-5.035 y-24.471 z-2.000
x-4.980 y-24.479 z-2.000
x-4.924 y-24.486 z-2.000
x-4.868 y-24.491 z-2.000
x-4.811 y-24.494 z-2.000
x-4.755 y-24.494 z-2.000
x-4.699 y-24.493 z-2.000
x-4.642 y-24.490 z-2.000
x-4.586 y-24.485 z-2.000
x-4.530 y-24.478 z-2.000
x-4.475 y-24.468 z-2.000
x-4.420 y-24.457 z-2.000
x-4.365 y-24.444 z-2.000
x-4.310 y-24.429 z-2.000
x-4.257 y-24.412 z-2.000
x-4.204 y-24.393 z-2.000
x-4.151 y-24.373 z-2.000
x-4.100 y-24.350 z-2.000
x-4.049 y-24.326 z-2.000
x-3.999 y-24.300 z-2.000
x-3.950 y-24.272 z-2.000
x-3.902 y-24.242 z-2.000
x-3.855 y-24.211 z-2.000
x-3.810 y-24.178 z-2.000
x-3.777 y-24.153 z-2.000
x-3.320 y-23.792 z-2.000
x-3.269 y-23.749 z-2.000
x-2.796 y-23.342 z-2.000
x-2.747 y-23.298 z-2.000
x-2.315 y-22.894 z-2.000
x-2.267 y-22.848 z-2.000
x-1.871 y-22.445 z-2.000
x-1.825 y-22.396 z-2.000
x-1.468 y-22.001 z-2.000
x-1.424 y-21.951 z-2.000
x-1.102 y-21.563 z-2.000
x-1.062 y-21.512 z-2.000
x-0.773 y-21.133 z-2.000
x-0.734 y-21.079 z-2.000
x-0.481 y-20.717 z-2.000
x-0.441 y-20.658 z-2.000
x-0.219 y-20.308 z-2.000
x-0.190 y-20.260 z-2.000
x-0.171 y-20.227 z-2.000
x0.187 y-19.581 z-2.000
x0.213 y-19.532 z-2.000
x0.247 y-19.461 z-2.000
x0.500 y-18.896 z-2.000
x0.522 y-18.844 z-2.000
x0.548 y-18.775 z-2.000
x0.713 y-18.307 z-2.000
x0.731 y-18.253 z-2.000
x0.747 y-18.199 z-2.000
x0.757 y-18.162 z-2.000
x0.874 y-17.691 z-2.000
x0.886 y-17.636 z-2.000
x0.897 y-17.580 z-2.000
x0.906 y-17.525 z-2.000
x0.912 y-17.469 z-2.000
x0.917 y-17.413 z-2.000
x0.920 y-17.356 z-2.000
x0.920 y-17.300 z-2.000
x0.919 y-17.244 z-2.000
x0.916 y-17.188 z-2.000
x0.911 y-17.131 z-2.000
x0.903 y-17.076 z-2.000
x0.894 y-17.020 z-2.000
x0.883 y-16.965 z-2.000
x0.870 y-16.910 z-2.000
x0.852 y-16.847 z-2.000
x0.719 y-16.410 z-2.000
x0.632 y-16.034 z-2.000
x0.580 y-15.691 z-2.000
x0.554 y-15.367 z-2.000
x0.556 y-15.104 z-2.000
x0.579 y-14.851 z-2.000
x0.615 y-14.656 z-2.000
x0.664 y-14.487 z-2.000
x0.711 y-14.373 z-2.000
x0.760 y-14.285 z-2.000
x0.772 y-14.269 z-2.000
x1.495 y-14.167 z-2.000
x1.551 y-14.158 z-2.000
x1.583 y-14.152 z-2.000
x2.271 y-14.015 z-2.000
x2.326 y-14.003 z-2.000
x2.357 y-13.995 z-2.000
x3.037 y-13.820 z-2.000
x3.091 y-13.805 z-2.000
x3.123 y-13.795 z-2.000
x3.818 y-13.573 z-2.000
x3.844 y-13.587 z-2.000
x3.914 y-13.636 z-2.000
x4.016 y-13.727 z-2.000
x4.125 y-13.849 z-2.000
x4.248 y-14.016 z-2.000
x4.370 y-14.221 z-2.000
x4.498 y-14.486 z-2.000
x4.609 y-14.768 z-2.000
x4.707 y-15.093 z-2.000
x4.795 y-15.476 z-2.000
x4.865 y-15.930 z-2.000
x4.875 y-15.986 z-2.000
x4.886 y-16.041 z-2.000
x4.900 y-16.095 z-2.000
x4.915 y-16.150 z-2.000
x4.933 y-16.203 z-2.000
x4.952 y-16.256 z-2.000
x4.973 y-16.308 z-2.000
x4.996 y-16.360 z-2.000
x5.021 y-16.410 z-2.000
x5.047 y-16.460 z-2.000
x5.076 y-16.509 z-2.000
x5.106 y-16.556 z-2.000
x5.137 y-16.603 z-2.000
x5.171 y-16.649 z-2.000
x5.212 y-16.700 z-2.000
x5.522 y-17.074 z-2.000
x5.558 y-17.117 z-2.000
x5.597 y-17.158 z-2.000
x5.623 y-17.185 z-2.000
x5.974 y-17.535 z-2.000
x6.015 y-17.574 z-2.000
x6.073 y-17.626 z-2.000
x6.546 y-18.024 z-2.000
x6.590 y-18.059 z-2.000
x6.649 y-18.104 z-2.000
x7.252 y-18.532 z-2.000
x7.299 y-18.563 z-2.000
x7.337 y-18.588 z-2.000
x7.690 y-18.806 z-2.000
x7.745 y-18.838 z-2.000
x8.130 y-19.055 z-2.000
x8.188 y-19.087 z-2.000
x8.612 y-19.303 z-2.000
x8.673 y-19.332 z-2.000
x9.132 y-19.542 z-2.000
x9.193 y-19.568 z-2.000
x9.686 y-19.769 z-2.000
x9.748 y-19.793 z-2.000
x10.279 y-19.984 z-2.000
x10.344 y-20.006 z-2.000
x10.909 y-20.182 z-2.000
x10.968 y-20.199 z-2.000
x11.570 y-20.361 z-2.000
x11.637 y-20.377 z-2.000
x12.206 y-20.504 z-2.000
x12.261 y-20.516 z-2.000
x12.317 y-20.525 z-2.000
x12.373 y-20.532 z-2.000
x12.429 y-20.538 z-2.000
x12.485 y-20.541 z-2.000
x12.541 y-20.542 z-2.000
x12.598 y-20.542 z-2.000
x12.654 y-20.539 z-2.000
x12.710 y-20.535 z-2.000
x12.766 y-20.528 z-2.000
x12.822 y-20.519 z-2.000
x12.877 y-20.509 z-2.000
x12.932 y-20.496 z-2.000
x12.987 y-20.482 z-2.000
x13.041 y-20.465 z-2.000
x13.094 y-20.447 z-2.000
x13.146 y-20.427 z-2.000
x13.198 y-20.405 z-2.000
x13.249 y-20.381 z-2.000
x13.300 y-20.355 z-2.000
x13.349 y-20.328 z-2.000
x13.397 y-20.299 z-2.000
x13.444 y-20.268 z-2.000
x13.473 y-20.248 z-2.000
x13.591 y-20.164 z-2.000
x13.601 y-20.157 z-2.000
x13.717 y-20.073 z-2.000
x13.719 y-20.071 z-2.000
x13.836 y-19.986 z-2.000
x13.854 y-19.973 z-2.000
x13.969 y-19.887 z-2.000
x13.971 y-19.886 z-2.000
x14.087 y-19.799 z-2.000
x14.097 y-19.791 z-2.000
x14.211 y-19.704 z-2.000
x14.218 y-19.699 z-2.000
x14.332 y-19.611 z-2.000
x14.339 y-19.605 z-2.000
x14.453 y-19.516 z-2.000
x14.458 y-19.512 z-2.000
x14.571 y-19.423 z-2.000
x14.585 y-19.412 z-2.000
x14.698 y-19.321 z-2.000
x14.790 y-19.247 z-2.000
x14.805 y-19.235 z-2.000
x14.989 y-19.083 z-2.000
x14.996 y-19.077 z-2.000
x15.087 y-19.001 z-2.000
x15.094 y-18.995 z-2.000
x15.185 y-18.918 z-2.000
x15.192 y-18.912 z-2.000
x15.282 y-18.835 z-2.000
x15.290 y-18.829 z-2.000
x15.470 y-18.673 z-2.000
x15.484 y-18.660 z-2.000
x15.662 y-18.502 z-2.000
x15.703 y-18.464 z-2.000
x15.743 y-18.425 z-2.000
x15.782 y-18.384 z-2.000
x15.819 y-18.341 z-2.000
x15.855 y-18.298 z-2.000
x15.889 y-18.253 z-2.000
x15.921 y-18.207 z-2.000
x15.952 y-18.159 z-2.000
x15.981 y-18.111 z-2.000
x16.009 y-18.062 z-2.000
x16.034 y-18.012 z-2.000
x16.058 y-17.961 z-2.000
x16.080 y-17.909 z-2.000
x16.100 y-17.856 z-2.000
x16.119 y-17.803 z-2.000
x16.135 y-17.749 z-2.000
x16.149 y-17.695 z-2.000
x16.162 y-17.640 z-2.000
x16.172 y-17.584 z-2.000
x16.181 y-17.529 z-2.000
x16.188 y-17.473 z-2.000
x16.192 y-17.416 z-2.000
x16.195 y-17.360 z-2.000
x16.195 y-17.323 z-2.000
x16.198 y-16.741 z-2.000
x16.197 y-16.675 z-2.000
x16.174 y-16.051 z-2.000
x16.170 y-15.983 z-2.000
x16.123 y-15.393 z-2.000
x16.117 y-15.328 z-2.000
x16.049 y-14.768 z-2.000
x16.040 y-14.702 z-2.000
x15.954 y-14.177 z-2.000
x15.942 y-14.113 z-2.000
x15.840 y-13.619 z-2.000
x15.824 y-13.550 z-2.000
x15.707 y-13.088 z-2.000
x15.691 y-13.029 z-2.000
x15.566 y-12.605 z-2.000
x15.544 y-12.537 z-2.000
x15.409 y-12.145 z-2.000
x15.390 y-12.092 z-2.000
x15.375 y-12.056 z-2.000
x15.093 y-11.373 z-2.000
x15.071 y-11.321 z-2.000
x15.037 y-11.251 z-2.000
x14.753 y-10.701 z-2.000
x14.726 y-10.651 z-2.000
x14.687 y-10.586 z-2.000
x14.424 y-10.166 z-2.000
x14.394 y-10.119 z-2.000
x14.361 y-10.073 z-2.000
x14.339 y-10.043 z-2.000
x14.044 y-9.658 z-2.000
x14.009 y-9.614 z-2.000
x13.972 y-9.572 z-2.000
x13.934 y-9.530 z-2.000
x13.895 y-9.490 z-2.000
x13.854 y-9.451 z-2.000
x13.812 y-9.414 z-2.000
x13.768 y-9.378 z-2.000
x13.723 y-9.344 z-2.000
x13.677 y-9.312 z-2.000
x13.630 y-9.281 z-2.000
x13.582 y-9.252 z-2.000
x13.533 y-9.224 z-2.000
x13.482 y-9.198 z-2.000
x13.431 y-9.175 z-2.000
x13.371 y-9.149 z-2.000
x12.940 y-8.977 z-2.000
x12.606 y-8.817 z-2.000
x12.291 y-8.636 z-2.000
x12.034 y-8.462 z-2.000
x11.821 y-8.291 z-2.000
x11.638 y-8.116 z-2.000
x11.509 y-7.967 z-2.000
x11.406 y-7.822 z-2.000
x11.346 y-7.713 z-2.000
x11.314 y-7.634 z-2.000
x11.306 y-7.604 z-2.000
x11.677 y-6.974 z-2.000
x11.704 y-6.925 z-2.000
x11.720 y-6.896 z-2.000
x12.042 y-6.272 z-2.000
x12.067 y-6.221 z-2.000
x12.080 y-6.193 z-2.000
x12.367 y-5.552 z-2.000
x12.389 y-5.500 z-2.000
x12.401 y-5.470 z-2.000
x12.662 y-4.787 z-2.000
x12.683 y-4.778 z-2.000
x12.774 y-4.751 z-2.000
x12.896 y-4.730 z-2.000
x13.075 y-4.720 z-2.000
x13.273 y-4.728 z-2.000
x13.517 y-4.761 z-2.000
x13.792 y-4.823 z-2.000
x14.090 y-4.915 z-2.000
x14.410 y-5.042 z-2.000
x14.757 y-5.210 z-2.000
x15.159 y-5.439 z-2.000
x15.208 y-5.466 z-2.000
x15.259 y-5.491 z-2.000
x15.310 y-5.515 z-2.000
x15.362 y-5.536 z-2.000
x15.415 y-5.556 z-2.000
x15.468 y-5.574 z-2.000
x15.522 y-5.590 z-2.000
x15.577 y-5.604 z-2.000
x15.632 y-5.616 z-2.000
x15.687 y-5.626 z-2.000
x15.743 y-5.635 z-2.000
x15.799 y-5.641 z-2.000
x15.855 y-5.645 z-2.000
x15.911 y-5.647 z-2.000
x15.974 y-5.647 z-2.000
x16.459 y-5.638 z-2.000
x16.516 y-5.636 z-2.000
x16.572 y-5.632 z-2.000
x16.613 y-5.628 z-2.000
x17.105 y-5.571 z-2.000
x17.161 y-5.563 z-2.000
x17.232 y-5.551 z-2.000
x17.839 y-5.430 z-2.000
x17.894 y-5.418 z-2.000
x17.969 y-5.398 z-2.000
x18.679 y-5.193 z-2.000
x18.733 y-5.177 z-2.000
x18.771 y-5.164 z-2.000
x19.162 y-5.025 z-2.000
x19.227 y-5.000 z-2.000
x19.636 y-4.834 z-2.000
x19.695 y-4.809 z-2.000
x20.129 y-4.612 z-2.000
x20.190 y-4.582 z-2.000
x20.640 y-4.354 z-2.000
x20.699 y-4.323 z-2.000
x21.163 y-4.063 z-2.000
x21.221 y-4.029 z-2.000
x21.702 y-3.732 z-2.000
x21.757 y-3.696 z-2.000
x22.247 y-3.365 z-2.000
x22.300 y-3.328 z-2.000
x22.802 y-2.958 z-2.000
x22.856 y-2.916 z-2.000
x23.310 y-2.550 z-2.000
x23.354 y-2.514 z-2.000
x23.395 y-2.476 z-2.000
x23.436 y-2.437 z-2.000
x23.475 y-2.396 z-2.000
x23.513 y-2.355 z-2.000
x23.549 y-2.311 z-2.000
x23.584 y-2.267 z-2.000
x23.617 y-2.221 z-2.000
x23.648 y-2.174 z-2.000
x23.678 y-2.127 z-2.000
x23.706 y-2.078 z-2.000
x23.732 y-2.028 z-2.000
x23.756 y-1.977 z-2.000
x23.779 y-1.925 z-2.000
x23.800 y-1.873 z-2.000
x23.819 y-1.820 z-2.000
x23.836 y-1.766 z-2.000
x23.851 y-1.712 z-2.000
x23.864 y-1.657 z-2.000
x23.875 y-1.602 z-2.000
x23.884 y-1.546 z-2.000
x23.892 y-1.491 z-2.000
x23.897 y-1.434 z-2.000
x23.899 y-1.399 z-2.000
x23.906 y-1.269 z-2.000
x23.907 y-1.258 z-2.000
x23.913 y-1.129 z-2.000
x23.919 y-0.999 z-2.000
x23.919 y-0.986 z-2.000
x23.924 y-0.856 z-2.000
x23.925 y-0.844 z-2.000
x23.929 y-0.714 z-2.000
x23.929 y-0.702 z-2.000
x23.935 y-0.442 z-2.000
x23.935 y-0.429 z-2.000
x23.937 y-0.299 z-2.000
x23.937 y-0.287 z-2.000
x23.938 y-0.157 z-2.000
x23.939 y-0.145 z-2.000
x23.939 y0.117 z-2.000
x23.938 y0.129 z-2.000
x23.937 y0.262 z-2.000
x23.937 y0.274 z-2.000
x23.935 y0.407 z-2.000
x23.935 y0.419 z-2.000
x23.929 y0.685 z-2.000
x23.929 y0.696 z-2.000
x23.925 y0.830 z-2.000
x23.924 y0.843 z-2.000
x23.914 y1.109 z-2.000
x23.913 y1.132 z-2.000
x23.899 y1.398 z-2.000
x23.895 y1.455 z-2.000
x23.889 y1.511 z-2.000
x23.881 y1.566 z-2.000
x23.872 y1.622 z-2.000
x23.860 y1.677 z-2.000
x23.846 y1.732 z-2.000
x23.830 y1.786 z-2.000
x23.812 y1.839 z-2.000
x23.793 y1.892 z-2.000
x23.771 y1.944 z-2.000
x23.748 y1.996 z-2.000
x23.723 y2.046 z-2.000
x23.696 y2.096 z-2.000
x23.668 y2.144 z-2.000
x23.638 y2.192 z-2.000
x23.606 y2.238 z-2.000
x23.572 y2.283 z-2.000
x23.537 y2.327 z-2.000
x23.500 y2.370 z-2.000
x23.462 y2.412 z-2.000
x23.422 y2.452 z-2.000
x23.381 y2.490 z-2.000
x23.339 y2.527 z-2.000
x23.309 y2.552 z-2.000
x22.855 y2.917 z-2.000
x22.804 y2.957 z-2.000
x22.302 y3.328 z-2.000
x22.247 y3.366 z-2.000
x21.757 y3.697 z-2.000
x21.700 y3.734 z-2.000
x21.219 y4.030 z-2.000
x21.163 y4.063 z-2.000
x20.699 y4.323 z-2.000
x20.640 y4.354 z-2.000
x20.190 y4.582 z-2.000
x20.129 y4.612 z-2.000
x19.695 y4.809 z-2.000
x19.636 y4.834 z-2.000
x19.227 y5.000 z-2.000
x19.165 y5.024 z-2.000
x18.774 y5.164 z-2.000
x18.721 y5.182 z-2.000
x18.677 y5.195 z-2.000
x17.967 y5.399 z-2.000
x17.913 y5.413 z-2.000
x17.842 y5.429 z-2.000
x17.235 y5.551 z-2.000
x17.179 y5.561 z-2.000
x17.102 y5.572 z-2.000
x16.610 y5.628 z-2.000
x16.553 y5.634 z-2.000
x16.497 y5.637 z-2.000
x16.459 y5.638 z-2.000
x15.974 y5.647 z-2.000
x15.918 y5.647 z-2.000
x15.862 y5.645 z-2.000
x15.806 y5.641 z-2.000
x15.750 y5.635 z-2.000
x15.694 y5.627 z-2.000
x15.638 y5.618 z-2.000
x15.583 y5.606 z-2.000
x15.529 y5.592 z-2.000
x15.475 y5.576 z-2.000
x15.421 y5.559 z-2.000
x15.368 y5.539 z-2.000
x15.316 y5.518 z-2.000
x15.265 y5.494 z-2.000
x15.214 y5.469 z-2.000
x15.159 y5.439 z-2.000
x14.757 y5.210 z-2.000
x14.410 y5.042 z-2.000
x14.090 y4.915 z-2.000
x13.792 y4.823 z-2.000
x13.517 y4.761 z-2.000
x13.273 y4.728 z-2.000
x13.075 y4.720 z-2.000
x12.896 y4.730 z-2.000
x12.774 y4.751 z-2.000
x12.683 y4.778 z-2.000
x12.662 y4.787 z-2.000
x12.401 y5.470 z-2.000
x12.380 y5.522 z-2.000
x12.367 y5.554 z-2.000
x12.080 y6.194 z-2.000
x12.056 y6.245 z-2.000
x12.042 y6.272 z-2.000
x11.720 y6.896 z-2.000
x11.693 y6.946 z-2.000
x11.677 y6.973 z-2.000
x11.305 y7.604 z-2.000
x11.311 y7.627 z-2.000
x11.345 y7.712 z-2.000
x11.406 y7.823 z-2.000
x11.505 y7.963 z-2.000
x11.641 y8.118 z-2.000
x11.821 y8.291 z-2.000
x12.034 y8.462 z-2.000
x12.291 y8.636 z-2.000
x12.606 y8.817 z-2.000
x12.940 y8.977 z-2.000
x13.371 y9.149 z-2.000
x13.423 y9.171 z-2.000
x13.474 y9.194 z-2.000
x13.524 y9.220 z-2.000
x13.574 y9.247 z-2.000
x13.622 y9.276 z-2.000
x13.669 y9.306 z-2.000
x13.716 y9.339 z-2.000
x13.761 y9.372 z-2.000
x13.804 y9.408 z-2.000
x13.847 y9.445 z-2.000
x13.888 y9.483 z-2.000
x13.928 y9.523 z-2.000
x13.966 y9.565 z-2.000
x14.003 y9.607 z-2.000
x14.044 y9.658 z-2.000
x14.339 y10.043 z-2.000
x14.373 y10.089 z-2.000
x14.404 y10.135 z-2.000
x14.425 y10.168 z-2.000
x14.688 y10.589 z-2.000
x14.717 y10.637 z-2.000
x14.753 y10.702 z-2.000
x15.037 y11.252 z-2.000
x15.062 y11.302 z-2.000
x15.093 y11.373 z-2.000
x15.375 y12.055 z-2.000
x15.396 y12.108 z-2.000
x15.409 y12.145 z-2.000
x15.544 y12.537 z-2.000
x15.566 y12.605 z-2.000
x15.691 y13.029 z-2.000
x15.707 y13.088 z-2.000
x15.824 y13.550 z-2.000
x15.840 y13.619 z-2.000
x15.942 y14.113 z-2.000
x15.954 y14.177 z-2.000
x16.040 y14.702 z-2.000
x16.049 y14.768 z-2.000
x16.117 y15.329 z-2.000
x16.123 y15.394 z-2.000
x16.170 y15.983 z-2.000
x16.174 y16.051 z-2.000
x16.197 y16.675 z-2.000
x16.198 y16.741 z-2.000

( Current depth = -4.000 )

( Loop )
G90 F250
x16.198 y16.741 z-4.000
F800
x16.195 y17.323 z-4.000
x16.194 y17.380 z-4.000
x16.191 y17.436 z-4.000
x16.186 y17.492 z-4.000
x16.178 y17.548 z-4.000
x16.169 y17.603 z-4.000
x16.158 y17.659 z-4.000
x16.145 y17.713 z-4.000
x16.130 y17.768 z-4.000
x16.113 y17.821 z-4.000
x16.094 y17.874 z-4.000
x16.073 y17.927 z-4.000
x16.050 y17.978 z-4.000
x16.026 y18.029 z-4.000
x16.000 y18.079 z-4.000
x15.972 y18.128 z-4.000
x15.942 y18.176 z-4.000
x15.910 y18.223 z-4.000
x15.877 y18.268 z-4.000
x15.843 y18.313 z-4.000
x15.807 y18.356 z-4.000
x15.769 y18.398 z-4.000
x15.730 y18.438 z-4.000
x15.669 y18.496 z-4.000
x15.570 y18.585 z-4.000
x15.552 y18.601 z-4.000
x15.451 y18.689 z-4.000
x15.450 y18.690 z-4.000
x15.350 y18.777 z-4.000
x15.344 y18.782 z-4.000
x15.243 y18.869 z-4.000
x15.230 y18.880 z-4.000
x15.026 y19.052 z-4.000
x15.019 y19.058 z-4.000
x14.917 y19.143 z-4.000
x14.904 y19.153 z-4.000
x14.698 y19.321 z-4.000
x14.685 y19.332 z-4.000
x14.581 y19.415 z-4.000
x14.578 y19.417 z-4.000
x14.476 y19.498 z-4.000
x14.463 y19.509 z-4.000
x14.360 y19.589 z-4.000
x14.358 y19.590 z-4.000
x14.256 y19.669 z-4.000
x14.244 y19.678 z-4.000
x14.146 y19.753 z-4.000
x14.043 y19.832 z-4.000
x14.030 y19.842 z-4.000
x13.926 y19.920 z-4.000
x13.912 y19.930 z-4.000
x13.807 y20.007 z-4.000
x13.799 y20.013 z-4.000
x13.589 y20.165 z-4.000
x13.583 y20.169 z-4.000
x13.477 y20.245 z-4.000
x13.431 y20.277 z-4.000
x13.383 y20.308 z-4.000
x13.335 y20.336 z-4.000
x13.285 y20.363 z-4.000
x13.235 y20.388 z-4.000
x13.183 y20.412 z-4.000
x13.131 y20.433 z-4.000
x13.079 y20.453 z-4.000
x13.025 y20.470 z-4.000
x12.971 y20.486 z-4.000
x12.916 y20.500 z-4.000
x12.861 y20.512 z-4.000
x12.806 y20.522 z-4.000
x12.750 y20.530 z-4.000
x12.694 y20.536 z-4.000
x12.638 y20.540 z-4.000
x12.582 y20.542 z-4.000
x12.525 y20.542 z-4.000
x12.469 y20.540 z-4.000
x12.413 y20.536 z-4.000
x12.357 y20.530 z-4.000
x12.301 y20.523 z-4.000
x12.245 y20.513 z-4.000
x12.206 y20.504 z-4.000
x11.637 y20.377 z-4.000
x11.571 y20.361 z-4.000
x10.968 y20.199 z-4.000
x10.907 y20.181 z-4.000
x10.343 y20.005 z-4.000
x10.279 y19.984 z-4.000
x9.748 y19.793 z-4.000
x9.686 y19.769 z-4.000
x9.193 y19.568 z-4.000
x9.132 y19.542 z-4.000
x8.673 y19.332 z-4.000
x8.612 y19.303 z-4.000
x8.188 y19.087 z-4.000
x8.131 y19.056 z-4.000
x7.745 y18.839 z-4.000
x7.687 y18.805 z-4.000
x7.335 y18.587 z-4.000
x7.288 y18.556 z-4.000
x7.252 y18.532 z-4.000
x6.649 y18.104 z-4.000
x6.604 y18.070 z-4.000
x6.546 y18.024 z-4.000
x6.073 y17.626 z-4.000
x6.030 y17.589 z-4.000
x5.974 y17.535 z-4.000
x5.623 y17.185 z-4.000
x5.584 y17.145 z-4.000
x5.546 y17.103 z-4.000
x5.522 y17.074 z-4.000
x5.212 y16.700 z-4.000
x5.177 y16.656 z-4.000
x5.143 y16.611 z-4.000
x5.111 y16.564 z-4.000
x5.081 y16.517 z-4.000
x5.052 y16.468 z-4.000
x5.025 y16.419 z-4.000
x5.000 y16.368 z-4.000
x4.977 y16.317 z-4.000
x4.955 y16.265 z-4.000
x4.936 y16.212 z-4.000
x4.918 y16.159 z-4.000
x4.902 y16.105 z-4.000
x4.889 y16.050 z-4.000
x4.877 y15.995 z-4.000
x4.865 y15.930 z-4.000
x4.795 y15.476 z-4.000
x4.707 y15.093 z-4.000
x4.609 y14.767 z-4.000
x4.498 y14.486 z-4.000
x4.370 y14.221 z-4.000
x4.247 y14.015 z-4.000
x4.125 y13.849 z-4.000
x4.016 y13.727 z-4.000
x3.914 y13.636 z-4.000
x3.844 y13.587 z-4.000
x3.818 y13.573 z-4.000
x3.123 y13.795 z-4.000
x3.069 y13.812 z-4.000
x3.037 y13.820 z-4.000
x2.357 y13.995 z-4.000
x2.302 y14.008 z-4.000
x2.271 y14.015 z-4.000
x1.583 y14.152 z-4.000
x1.528 y14.162 z-4.000
x1.495 y14.167 z-4.000
x0.772 y14.269 z-4.000
x0.762 y14.282 z-4.000
x0.712 y14.371 z-4.000
x0.662 y14.491 z-4.000
x0.616 y14.650 z-4.000
x0.579 y14.851 z-4.000
x0.556 y15.104 z-4.000
x0.554 y15.367 z-4.000
x0.580 y15.691 z-4.000
x0.632 y16.034 z-4.000
x0.718 y16.405 z-4.000
x0.852 y16.847 z-4.000
x0.867 y16.901 z-4.000
x0.881 y16.956 z-4.000
x0.892 y17.011 z-4.000
x0.902 y17.066 z-4.000
x0.910 y17.122 z-4.000
x0.915 y17.178 z-4.000
x0.919 y17.234 z-4.000
x0.920 y17.291 z-4.000
x0.920 y17.347 z-4.000
x0.918 y17.403 z-4.000
x0.913 y17.460 z-4.000
x0.907 y17.516 z-4.000
x0.899 y17.571 z-4.000
x0.888 y17.627 z-4.000
x0.874 y17.691 z-4.000
x0.757 y18.162 z-4.000
x0.742 y18.216 z-4.000
x0.726 y18.270 z-4.000
x0.713 y18.307 z-4.000
x0.548 y18.775 z-4.000
x0.528 y18.828 z-4.000
x0.500 y18.896 z-4.000
x0.247 y19.461 z-4.000
x0.223 y19.512 z-4.000
x0.187 y19.581 z-4.000
x-0.171 y20.227 z-4.000
x-0.200 y20.276 z-4.000
x-0.219 y20.308 z-4.000
x-0.441 y20.658 z-4.000
x-0.481 y20.717 z-4.000
x-0.734 y21.079 z-4.000
x-0.773 y21.133 z-4.000
x-1.062 y21.512 z-4.000
x-1.102 y21.563 z-4.000
x-1.424 y21.951 z-4.000
x-1.468 y22.001 z-4.000
x-1.825 y22.396 z-4.000
x-1.871 y22.445 z-4.000
x-2.267 y22.848 z-4.000
x-2.315 y22.894 z-4.000
x-2.747 y23.298 z-4.000
x-2.796 y23.342 z-4.000
x-3.269 y23.749 z-4.000
x-3.320 y23.792 z-4.000
x-3.777 y24.153 z-4.000
x-3.822 y24.187 z-4.000
x-3.868 y24.219 z-4.000
x-3.915 y24.250 z-4.000
x-3.963 y24.279 z-4.000
x-4.012 y24.307 z-4.000
x-4.062 y24.333 z-4.000
x-4.114 y24.356 z-4.000
x-4.165 y24.379 z-4.000
x-4.218 y24.399 z-4.000
x-4.271 y24.417 z-4.000
x-4.325 y24.433 z-4.000
x-4.380 y24.448 z-4.000
x-4.435 y24.461 z-4.000
x-4.490 y24.471 z-4.000
x-4.546 y24.480 z-4.000
x-4.601 y24.486 z-4.000
x-4.658 y24.491 z-4.000
x-4.714 y24.494 z-4.000
x-4.770 y24.494 z-4.000
x-4.827 y24.493 z-4.000
x-4.883 y24.490 z-4.000
x-4.939 y24.484 z-4.000
x-4.995 y24.477 z-4.000
x-5.037 y24.470 z-4.000
x-5.275 y24.428 z-4.000
x-5.277 y24.428 z-4.000
x-5.395 y24.407 z-4.000
x-5.421 y24.402 z-4.000
x-5.524 y24.382 z-4.000
x-5.643 y24.360 z-4.000
x-5.670 y24.355 z-4.000
x-5.906 y24.307 z-4.000
x-5.922 y24.303 z-4.000
x-6.036 y24.279 z-4.000
x-6.154 y24.254 z-4.000
x-6.167 y24.251 z-4.000
x-6.285 y24.225 z-4.000
x-6.289 y24.224 z-4.000
x-6.428 y24.193 z-4.000
x-6.449 y24.189 z-4.000
x-6.727 y24.123 z-4.000
x-6.740 y24.119 z-4.000
x-6.878 y24.085 z-4.000
x-6.886 y24.083 z-4.000
x-7.025 y24.048 z-4.000
x-7.038 y24.045 z-4.000
x-7.337 y23.967 z-4.000
x-7.471 y23.930 z-4.000
x-7.609 y23.892 z-4.000
x-7.623 y23.888 z-4.000
x-7.760 y23.849 z-4.000
x-7.814 y23.832 z-4.000
x-7.867 y23.814 z-4.000
x-7.919 y23.794 z-4.000
x-7.971 y23.772 z-4.000
x-8.022 y23.748 z-4.000
x-8.073 y23.722 z-4.000
x-8.122 y23.695 z-4.000
x-8.170 y23.666 z-4.000
x-8.217 y23.635 z-4.000
x-8.263 y23.603 z-4.000
x-8.308 y23.569 z-4.000
x-8.352 y23.533 z-4.000
x-8.394 y23.496 z-4.000
x-8.435 y23.457 z-4.000
x-8.475 y23.417 z-4.000
x-8.513 y23.375 z-4.000
x-8.549 y23.333 z-4.000
x-8.584 y23.288 z-4.000
x-8.618 y23.243 z-4.000
x-8.650 y23.197 z-4.000
x-8.680 y23.149 z-4.000
x-8.708 y23.101 z-4.000
x-8.735 y23.051 z-4.000
x-8.752 y23.017 z-4.000
x-9.007 y22.493 z-4.000
x-9.035 y22.434 z-4.000
x-9.285 y21.862 z-4.000
x-9.310 y21.801 z-4.000
x-9.524 y21.250 z-4.000
x-9.547 y21.186 z-4.000
x-9.729 y20.651 z-4.000
x-9.749 y20.587 z-4.000
x-9.899 y20.076 z-4.000
x-9.916 y20.013 z-4.000
x-10.038 y19.524 z-4.000
x-10.053 y19.460 z-4.000
x-10.149 y18.993 z-4.000
x-10.161 y18.925 z-4.000
x-10.231 y18.489 z-4.000
x-10.240 y18.424 z-4.000
x-10.289 y18.012 z-4.000
x-10.295 y17.956 z-4.000
x-10.298 y17.915 z-4.000
x-10.340 y17.178 z-4.000
x-10.342 y17.122 z-4.000
x-10.342 y17.044 z-4.000
x-10.325 y16.425 z-4.000
x-10.322 y16.369 z-4.000
x-10.316 y16.296 z-4.000
x-10.262 y15.803 z-4.000
x-10.255 y15.747 z-4.000
x-10.246 y15.692 z-4.000
x-10.238 y15.652 z-4.000
x-10.139 y15.177 z-4.000
x-10.127 y15.122 z-4.000
x-10.112 y15.068 z-4.000
x-10.096 y15.014 z-4.000
x-10.078 y14.960 z-4.000
x-10.058 y14.908 z-4.000
x-10.036 y14.856 z-4.000
x-10.012 y14.805 z-4.000
x-9.986 y14.755 z-4.000
x-9.959 y14.705 z-4.000
x-9.930 y14.657 z-4.000
x-9.899 y14.610 z-4.000
x-9.866 y14.564 z-4.000
x-9.832 y14.519 z-4.000
x-9.797 y14.475 z-4.000
x-9.753 y14.426 z-4.000
x-9.438 y14.084 z-4.000
x-9.202 y13.789 z-4.000
x-9.006 y13.503 z-4.000
x-8.845 y13.225 z-4.000
x-8.726 y12.975 z-4.000
x-8.641 y12.748 z-4.000
x-8.588 y12.553 z-4.000
x-8.560 y12.387 z-4.000
x-8.552 y12.248 z-4.000
x-8.557 y12.165 z-4.000
x-8.562 y12.139 z-4.000
x-9.171 y11.732 z-4.000
x-9.217 y11.700 z-4.000
x-9.244 y11.681 z-4.000
x-9.805 y11.258 z-4.000
x-9.849 y11.223 z-4.000
x-9.872 y11.204 z-4.000
x-10.408 y10.752 z-4.000
x-10.451 y10.715 z-4.000
x-10.475 y10.693 z-4.000
x-11.008 y10.190 z-4.000
x-11.028 y10.191 z-4.000
x-11.128 y10.207 z-4.000
x-11.249 y10.242 z-4.000
x-11.400 y10.304 z-4.000
x-11.585 y10.403 z-4.000
x-11.792 y10.539 z-4.000
x-12.004 y10.707 z-4.000
x-12.239 y10.926 z-4.000
x-12.470 y11.177 z-4.000
x-12.713 y11.482 z-4.000
x-12.973 y11.860 z-4.000
x-13.006 y11.906 z-4.000
x-13.040 y11.950 z-4.000
x-13.076 y11.994 z-4.000
x-13.114 y12.036 z-4.000
x-13.153 y12.077 z-4.000
x-13.193 y12.116 z-4.000
x-13.235 y12.154 z-4.000
x-13.278 y12.190 z-4.000
x-13.322 y12.225 z-4.000
x-13.368 y12.258 z-4.000
x-13.414 y12.290 z-4.000
x-13.462 y12.320 z-4.000
x-13.511 y12.348 z-4.000
x-13.561 y12.374 z-4.000
x-13.619 y12.402 z-4.000
x-14.060 y12.604 z-4.000
x-14.112 y12.627 z-4.000
x-14.164 y12.648 z-4.000
x-14.200 y12.661 z-4.000
x-14.669 y12.824 z-4.000
x-14.722 y12.841 z-4.000
x-14.795 y12.862 z-4.000
x-15.394 y13.016 z-4.000
x-15.449 y13.029 z-4.000
x-15.523 y13.043 z-4.000
x-16.252 y13.167 z-4.000
x-16.308 y13.175 z-4.000
x-16.353 y13.181 z-4.000
x-16.765 y13.224 z-4.000
x-16.826 y13.229 z-4.000
x-17.267 y13.258 z-4.000
x-17.338 y13.261 z-4.000
x-17.814 y13.271 z-4.000
x-17.878 y13.271 z-4.000
x-18.383 y13.261 z-4.000
x-18.450 y13.258 z-4.000
x-18.981 y13.225 z-4.000
x-19.046 y13.220 z-4.000
x-19.607 y13.162 z-4.000
x-19.675 y13.154 z-4.000
x-20.260 y13.068 z-4.000
x-20.324 y13.057 z-4.000
x-20.938 y12.941 z-4.000
x-21.003 y12.927 z-4.000
x-21.570 y12.795 z-4.000
x-21.625 y12.781 z-4.000
x-21.679 y12.766 z-4.000
x-21.732 y12.748 z-4.000
x-21.785 y12.729 z-4.000
x-21.837 y12.707 z-4.000
x-21.889 y12.684 z-4.000
x-21.939 y12.659 z-4.000
x-21.989 y12.632 z-4.000
x-22.037 y12.604 z-4.000
x-22.085 y12.574 z-4.000
x-22.131 y12.542 z-4.000
x-22.177 y12.508 z-4.000
x-22.221 y12.473 z-4.000
x-22.264 y12.437 z-4.000
x-22.305 y12.398 z-4.000
x-22.345 y12.359 z-4.000
x-22.384 y12.318 z-4.000
x-22.421 y12.276 z-4.000
x-22.457 y12.232 z-4.000
x-22.491 y12.187 z-4.000
x-22.523 y12.141 z-4.000
x-22.554 y12.094 z-4.000
x-22.583 y12.046 z-4.000
x-22.603 y12.010 z-4.000
x-22.721 y11.794 z-4.000
x-22.729 y11.779 z-4.000
x-22.845 y11.561 z-4.000
x-22.851 y11.551 z-4.000
x-22.908 y11.442 z-4.000
x-22.913 y11.431 z-4.000
x-22.969 y11.322 z-4.000
x-22.972 y11.317 z-4.000
x-23.028 y11.207 z-4.000
x-23.148 y10.967 z-4.000
x-23.202 y10.857 z-4.000
x-23.208 y10.844 z-4.000
x-23.269 y10.717 z-4.000
x-23.271 y10.713 z-4.000
x-23.331 y10.587 z-4.000
x-23.338 y10.573 z-4.000
x-23.456 y10.319 z-4.000
x-23.462 y10.305 z-4.000
x-23.520 y10.177 z-4.000
x-23.524 y10.168 z-4.000
x-23.581 y10.040 z-4.000
x-23.585 y10.030 z-4.000
x-23.641 y9.902 z-4.000
x-23.643 y9.898 z-4.000
x-23.699 y9.769 z-4.000
x-23.706 y9.754 z-4.000
x-23.760 y9.626 z-4.000
x-23.763 y9.618 z-4.000
x-23.817 y9.488 z-4.000
x-23.838 y9.436 z-4.000
x-23.857 y9.382 z-4.000
x-23.873 y9.329 z-4.000
x-23.888 y9.274 z-4.000
x-23.902 y9.220 z-4.000
x-23.913 y9.164 z-4.000
x-23.922 y9.109 z-4.000
x-23.929 y9.053 z-4.000
x-23.934 y8.997 z-4.000
x-23.937 y8.941 z-4.000
x-23.938 y8.884 z-4.000
x-23.938 y8.828 z-4.000
x-23.935 y8.772 z-4.000
x-23.930 y8.715 z-4.000
x-23.923 y8.659 z-4.000
x-23.914 y8.604 z-4.000
x-23.904 y8.549 z-4.000
x-23.891 y8.494 z-4.000
x-23.876 y8.439 z-4.000
x-23.860 y8.385 z-4.000
x-23.841 y8.332 z-4.000
x-23.821 y8.280 z-4.000
x-23.799 y8.228 z-4.000
x-23.785 y8.198 z-4.000
x-23.535 y7.672 z-4.000
x-23.504 y7.611 z-4.000
x-23.212 y7.059 z-4.000
x-23.182 y7.003 z-4.000
x-22.885 y6.492 z-4.000
x-22.848 y6.432 z-4.000
x-22.543 y5.957 z-4.000
x-22.508 y5.905 z-4.000
x-22.203 y5.469 z-4.000
x-22.161 y5.412 z-4.000
x-21.854 y5.012 z-4.000
x-21.815 y4.963 z-4.000
x-21.510 y4.597 z-4.000
x-21.467 y4.547 z-4.000
x-21.170 y4.219 z-4.000
x-21.121 y4.168 z-4.000
x-20.829 y3.873 z-4.000
x-20.789 y3.834 z-4.000
x-20.759 y3.807 z-4.000
x-20.209 y3.315 z-4.000
x-20.167 y3.278 z-4.000
x-20.106 y3.230 z-4.000
x-19.611 y2.857 z-4.000
x-19.566 y2.824 z-4.000
x-19.502 y2.782 z-4.000
x-19.083 y2.518 z-4.000
x-19.035 y2.489 z-4.000
x-18.986 y2.461 z-4.000
x-18.953 y2.444 z-4.000
x-18.520 y2.225 z-4.000
x-18.470 y2.201 z-4.000
x-18.418 y2.178 z-4.000
x-18.366 y2.157 z-4.000
x-18.313 y2.138 z-4.000
x-18.259 y2.121 z-4.000
x-18.205 y2.106 z-4.000
x-18.150 y2.093 z-4.000
x-18.095 y2.081 z-4.000
x-18.039 y2.072 z-4.000
x-17.983 y2.065 z-4.000
x-17.927 y2.059 z-4.000
x-17.871 y2.056 z-4.000
x-17.815 y2.055 z-4.000
x-17.758 y2.055 z-4.000
x-17.693 y2.058 z-4.000
x-17.219 y2.091 z-4.000
x-16.862 y2.092 z-4.000
x-16.497 y2.066 z-4.000
x-16.191 y2.020 z-4.000
x-15.922 y1.958 z-4.000
x-15.684 y1.880 z-4.000
x-15.502 y1.802 z-4.000
x-15.357 y1.722 z-4.000
x-15.246 y1.643 z-4.000
x-15.173 y1.576 z-4.000
x-15.162 y1.563 z-4.000
x-15.223 y0.834 z-4.000
x-15.227 y0.778 z-4.000
x-15.228 y0.744 z-4.000
x-15.247 y0.043 z-4.000
x-15.247 y-0.043 z-4.000
x-15.228 y-0.744 z-4.000
x-15.225 y-0.800 z-4.000
x-15.223 y-0.834 z-4.000
x-15.162 y-1.563 z-4.000
x-15.174 y-1.577 z-4.000
x-15.249 y-1.645 z-4.000
x-15.357 y-1.722 z-4.000
x-15.502 y-1.802 z-4.000
x-15.684 y-1.880 z-4.000
x-15.922 y-1.958 z-4.000
x-16.191 y-2.020 z-4.000
x-16.497 y-2.066 z-4.000
x-16.862 y-2.092 z-4.000
x-17.219 y-2.091 z-4.000
x-17.694 y-2.058 z-4.000
x-17.750 y-2.055 z-4.000
x-17.806 y-2.055 z-4.000
x-17.862 y-2.056 z-4.000
x-17.919 y-2.059 z-4.000
x-17.975 y-2.064 z-4.000
x-18.031 y-2.071 z-4.000
x-18.086 y-2.080 z-4.000
x-18.142 y-2.091 z-4.000
x-18.196 y-2.104 z-4.000
x-18.251 y-2.119 z-4.000
x-18.305 y-2.135 z-4.000
x-18.358 y-2.154 z-4.000
x-18.410 y-2.175 z-4.000
x-18.462 y-2.197 z-4.000
x-18.520 y-2.225 z-4.000
x-18.953 y-2.444 z-4.000
x-19.003 y-2.471 z-4.000
x-19.052 y-2.499 z-4.000
x-19.083 y-2.518 z-4.000
x-19.502 y-2.782 z-4.000
x-19.549 y-2.813 z-4.000
x-19.611 y-2.857 z-4.000
x-20.106 y-3.230 z-4.000
x-20.151 y-3.265 z-4.000
x-20.211 y-3.316 z-4.000
x-20.761 y-3.809 z-4.000
x-20.802 y-3.847 z-4.000
x-20.831 y-3.876 z-4.000
x-21.122 y-4.171 z-4.000
x-21.165 y-4.217 z-4.000
x-21.463 y-4.544 z-4.000
x-21.510 y-4.597 z-4.000
x-21.815 y-4.963 z-4.000
x-21.856 y-5.014 z-4.000
x-22.162 y-5.414 z-4.000
x-22.200 y-5.467 z-4.000
x-22.506 y-5.903 z-4.000
x-22.544 y-5.959 z-4.000
x-22.848 y-6.434 z-4.000
x-22.882 y-6.490 z-4.000
x-23.180 y-7.001 z-4.000
x-23.212 y-7.059 z-4.000
x-23.504 y-7.611 z-4.000
x-23.535 y-7.672 z-4.000
x-23.785 y-8.198 z-4.000
x-23.808 y-8.249 z-4.000
x-23.830 y-8.301 z-4.000
x-23.849 y-8.354 z-4.000
x-23.867 y-8.407 z-4.000
x-23.883 y-8.461 z-4.000
x-23.896 y-8.516 z-4.000
x-23.908 y-8.571 z-4.000
x-23.918 y-8.627 z-4.000
x-23.926 y-8.682 z-4.000
x-23.932 y-8.738 z-4.000
x-23.936 y-8.795 z-4.000
x-23.938 y-8.851 z-4.000
x-23.938 y-8.907 z-4.000
x-23.936 y-8.963 z-4.000
x-23.932 y-9.020 z-4.000
x-23.926 y-9.076 z-4.000
x-23.918 y-9.131 z-4.000
x-23.908 y-9.187 z-4.000
x-23.896 y-9.242 z-4.000
x-23.883 y-9.297 z-4.000
x-23.867 y-9.351 z-4.000
x-23.849 y-9.404 z-4.000
x-23.830 y-9.457 z-4.000
x-23.819 y-9.484 z-4.000
x-23.772 y-9.598 z-4.000
x-23.762 y-9.620 z-4.000
x-23.713 y-9.734 z-4.000
x-23.670 y-9.837 z-4.000
x-23.659 y-9.863 z-4.000
x-23.509 y-10.202 z-4.000
x-23.502 y-10.218 z-4.000
x-23.451 y-10.330 z-4.000
x-23.448 y-10.336 z-4.000
x-23.396 y-10.449 z-4.000
x-23.392 y-10.458 z-4.000
x-23.340 y-10.569 z-4.000
x-23.337 y-10.575 z-4.000
x-23.284 y-10.687 z-4.000
x-23.278 y-10.700 z-4.000
x-23.217 y-10.826 z-4.000
x-23.215 y-10.830 z-4.000
x-23.154 y-10.955 z-4.000
x-23.149 y-10.964 z-4.000
x-23.087 y-11.089 z-4.000
x-23.083 y-11.098 z-4.000
x-23.020 y-11.223 z-4.000
x-23.017 y-11.228 z-4.000
x-22.954 y-11.352 z-4.000
x-22.950 y-11.361 z-4.000
x-22.886 y-11.485 z-4.000
x-22.881 y-11.494 z-4.000
x-22.816 y-11.618 z-4.000
x-22.809 y-11.632 z-4.000
x-22.743 y-11.755 z-4.000
x-22.738 y-11.763 z-4.000
x-22.671 y-11.886 z-4.000
x-22.668 y-11.891 z-4.000
x-22.601 y-12.013 z-4.000
x-22.573 y-12.062 z-4.000
x-22.544 y-12.110 z-4.000
x-22.512 y-12.157 z-4.000
x-22.479 y-12.202 z-4.000
x-22.445 y-12.247 z-4.000
x-22.409 y-12.290 z-4.000
x-22.371 y-12.332 z-4.000
x-22.332 y-12.372 z-4.000
x-22.291 y-12.411 z-4.000
x-22.249 y-12.449 z-4.000
x-22.206 y-12.485 z-4.000
x-22.161 y-12.520 z-4.000
x-22.116 y-12.553 z-4.000
x-22.069 y-12.584 z-4.000
x-22.021 y-12.614 z-4.000
x-21.972 y-12.642 z-4.000
x-21.922 y-12.668 z-4.000
x-21.871 y-12.692 z-4.000
x-21.820 y-12.715 z-4.000
x-21.767 y-12.735 z-4.000
x-21.714 y-12.754 z-4.000
x-21.660 y-12.771 z-4.000
x-21.606 y-12.786 z-4.000
x-21.570 y-12.795 z-4.000
x-21.003 y-12.927 z-4.000
x-20.938 y-12.941 z-4.000
x-20.324 y-13.057 z-4.000
x-20.260 y-13.068 z-4.000
x-19.675 y-13.154 z-4.000
x-19.607 y-13.162 z-4.000
x-19.046 y-13.220 z-4.000
x-18.981 y-13.225 z-4.000
x-18.450 y-13.258 z-4.000
x-18.383 y-13.261 z-4.000
x-17.878 y-13.271 z-4.000
x-17.814 y-13.271 z-4.000
x-17.338 y-13.261 z-4.000
x-17.267 y-13.258 z-4.000
x-16.826 y-13.229 z-4.000
x-16.761 y-13.224 z-4.000
x-16.349 y-13.180 z-4.000
x-16.294 y-13.173 z-4.000
x-16.254 y-13.166 z-4.000
x-15.525 y-13.043 z-4.000
x-15.469 y-13.033 z-4.000
x-15.394 y-13.016 z-4.000
x-14.795 y-12.862 z-4.000
x-14.740 y-12.847 z-4.000
x-14.669 y-12.824 z-4.000
x-14.200 y-12.661 z-4.000
x-14.147 y-12.641 z-4.000
x-14.095 y-12.620 z-4.000
x-14.060 y-12.604 z-4.000
x-13.619 y-12.402 z-4.000
x-13.568 y-12.378 z-4.000
x-13.518 y-12.352 z-4.000
x-13.469 y-12.324 z-4.000
x-13.421 y-12.294 z-4.000
x-13.374 y-12.263 z-4.000
x-13.329 y-12.230 z-4.000
x-13.284 y-12.195 z-4.000
x-13.241 y-12.159 z-4.000
x-13.199 y-12.122 z-4.000
x-13.159 y-12.083 z-4.000
x-13.119 y-12.042 z-4.000
x-13.082 y-12.000 z-4.000
x-13.045 y-11.957 z-4.000
x-13.011 y-11.913 z-4.000
x-12.972 y-11.859 z-4.000
x-12.709 y-11.477 z-4.000
x-12.472 y-11.180 z-4.000
x-12.242 y-10.929 z-4.000
x-12.004 y-10.707 z-4.000
x-11.792 y-10.539 z-4.000
x-11.585 y-10.403 z-4.000
x-11.400 y-10.304 z-4.000
x-11.250 y-10.242 z-4.000
x-11.117 y-10.203 z-4.000
x-11.039 y-10.191 z-4.000
x-11.006 y-10.190 z-4.000
x-10.475 y-10.692 z-4.000
x-10.434 y-10.730 z-4.000
x-10.408 y-10.752 z-4.000
x-9.872 y-11.204 z-4.000
x-9.829 y-11.239 z-4.000
x-9.805 y-11.258 z-4.000
x-9.244 y-11.681 z-4.000
x-9.198 y-11.714 z-4.000
x-9.171 y-11.732 z-4.000
x-8.562 y-12.139 z-4.000
x-8.557 y-12.165 z-4.000
x-8.552 y-12.249 z-4.000
x-8.560 y-12.386 z-4.000
x-8.588 y-12.553 z-4.000
x-8.643 y-12.754 z-4.000
x-8.723 y-12.968 z-4.000
x-8.850 y-13.234 z-4.000
x-9.008 y-13.506 z-4.000
x-9.197 y-13.781 z-4.000
x-9.448 y-14.094 z-4.000
x-9.753 y-14.426 z-4.000
x-9.790 y-14.468 z-4.000
x-9.826 y-14.511 z-4.000
x-9.860 y-14.556 z-4.000
x-9.893 y-14.602 z-4.000
x-9.924 y-14.649 z-4.000
x-9.954 y-14.697 z-4.000
x-9.981 y-14.746 z-4.000
x-10.007 y-14.796 z-4.000
x-10.031 y-14.847 z-4.000
x-10.054 y-14.898 z-4.000
x-10.074 y-14.951 z-4.000
x-10.093 y-15.004 z-4.000
x-10.109 y-15.058 z-4.000
x-10.124 y-15.112 z-4.000
x-10.139 y-15.177 z-4.000
x-10.238 y-15.652 z-4.000
x-10.249 y-15.707 z-4.000
x-10.257 y-15.763 z-4.000
x-10.262 y-15.803 z-4.000
x-10.316 y-16.296 z-4.000
x-10.321 y-16.352 z-4.000
x-10.325 y-16.425 z-4.000
x-10.342 y-17.044 z-4.000
x-10.342 y-17.101 z-4.000
x-10.340 y-17.178 z-4.000
x-10.298 y-17.915 z-4.000
x-10.294 y-17.972 z-4.000
x-10.289 y-18.012 z-4.000
x-10.240 y-18.424 z-4.000
x-10.231 y-18.489 z-4.000
x-10.161 y-18.925 z-4.000
x-10.149 y-18.993 z-4.000
x-10.053 y-19.460 z-4.000
x-10.038 y-19.524 z-4.000
x-9.916 y-20.013 z-4.000
x-9.899 y-20.076 z-4.000
x-9.749 y-20.587 z-4.000
x-9.729 y-20.652 z-4.000
x-9.547 y-21.186 z-4.000
x-9.524 y-21.248 z-4.000
x-9.310 y-21.800 z-4.000
x-9.285 y-21.862 z-4.000
x-9.035 y-22.434 z-4.000
x-9.007 y-22.493 z-4.000
x-8.752 y-23.017 z-4.000
x-8.727 y-23.067 z-4.000
x-8.700 y-23.116 z-4.000
x-8.671 y-23.164 z-4.000
x-8.640 y-23.212 z-4.000
x-8.607 y-23.258 z-4.000
x-8.573 y-23.303 z-4.000
x-8.538 y-23.346 z-4.000
x-8.501 y-23.389 z-4.000
x-8.462 y-23.430 z-4.000
x-8.422 y-23.469 z-4.000
x-8.381 y-23.508 z-4.000
x-8.338 y-23.544 z-4.000
x-8.294 y-23.580 z-4.000
x-8.249 y-23.613 z-4.000
x-8.202 y-23.645 z-4.000
x-8.155 y-23.675 z-4.000
x-8.106 y-23.704 z-4.000
x-8.057 y-23.731 z-4.000
x-8.006 y-23.756 z-4.000
x-7.955 y-23.779 z-4.000
x-7.903 y-23.801 z-4.000
x-7.850 y-23.820 z-4.000
x-7.796 y-23.838 z-4.000
x-7.755 y-23.850 z-4.000
x-7.471 y-23.930 z-4.000
x-7.451 y-23.936 z-4.000
x-7.167 y-24.012 z-4.000
x-7.155 y-24.015 z-4.000
x-7.012 y-24.052 z-4.000
x-7.002 y-24.054 z-4.000
x-6.859 y-24.090 z-4.000
x-6.848 y-24.093 z-4.000
x-6.705 y-24.128 z-4.000
x-6.693 y-24.131 z-4.000
x-6.549 y-24.165 z-4.000
x-6.541 y-24.167 z-4.000
x-6.385 y-24.203 z-4.000
x-6.241 y-24.235 z-4.000
x-6.240 y-24.235 z-4.000
x-6.127 y-24.260 z-4.000
x-6.114 y-24.263 z-4.000
x-6.001 y-24.287 z-4.000
x-5.998 y-24.287 z-4.000
x-5.884 y-24.311 z-4.000
x-5.874 y-24.314 z-4.000
x-5.761 y-24.337 z-4.000
x-5.745 y-24.340 z-4.000
x-5.631 y-24.362 z-4.000
x-5.631 y-24.361 z-4.000
x-5.520 y-24.383 z-4.000
x-5.505 y-24.386 z-4.000
x-5.277 y-24.428 z-4.000
x-5.263 y-24.431 z-4.000
x-5.035 y-24.471 z-4.000
x-4.980 y-24.479 z-4.000
x-4.924 y-24.486 z-4.000
x-4.868 y-24.491 z-4.000
x-4.811 y-24.494 z-4.000
x-4.755 y-24.494 z-4.000
x-4.699 y-24.493 z-4.000
x-4.642 y-24.490 z-4.000
x-4.586 y-24.485 z-4.000
x-4.530 y-24.478 z-4.000
x-4.475 y-24.468 z-4.000
x-4.420 y-24.457 z-4.000
x-4.365 y-24.444 z-4.000
x-4.310 y-24.429 z-4.000
x-4.257 y-24.412 z-4.000
x-4.204 y-24.393 z-4.000
x-4.151 y-24.373 z-4.000
x-4.100 y-24.350 z-4.000
x-4.049 y-24.326 z-4.000
x-3.999 y-24.300 z-4.000
x-3.950 y-24.272 z-4.000
x-3.902 y-24.242 z-4.000
x-3.855 y-24.211 z-4.000
x-3.810 y-24.178 z-4.000
x-3.777 y-24.153 z-4.000
x-3.320 y-23.792 z-4.000
x-3.269 y-23.749 z-4.000
x-2.796 y-23.342 z-4.000
x-2.747 y-23.298 z-4.000
x-2.315 y-22.894 z-4.000
x-2.267 y-22.848 z-4.000
x-1.871 y-22.445 z-4.000
x-1.825 y-22.396 z-4.000
x-1.468 y-22.001 z-4.000
x-1.424 y-21.951 z-4.000
x-1.102 y-21.563 z-4.000
x-1.062 y-21.512 z-4.000
x-0.773 y-21.133 z-4.000
x-0.734 y-21.079 z-4.000
x-0.481 y-20.717 z-4.000
x-0.441 y-20.658 z-4.000
x-0.219 y-20.308 z-4.000
x-0.190 y-20.260 z-4.000
x-0.171 y-20.227 z-4.000
x0.187 y-19.581 z-4.000
x0.213 y-19.532 z-4.000
x0.247 y-19.461 z-4.000
x0.500 y-18.896 z-4.000
x0.522 y-18.844 z-4.000
x0.548 y-18.775 z-4.000
x0.713 y-18.307 z-4.000
x0.731 y-18.253 z-4.000
x0.747 y-18.199 z-4.000
x0.757 y-18.162 z-4.000
x0.874 y-17.691 z-4.000
x0.886 y-17.636 z-4.000
x0.897 y-17.580 z-4.000
x0.906 y-17.525 z-4.000
x0.912 y-17.469 z-4.000
x0.917 y-17.413 z-4.000
x0.920 y-17.356 z-4.000
x0.920 y-17.300 z-4.000
x0.919 y-17.244 z-4.000
x0.916 y-17.188 z-4.000
x0.911 y-17.131 z-4.000
x0.903 y-17.076 z-4.000
x0.894 y-17.020 z-4.000
x0.883 y-16.965 z-4.000
x0.870 y-16.910 z-4.000
x0.852 y-16.847 z-4.000
x0.719 y-16.410 z-4.000
x0.632 y-16.034 z-4.000
x0.580 y-15.691 z-4.000
x0.554 y-15.367 z-4.000
x0.556 y-15.104 z-4.000
x0.579 y-14.851 z-4.000
x0.615 y-14.656 z-4.000
x0.664 y-14.487 z-4.000
x0.711 y-14.373 z-4.000
x0.760 y-14.285 z-4.000
x0.772 y-14.269 z-4.000
x1.495 y-14.167 z-4.000
x1.551 y-14.158 z-4.000
x1.583 y-14.152 z-4.000
x2.271 y-14.015 z-4.000
x2.326 y-14.003 z-4.000
x2.357 y-13.995 z-4.000
x3.037 y-13.820 z-4.000
x3.091 y-13.805 z-4.000
x3.123 y-13.795 z-4.000
x3.818 y-13.573 z-4.000
x3.844 y-13.587 z-4.000
x3.914 y-13.636 z-4.000
x4.016 y-13.727 z-4.000
x4.125 y-13.849 z-4.000
x4.248 y-14.016 z-4.000
x4.370 y-14.221 z-4.000
x4.498 y-14.486 z-4.000
x4.609 y-14.768 z-4.000
x4.707 y-15.093 z-4.000
x4.795 y-15.476 z-4.000
x4.865 y-15.930 z-4.000
x4.875 y-15.986 z-4.000
x4.886 y-16.041 z-4.000
x4.900 y-16.095 z-4.000
x4.915 y-16.150 z-4.000
x4.933 y-16.203 z-4.000
x4.952 y-16.256 z-4.000
x4.973 y-16.308 z-4.000
x4.996 y-16.360 z-4.000
x5.021 y-16.410 z-4.000
x5.047 y-16.460 z-4.000
x5.076 y-16.509 z-4.000
x5.106 y-16.556 z-4.000
x5.137 y-16.603 z-4.000
x5.171 y-16.649 z-4.000
x5.212 y-16.700 z-4.000
x5.522 y-17.074 z-4.000
x5.558 y-17.117 z-4.000
x5.597 y-17.158 z-4.000
x5.623 y-17.185 z-4.000
x5.974 y-17.535 z-4.000
x6.015 y-17.574 z-4.000
x6.073 y-17.626 z-4.000
x6.546 y-18.024 z-4.000
x6.590 y-18.059 z-4.000
x6.649 y-18.104 z-4.000
x7.252 y-18.532 z-4.000
x7.299 y-18.563 z-4.000
x7.337 y-18.588 z-4.000
x7.690 y-18.806 z-4.000
x7.745 y-18.838 z-4.000
x8.130 y-19.055 z-4.000
x8.188 y-19.087 z-4.000
x8.612 y-19.303 z-4.000
x8.673 y-19.332 z-4.000
x9.132 y-19.542 z-4.000
x9.193 y-19.568 z-4.000
x9.686 y-19.769 z-4.000
x9.748 y-19.793 z-4.000
x10.279 y-19.984 z-4.000
x10.344 y-20.006 z-4.000
x10.909 y-20.182 z-4.000
x10.968 y-20.199 z-4.000
x11.570 y-20.361 z-4.000
x11.637 y-20.377 z-4.000
x12.206 y-20.504 z-4.000
x12.261 y-20.516 z-4.000
x12.317 y-20.525 z-4.000
x12.373 y-20.532 z-4.000
x12.429 y-20.538 z-4.000
x12.485 y-20.541 z-4.000
x12.541 y-20.542 z-4.000
x12.598 y-20.542 z-4.000
x12.654 y-20.539 z-4.000
x12.710 y-20.535 z-4.000
x12.766 y-20.528 z-4.000
x12.822 y-20.519 z-4.000
x12.877 y-20.509 z-4.000
x12.932 y-20.496 z-4.000
x12.987 y-20.482 z-4.000
x13.041 y-20.465 z-4.000
x13.094 y-20.447 z-4.000
x13.146 y-20.427 z-4.000
x13.198 y-20.405 z-4.000
x13.249 y-20.381 z-4.000
x13.300 y-20.355 z-4.000
x13.349 y-20.328 z-4.000
x13.397 y-20.299 z-4.000
x13.444 y-20.268 z-4.000
x13.473 y-20.248 z-4.000
x13.591 y-20.164 z-4.000
x13.601 y-20.157 z-4.000
x13.717 y-20.073 z-4.000
x13.719 y-20.071 z-4.000
x13.836 y-19.986 z-4.000
x13.854 y-19.973 z-4.000
x13.969 y-19.887 z-4.000
x13.971 y-19.886 z-4.000
x14.087 y-19.799 z-4.000
x14.097 y-19.791 z-4.000
x14.211 y-19.704 z-4.000
x14.218 y-19.699 z-4.000
x14.332 y-19.611 z-4.000
x14.339 y-19.605 z-4.000
x14.453 y-19.516 z-4.000
x14.458 y-19.512 z-4.000
x14.571 y-19.423 z-4.000
x14.585 y-19.412 z-4.000
x14.698 y-19.321 z-4.000
x14.790 y-19.247 z-4.000
x14.805 y-19.235 z-4.000
x14.989 y-19.083 z-4.000
x14.996 y-19.077 z-4.000
x15.087 y-19.001 z-4.000
x15.094 y-18.995 z-4.000
x15.185 y-18.918 z-4.000
x15.192 y-18.912 z-4.000
x15.282 y-18.835 z-4.000
x15.290 y-18.829 z-4.000
x15.470 y-18.673 z-4.000
x15.484 y-18.660 z-4.000
x15.662 y-18.502 z-4.000
x15.703 y-18.464 z-4.000
x15.743 y-18.425 z-4.000
x15.782 y-18.384 z-4.000
x15.819 y-18.341 z-4.000
x15.855 y-18.298 z-4.000
x15.889 y-18.253 z-4.000
x15.921 y-18.207 z-4.000
x15.952 y-18.159 z-4.000
x15.981 y-18.111 z-4.000
x16.009 y-18.062 z-4.000
x16.034 y-18.012 z-4.000
x16.058 y-17.961 z-4.000
x16.080 y-17.909 z-4.000
x16.100 y-17.856 z-4.000
x16.119 y-17.803 z-4.000
x16.135 y-17.749 z-4.000
x16.149 y-17.695 z-4.000
x16.162 y-17.640 z-4.000
x16.172 y-17.584 z-4.000
x16.181 y-17.529 z-4.000
x16.188 y-17.473 z-4.000
x16.192 y-17.416 z-4.000
x16.195 y-17.360 z-4.000
x16.195 y-17.323 z-4.000
x16.198 y-16.741 z-4.000
x16.197 y-16.675 z-4.000
x16.174 y-16.051 z-4.000
x16.170 y-15.983 z-4.000
x16.123 y-15.393 z-4.000
x16.117 y-15.328 z-4.000
x16.049 y-14.768 z-4.000
x16.040 y-14.702 z-4.000
x15.954 y-14.177 z-4.000
x15.942 y-14.113 z-4.000
x15.840 y-13.619 z-4.000
x15.824 y-13.550 z-4.000
x15.707 y-13.088 z-4.000
x15.691 y-13.029 z-4.000
x15.566 y-12.605 z-4.000
x15.544 y-12.537 z-4.000
x15.409 y-12.145 z-4.000
x15.390 y-12.092 z-4.000
x15.375 y-12.056 z-4.000
x15.093 y-11.373 z-4.000
x15.071 y-11.321 z-4.000
x15.037 y-11.251 z-4.000
x14.753 y-10.701 z-4.000
x14.726 y-10.651 z-4.000
x14.687 y-10.586 z-4.000
x14.424 y-10.166 z-4.000
x14.394 y-10.119 z-4.000
x14.361 y-10.073 z-4.000
x14.339 y-10.043 z-4.000
x14.044 y-9.658 z-4.000
x14.009 y-9.614 z-4.000
x13.972 y-9.572 z-4.000
x13.934 y-9.530 z-4.000
x13.895 y-9.490 z-4.000
x13.854 y-9.451 z-4.000
x13.812 y-9.414 z-4.000
x13.768 y-9.378 z-4.000
x13.723 y-9.344 z-4.000
x13.677 y-9.312 z-4.000
x13.630 y-9.281 z-4.000
x13.582 y-9.252 z-4.000
x13.533 y-9.224 z-4.000
x13.482 y-9.198 z-4.000
x13.431 y-9.175 z-4.000
x13.371 y-9.149 z-4.000
x12.940 y-8.977 z-4.000
x12.606 y-8.817 z-4.000
x12.291 y-8.636 z-4.000
x12.034 y-8.462 z-4.000
x11.821 y-8.291 z-4.000
x11.638 y-8.116 z-4.000
x11.509 y-7.967 z-4.000
x11.406 y-7.822 z-4.000
x11.346 y-7.713 z-4.000
x11.314 y-7.634 z-4.000
x11.306 y-7.604 z-4.000
x11.677 y-6.974 z-4.000
x11.704 y-6.925 z-4.000
x11.720 y-6.896 z-4.000
x12.042 y-6.272 z-4.000
x12.067 y-6.221 z-4.000
x12.080 y-6.193 z-4.000
x12.367 y-5.552 z-4.000
x12.389 y-5.500 z-4.000
x12.401 y-5.470 z-4.000
x12.662 y-4.787 z-4.000
x12.683 y-4.778 z-4.000
x12.774 y-4.751 z-4.000
x12.896 y-4.730 z-4.000
x13.075 y-4.720 z-4.000
x13.273 y-4.728 z-4.000
x13.517 y-4.761 z-4.000
x13.792 y-4.823 z-4.000
x14.090 y-4.915 z-4.000
x14.410 y-5.042 z-4.000
x14.757 y-5.210 z-4.000
x15.159 y-5.439 z-4.000
x15.208 y-5.466 z-4.000
x15.259 y-5.491 z-4.000
x15.310 y-5.515 z-4.000
x15.362 y-5.536 z-4.000
x15.415 y-5.556 z-4.000
x15.468 y-5.574 z-4.000
x15.522 y-5.590 z-4.000
x15.577 y-5.604 z-4.000
x15.632 y-5.616 z-4.000
x15.687 y-5.626 z-4.000
x15.743 y-5.635 z-4.000
x15.799 y-5.641 z-4.000
x15.855 y-5.645 z-4.000
x15.911 y-5.647 z-4.000
x15.974 y-5.647 z-4.000
x16.459 y-5.638 z-4.000
x16.516 y-5.636 z-4.000
x16.572 y-5.632 z-4.000
x16.613 y-5.628 z-4.000
x17.105 y-5.571 z-4.000
x17.161 y-5.563 z-4.000
x17.232 y-5.551 z-4.000
x17.839 y-5.430 z-4.000
x17.894 y-5.418 z-4.000
x17.969 y-5.398 z-4.000
x18.679 y-5.193 z-4.000
x18.733 y-5.177 z-4.000
x18.771 y-5.164 z-4.000
x19.162 y-5.025 z-4.000
x19.227 y-5.000 z-4.000
x19.636 y-4.834 z-4.000
x19.695 y-4.809 z-4.000
x20.129 y-4.612 z-4.000
x20.190 y-4.582 z-4.000
x20.640 y-4.354 z-4.000
x20.699 y-4.323 z-4.000
x21.163 y-4.063 z-4.000
x21.221 y-4.029 z-4.000
x21.702 y-3.732 z-4.000
x21.757 y-3.696 z-4.000
x22.247 y-3.365 z-4.000
x22.300 y-3.328 z-4.000
x22.802 y-2.958 z-4.000
x22.856 y-2.916 z-4.000
x23.310 y-2.550 z-4.000
x23.354 y-2.514 z-4.000
x23.395 y-2.476 z-4.000
x23.436 y-2.437 z-4.000
x23.475 y-2.396 z-4.000
x23.513 y-2.355 z-4.000
x23.549 y-2.311 z-4.000
x23.584 y-2.267 z-4.000
x23.617 y-2.221 z-4.000
x23.648 y-2.174 z-4.000
x23.678 y-2.127 z-4.000
x23.706 y-2.078 z-4.000
x23.732 y-2.028 z-4.000
x23.756 y-1.977 z-4.000
x23.779 y-1.925 z-4.000
x23.800 y-1.873 z-4.000
x23.819 y-1.820 z-4.000
x23.836 y-1.766 z-4.000
x23.851 y-1.712 z-4.000
x23.864 y-1.657 z-4.000
x23.875 y-1.602 z-4.000
x23.884 y-1.546 z-4.000
x23.892 y-1.491 z-4.000
x23.897 y-1.434 z-4.000
x23.899 y-1.399 z-4.000
x23.906 y-1.269 z-4.000
x23.907 y-1.258 z-4.000
x23.913 y-1.129 z-4.000
x23.919 y-0.999 z-4.000
x23.919 y-0.986 z-4.000
x23.924 y-0.856 z-4.000
x23.925 y-0.844 z-4.000
x23.929 y-0.714 z-4.000
x23.929 y-0.702 z-4.000
x23.935 y-0.442 z-4.000
x23.935 y-0.429 z-4.000
x23.937 y-0.299 z-4.000
x23.937 y-0.287 z-4.000
x23.938 y-0.157 z-4.000
x23.939 y-0.145 z-4.000
x23.939 y0.117 z-4.000
x23.938 y0.129 z-4.000
x23.937 y0.262 z-4.000
x23.937 y0.274 z-4.000
x23.935 y0.407 z-4.000
x23.935 y0.419 z-4.000
x23.929 y0.685 z-4.000
x23.929 y0.696 z-4.000
x23.925 y0.830 z-4.000
x23.924 y0.843 z-4.000
x23.914 y1.109 z-4.000
x23.913 y1.132 z-4.000
x23.899 y1.398 z-4.000
x23.895 y1.455 z-4.000
x23.889 y1.511 z-4.000
x23.881 y1.566 z-4.000
x23.872 y1.622 z-4.000
x23.860 y1.677 z-4.000
x23.846 y1.732 z-4.000
x23.830 y1.786 z-4.000
x23.812 y1.839 z-4.000
x23.793 y1.892 z-4.000
x23.771 y1.944 z-4.000
x23.748 y1.996 z-4.000
x23.723 y2.046 z-4.000
x23.696 y2.096 z-4.000
x23.668 y2.144 z-4.000
x23.638 y2.192 z-4.000
x23.606 y2.238 z-4.000
x23.572 y2.283 z-4.000
x23.537 y2.327 z-4.000
x23.500 y2.370 z-4.000
x23.462 y2.412 z-4.000
x23.422 y2.452 z-4.000
x23.381 y2.490 z-4.000
x23.339 y2.527 z-4.000
x23.309 y2.552 z-4.000
x22.855 y2.917 z-4.000
x22.804 y2.957 z-4.000
x22.302 y3.328 z-4.000
x22.247 y3.366 z-4.000
x21.757 y3.697 z-4.000
x21.700 y3.734 z-4.000
x21.219 y4.030 z-4.000
x21.163 y4.063 z-4.000
x20.699 y4.323 z-4.000
x20.640 y4.354 z-4.000
x20.190 y4.582 z-4.000
x20.129 y4.612 z-4.000
x19.695 y4.809 z-4.000
x19.636 y4.834 z-4.000
x19.227 y5.000 z-4.000
x19.165 y5.024 z-4.000
x18.774 y5.164 z-4.000
x18.721 y5.182 z-4.000
x18.677 y5.195 z-4.000
x17.967 y5.399 z-4.000
x17.913 y5.413 z-4.000
x17.842 y5.429 z-4.000
x17.235 y5.551 z-4.000
x17.179 y5.561 z-4.000
x17.102 y5.572 z-4.000
x16.610 y5.628 z-4.000
x16.553 y5.634 z-4.000
x16.497 y5.637 z-4.000
x16.459 y5.638 z-4.000
x15.974 y5.647 z-4.000
x15.918 y5.647 z-4.000
x15.862 y5.645 z-4.000
x15.806 y5.641 z-4.000
x15.750 y5.635 z-4.000
x15.694 y5.627 z-4.000
x15.638 y5.618 z-4.000
x15.583 y5.606 z-4.000
x15.529 y5.592 z-4.000
x15.475 y5.576 z-4.000
x15.421 y5.559 z-4.000
x15.368 y5.539 z-4.000
x15.316 y5.518 z-4.000
x15.265 y5.494 z-4.000
x15.214 y5.469 z-4.000
x15.159 y5.439 z-4.000
x14.757 y5.210 z-4.000
x14.410 y5.042 z-4.000
x14.090 y4.915 z-4.000
x13.792 y4.823 z-4.000
x13.517 y4.761 z-4.000
x13.273 y4.728 z-4.000
x13.075 y4.720 z-4.000
x12.896 y4.730 z-4.000
x12.774 y4.751 z-4.000
x12.683 y4.778 z-4.000
x12.662 y4.787 z-4.000
x12.401 y5.470 z-4.000
x12.380 y5.522 z-4.000
x12.367 y5.554 z-4.000
x12.080 y6.194 z-4.000
x12.056 y6.245 z-4.000
x12.042 y6.272 z-4.000
x11.720 y6.896 z-4.000
x11.693 y6.946 z-4.000
x11.677 y6.973 z-4.000
x11.305 y7.604 z-4.000
x11.311 y7.627 z-4.000
x11.345 y7.712 z-4.000
x11.406 y7.823 z-4.000
x11.505 y7.963 z-4.000
x11.641 y8.118 z-4.000
x11.821 y8.291 z-4.000
x12.034 y8.462 z-4.000
x12.291 y8.636 z-4.000
x12.606 y8.817 z-4.000
x12.940 y8.977 z-4.000
x13.371 y9.149 z-4.000
x13.423 y9.171 z-4.000
x13.474 y9.194 z-4.000
x13.524 y9.220 z-4.000
x13.574 y9.247 z-4.000
x13.622 y9.276 z-4.000
x13.669 y9.306 z-4.000
x13.716 y9.339 z-4.000
x13.761 y9.372 z-4.000
x13.804 y9.408 z-4.000
x13.847 y9.445 z-4.000
x13.888 y9.483 z-4.000
x13.928 y9.523 z-4.000
x13.966 y9.565 z-4.000
x14.003 y9.607 z-4.000
x14.044 y9.658 z-4.000
x14.339 y10.043 z-4.000
x14.373 y10.089 z-4.000
x14.404 y10.135 z-4.000
x14.425 y10.168 z-4.000
x14.688 y10.589 z-4.000
x14.717 y10.637 z-4.000
x14.753 y10.702 z-4.000
x15.037 y11.252 z-4.000
x15.062 y11.302 z-4.000
x15.093 y11.373 z-4.000
x15.375 y12.055 z-4.000
x15.396 y12.108 z-4.000
x15.409 y12.145 z-4.000
x15.544 y12.537 z-4.000
x15.566 y12.605 z-4.000
x15.691 y13.029 z-4.000
x15.707 y13.088 z-4.000
x15.824 y13.550 z-4.000
x15.840 y13.619 z-4.000
x15.942 y14.113 z-4.000
x15.954 y14.177 z-4.000
x16.040 y14.702 z-4.000
x16.049 y14.768 z-4.000
x16.117 y15.329 z-4.000
x16.123 y15.394 z-4.000
x16.170 y15.983 z-4.000
x16.174 y16.051 z-4.000
x16.197 y16.675 z-4.000
x16.198 y16.741 z-4.000

( Current depth = -6.000 )

( Loop )
G90 F250
x16.198 y16.741 z-6.000
F800
x16.195 y17.323 z-6.000
x16.194 y17.380 z-6.000
x16.191 y17.436 z-6.000
x16.186 y17.492 z-6.000
x16.178 y17.548 z-6.000
x16.169 y17.603 z-6.000
x16.158 y17.659 z-6.000
x16.145 y17.713 z-6.000
x16.130 y17.768 z-6.000
x16.113 y17.821 z-6.000
x16.094 y17.874 z-6.000
x16.073 y17.927 z-6.000
x16.050 y17.978 z-6.000
x16.026 y18.029 z-6.000
x16.000 y18.079 z-6.000
x15.972 y18.128 z-6.000
x15.942 y18.176 z-6.000
x15.910 y18.223 z-6.000
x15.877 y18.268 z-6.000
x15.843 y18.313 z-6.000
x15.807 y18.356 z-6.000
x15.769 y18.398 z-6.000
x15.730 y18.438 z-6.000
x15.669 y18.496 z-6.000
x15.570 y18.585 z-6.000
x15.552 y18.601 z-6.000
x15.451 y18.689 z-6.000
x15.450 y18.690 z-6.000
x15.350 y18.777 z-6.000
x15.344 y18.782 z-6.000
x15.243 y18.869 z-6.000
x15.230 y18.880 z-6.000
x15.026 y19.052 z-6.000
x15.019 y19.058 z-6.000
x14.917 y19.143 z-6.000
x14.904 y19.153 z-6.000
x14.698 y19.321 z-6.000
x14.685 y19.332 z-6.000
x14.581 y19.415 z-6.000
x14.578 y19.417 z-6.000
x14.476 y19.498 z-6.000
x14.463 y19.509 z-6.000
x14.360 y19.589 z-6.000
x14.358 y19.590 z-6.000
x14.256 y19.669 z-6.000
x14.244 y19.678 z-6.000
x14.146 y19.753 z-6.000
x14.043 y19.832 z-6.000
x14.030 y19.842 z-6.000
x13.926 y19.920 z-6.000
x13.912 y19.930 z-6.000
x13.807 y20.007 z-6.000
x13.799 y20.013 z-6.000
x13.589 y20.165 z-6.000
x13.583 y20.169 z-6.000
x13.477 y20.245 z-6.000
x13.431 y20.277 z-6.000
x13.383 y20.308 z-6.000
x13.335 y20.336 z-6.000
x13.285 y20.363 z-6.000
x13.235 y20.388 z-6.000
x13.183 y20.412 z-6.000
x13.131 y20.433 z-6.000
x13.079 y20.453 z-6.000
x13.025 y20.470 z-6.000
x12.971 y20.486 z-6.000
x12.916 y20.500 z-6.000
x12.861 y20.512 z-6.000
x12.806 y20.522 z-6.000
x12.750 y20.530 z-6.000
x12.694 y20.536 z-6.000
x12.638 y20.540 z-6.000
x12.582 y20.542 z-6.000
x12.525 y20.542 z-6.000
x12.469 y20.540 z-6.000
x12.413 y20.536 z-6.000
x12.357 y20.530 z-6.000
x12.301 y20.523 z-6.000
x12.245 y20.513 z-6.000
x12.206 y20.504 z-6.000
x11.637 y20.377 z-6.000
x11.571 y20.361 z-6.000
x10.968 y20.199 z-6.000
x10.907 y20.181 z-6.000
x10.343 y20.005 z-6.000
x10.279 y19.984 z-6.000
x9.748 y19.793 z-6.000
x9.686 y19.769 z-6.000
x9.193 y19.568 z-6.000
x9.132 y19.542 z-6.000
x8.673 y19.332 z-6.000
x8.612 y19.303 z-6.000
x8.188 y19.087 z-6.000
x8.131 y19.056 z-6.000
x7.745 y18.839 z-6.000
x7.687 y18.805 z-6.000
x7.335 y18.587 z-6.000
x7.288 y18.556 z-6.000
x7.252 y18.532 z-6.000
x6.649 y18.104 z-6.000
x6.604 y18.070 z-6.000
x6.546 y18.024 z-6.000
x6.073 y17.626 z-6.000
x6.030 y17.589 z-6.000
x5.974 y17.535 z-6.000
x5.623 y17.185 z-6.000
x5.584 y17.145 z-6.000
x5.546 y17.103 z-6.000
x5.522 y17.074 z-6.000
x5.212 y16.700 z-6.000
x5.177 y16.656 z-6.000
x5.143 y16.611 z-6.000
x5.111 y16.564 z-6.000
x5.081 y16.517 z-6.000
x5.052 y16.468 z-6.000
x5.025 y16.419 z-6.000
x5.000 y16.368 z-6.000
x4.977 y16.317 z-6.000
x4.955 y16.265 z-6.000
x4.936 y16.212 z-6.000
x4.918 y16.159 z-6.000
x4.902 y16.105 z-6.000
x4.889 y16.050 z-6.000
x4.877 y15.995 z-6.000
x4.865 y15.930 z-6.000
x4.795 y15.476 z-6.000
x4.707 y15.093 z-6.000
x4.609 y14.767 z-6.000
x4.498 y14.486 z-6.000
x4.370 y14.221 z-6.000
x4.247 y14.015 z-6.000
x4.125 y13.849 z-6.000
x4.016 y13.727 z-6.000
x3.914 y13.636 z-6.000
x3.844 y13.587 z-6.000
x3.818 y13.573 z-6.000
x3.123 y13.795 z-6.000
x3.069 y13.812 z-6.000
x3.037 y13.820 z-6.000
x2.357 y13.995 z-6.000
x2.302 y14.008 z-6.000
x2.271 y14.015 z-6.000
x1.583 y14.152 z-6.000
x1.528 y14.162 z-6.000
x1.495 y14.167 z-6.000
x0.772 y14.269 z-6.000
x0.762 y14.282 z-6.000
x0.712 y14.371 z-6.000
x0.662 y14.491 z-6.000
x0.616 y14.650 z-6.000
x0.579 y14.851 z-6.000
x0.556 y15.104 z-6.000
x0.554 y15.367 z-6.000
x0.580 y15.691 z-6.000
x0.632 y16.034 z-6.000
x0.718 y16.405 z-6.000
x0.852 y16.847 z-6.000
x0.867 y16.901 z-6.000
x0.881 y16.956 z-6.000
x0.892 y17.011 z-6.000
x0.902 y17.066 z-6.000
x0.910 y17.122 z-6.000
x0.915 y17.178 z-6.000
x0.919 y17.234 z-6.000
x0.920 y17.291 z-6.000
x0.920 y17.347 z-6.000
x0.918 y17.403 z-6.000
x0.913 y17.460 z-6.000
x0.907 y17.516 z-6.000
x0.899 y17.571 z-6.000
x0.888 y17.627 z-6.000
x0.874 y17.691 z-6.000
x0.757 y18.162 z-6.000
x0.742 y18.216 z-6.000
x0.726 y18.270 z-6.000
x0.713 y18.307 z-6.000
x0.548 y18.775 z-6.000
x0.528 y18.828 z-6.000
x0.500 y18.896 z-6.000
x0.247 y19.461 z-6.000
x0.223 y19.512 z-6.000
x0.187 y19.581 z-6.000
x-0.171 y20.227 z-6.000
x-0.200 y20.276 z-6.000
x-0.219 y20.308 z-6.000
x-0.441 y20.658 z-6.000
x-0.481 y20.717 z-6.000
x-0.734 y21.079 z-6.000
x-0.773 y21.133 z-6.000
x-1.062 y21.512 z-6.000
x-1.102 y21.563 z-6.000
x-1.424 y21.951 z-6.000
x-1.468 y22.001 z-6.000
x-1.825 y22.396 z-6.000
x-1.871 y22.445 z-6.000
x-2.267 y22.848 z-6.000
x-2.315 y22.894 z-6.000
x-2.747 y23.298 z-6.000
x-2.796 y23.342 z-6.000
x-3.269 y23.749 z-6.000
x-3.320 y23.792 z-6.000
x-3.777 y24.153 z-6.000
x-3.822 y24.187 z-6.000
x-3.868 y24.219 z-6.000
x-3.915 y24.250 z-6.000
x-3.963 y24.279 z-6.000
x-4.012 y24.307 z-6.000
x-4.062 y24.333 z-6.000
x-4.114 y24.356 z-6.000
x-4.165 y24.379 z-6.000
x-4.218 y24.399 z-6.000
x-4.271 y24.417 z-6.000
x-4.325 y24.433 z-6.000
x-4.380 y24.448 z-6.000
x-4.435 y24.461 z-6.000
x-4.490 y24.471 z-6.000
x-4.546 y24.480 z-6.000
x-4.601 y24.486 z-6.000
x-4.658 y24.491 z-6.000
x-4.714 y24.494 z-6.000
x-4.770 y24.494 z-6.000
x-4.827 y24.493 z-6.000
x-4.883 y24.490 z-6.000
x-4.939 y24.484 z-6.000
x-4.995 y24.477 z-6.000
x-5.037 y24.470 z-6.000
x-5.275 y24.428 z-6.000
x-5.277 y24.428 z-6.000
x-5.395 y24.407 z-6.000
x-5.421 y24.402 z-6.000
x-5.524 y24.382 z-6.000
x-5.643 y24.360 z-6.000
x-5.670 y24.355 z-6.000
x-5.906 y24.307 z-6.000
x-5.922 y24.303 z-6.000
x-6.036 y24.279 z-6.000
x-6.154 y24.254 z-6.000
x-6.167 y24.251 z-6.000
x-6.285 y24.225 z-6.000
x-6.289 y24.224 z-6.000
x-6.428 y24.193 z-6.000
x-6.449 y24.189 z-6.000
x-6.727 y24.123 z-6.000
x-6.740 y24.119 z-6.000
x-6.878 y24.085 z-6.000
x-6.886 y24.083 z-6.000
x-7.025 y24.048 z-6.000
x-7.038 y24.045 z-6.000
x-7.337 y23.967 z-6.000
x-7.471 y23.930 z-6.000
x-7.609 y23.892 z-6.000
x-7.623 y23.888 z-6.000
x-7.760 y23.849 z-6.000
x-7.814 y23.832 z-6.000
x-7.867 y23.814 z-6.000
x-7.919 y23.794 z-6.000
x-7.971 y23.772 z-6.000
x-8.022 y23.748 z-6.000
x-8.073 y23.722 z-6.000
x-8.122 y23.695 z-6.000
x-8.170 y23.666 z-6.000
x-8.217 y23.635 z-6.000
x-8.263 y23.603 z-6.000
x-8.308 y23.569 z-6.000
x-8.352 y23.533 z-6.000
x-8.394 y23.496 z-6.000
x-8.435 y23.457 z-6.000
x-8.475 y23.417 z-6.000
x-8.513 y23.375 z-6.000
x-8.549 y23.333 z-6.000
x-8.584 y23.288 z-6.000
x-8.618 y23.243 z-6.000
x-8.650 y23.197 z-6.000
x-8.680 y23.149 z-6.000
x-8.708 y23.101 z-6.000
x-8.735 y23.051 z-6.000
x-8.752 y23.017 z-6.000
x-9.007 y22.493 z-6.000
x-9.035 y22.434 z-6.000
x-9.285 y21.862 z-6.000
x-9.310 y21.801 z-6.000
x-9.524 y21.250 z-6.000
x-9.547 y21.186 z-6.000
x-9.729 y20.651 z-6.000
x-9.749 y20.587 z-6.000
x-9.899 y20.076 z-6.000
x-9.916 y20.013 z-6.000
x-10.038 y19.524 z-6.000
x-10.053 y19.460 z-6.000
x-10.149 y18.993 z-6.000
x-10.161 y18.925 z-6.000
x-10.231 y18.489 z-6.000
x-10.240 y18.424 z-6.000
x-10.289 y18.012 z-6.000
x-10.295 y17.956 z-6.000
x-10.298 y17.915 z-6.000
x-10.340 y17.178 z-6.000
x-10.342 y17.122 z-6.000
x-10.342 y17.044 z-6.000
x-10.325 y16.425 z-6.000
x-10.322 y16.369 z-6.000
x-10.316 y16.296 z-6.000
x-10.262 y15.803 z-6.000
x-10.255 y15.747 z-6.000
x-10.246 y15.692 z-6.000
x-10.238 y15.652 z-6.000
x-10.139 y15.177 z-6.000
x-10.127 y15.122 z-6.000
x-10.112 y15.068 z-6.000
x-10.096 y15.014 z-6.000
x-10.078 y14.960 z-6.000
x-10.058 y14.908 z-6.000
x-10.036 y14.856 z-6.000
x-10.012 y14.805 z-6.000
x-9.986 y14.755 z-6.000
x-9.959 y14.705 z-6.000
x-9.930 y14.657 z-6.000
x-9.899 y14.610 z-6.000
x-9.866 y14.564 z-6.000
x-9.832 y14.519 z-6.000
x-9.797 y14.475 z-6.000
x-9.753 y14.426 z-6.000
x-9.438 y14.084 z-6.000
x-9.202 y13.789 z-6.000
x-9.006 y13.503 z-6.000
x-8.845 y13.225 z-6.000
x-8.726 y12.975 z-6.000
x-8.641 y12.748 z-6.000
x-8.588 y12.553 z-6.000
x-8.560 y12.387 z-6.000
x-8.552 y12.248 z-6.000
x-8.557 y12.165 z-6.000
x-8.562 y12.139 z-6.000
x-9.171 y11.732 z-6.000
x-9.217 y11.700 z-6.000
x-9.244 y11.681 z-6.000
x-9.805 y11.258 z-6.000
x-9.849 y11.223 z-6.000
x-9.872 y11.204 z-6.000
x-10.408 y10.752 z-6.000
x-10.451 y10.715 z-6.000
x-10.475 y10.693 z-6.000
x-11.008 y10.190 z-6.000
x-11.028 y10.191 z-6.000
x-11.128 y10.207 z-6.000
x-11.249 y10.242 z-6.000
x-11.400 y10.304 z-6.000
x-11.585 y10.403 z-6.000
x-11.792 y10.539 z-6.000
x-12.004 y10.707 z-6.000
x-12.239 y10.926 z-6.000
x-12.470 y11.177 z-6.000
x-12.713 y11.482 z-6.000
x-12.973 y11.860 z-6.000
x-13.006 y11.906 z-6.000
x-13.040 y11.950 z-6.000
x-13.076 y11.994 z-6.000
x-13.114 y12.036 z-6.000
x-13.153 y12.077 z-6.000
x-13.193 y12.116 z-6.000
x-13.235 y12.154 z-6.000
x-13.278 y12.190 z-6.000
x-13.322 y12.225 z-6.000
x-13.368 y12.258 z-6.000
x-13.414 y12.290 z-6.000
x-13.462 y12.320 z-6.000
x-13.511 y12.348 z-6.000
x-13.561 y12.374 z-6.000
x-13.619 y12.402 z-6.000
x-14.060 y12.604 z-6.000
x-14.112 y12.627 z-6.000
x-14.164 y12.648 z-6.000
x-14.200 y12.661 z-6.000
x-14.669 y12.824 z-6.000
x-14.722 y12.841 z-6.000
x-14.795 y12.862 z-6.000
x-15.394 y13.016 z-6.000
x-15.449 y13.029 z-6.000
x-15.523 y13.043 z-6.000
x-16.252 y13.167 z-6.000
x-16.308 y13.175 z-6.000
x-16.353 y13.181 z-6.000
x-16.765 y13.224 z-6.000
x-16.826 y13.229 z-6.000
x-17.267 y13.258 z-6.000
x-17.338 y13.261 z-6.000
x-17.814 y13.271 z-6.000
x-17.878 y13.271 z-6.000
x-18.383 y13.261 z-6.000
x-18.450 y13.258 z-6.000
x-18.981 y13.225 z-6.000
x-19.046 y13.220 z-6.000
x-19.607 y13.162 z-6.000
x-19.675 y13.154 z-6.000
x-20.260 y13.068 z-6.000
x-20.324 y13.057 z-6.000
x-20.938 y12.941 z-6.000
x-21.003 y12.927 z-6.000
x-21.570 y12.795 z-6.000
x-21.625 y12.781 z-6.000
x-21.679 y12.766 z-6.000
x-21.732 y12.748 z-6.000
x-21.785 y12.729 z-6.000
x-21.837 y12.707 z-6.000
x-21.889 y12.684 z-6.000
x-21.939 y12.659 z-6.000
x-21.989 y12.632 z-6.000
x-22.037 y12.604 z-6.000
x-22.085 y12.574 z-6.000
x-22.131 y12.542 z-6.000
x-22.177 y12.508 z-6.000
x-22.221 y12.473 z-6.000
x-22.264 y12.437 z-6.000
x-22.305 y12.398 z-6.000
x-22.345 y12.359 z-6.000
x-22.384 y12.318 z-6.000
x-22.421 y12.276 z-6.000
x-22.457 y12.232 z-6.000
x-22.491 y12.187 z-6.000
x-22.523 y12.141 z-6.000
x-22.554 y12.094 z-6.000
x-22.583 y12.046 z-6.000
x-22.603 y12.010 z-6.000
x-22.721 y11.794 z-6.000
x-22.729 y11.779 z-6.000
x-22.845 y11.561 z-6.000
x-22.851 y11.551 z-6.000
x-22.908 y11.442 z-6.000
x-22.913 y11.431 z-6.000
x-22.969 y11.322 z-6.000
x-22.972 y11.317 z-6.000
x-23.028 y11.207 z-6.000
x-23.148 y10.967 z-6.000
x-23.202 y10.857 z-6.000
x-23.208 y10.844 z-6.000
x-23.269 y10.717 z-6.000
x-23.271 y10.713 z-6.000
x-23.331 y10.587 z-6.000
x-23.338 y10.573 z-6.000
x-23.456 y10.319 z-6.000
x-23.462 y10.305 z-6.000
x-23.520 y10.177 z-6.000
x-23.524 y10.168 z-6.000
x-23.581 y10.040 z-6.000
x-23.585 y10.030 z-6.000
x-23.641 y9.902 z-6.000
x-23.643 y9.898 z-6.000
x-23.699 y9.769 z-6.000
x-23.706 y9.754 z-6.000
x-23.760 y9.626 z-6.000
x-23.763 y9.618 z-6.000
x-23.817 y9.488 z-6.000
x-23.838 y9.436 z-6.000
x-23.857 y9.382 z-6.000
x-23.873 y9.329 z-6.000
x-23.888 y9.274 z-6.000
x-23.902 y9.220 z-6.000
x-23.913 y9.164 z-6.000
x-23.922 y9.109 z-6.000
x-23.929 y9.053 z-6.000
x-23.934 y8.997 z-6.000
x-23.937 y8.941 z-6.000
x-23.938 y8.884 z-6.000
x-23.938 y8.828 z-6.000
x-23.935 y8.772 z-6.000
x-23.930 y8.715 z-6.000
x-23.923 y8.659 z-6.000
x-23.914 y8.604 z-6.000
x-23.904 y8.549 z-6.000
x-23.891 y8.494 z-6.000
x-23.876 y8.439 z-6.000
x-23.860 y8.385 z-6.000
x-23.841 y8.332 z-6.000
x-23.821 y8.280 z-6.000
x-23.799 y8.228 z-6.000
x-23.785 y8.198 z-6.000
x-23.535 y7.672 z-6.000
x-23.504 y7.611 z-6.000
x-23.212 y7.059 z-6.000
x-23.182 y7.003 z-6.000
x-22.885 y6.492 z-6.000
x-22.848 y6.432 z-6.000
x-22.543 y5.957 z-6.000
x-22.508 y5.905 z-6.000
x-22.203 y5.469 z-6.000
x-22.161 y5.412 z-6.000
x-21.854 y5.012 z-6.000
x-21.815 y4.963 z-6.000
x-21.510 y4.597 z-6.000
x-21.467 y4.547 z-6.000
x-21.170 y4.219 z-6.000
x-21.121 y4.168 z-6.000
x-20.829 y3.873 z-6.000
x-20.789 y3.834 z-6.000
x-20.759 y3.807 z-6.000
x-20.209 y3.315 z-6.000
x-20.167 y3.278 z-6.000
x-20.106 y3.230 z-6.000
x-19.611 y2.857 z-6.000
x-19.566 y2.824 z-6.000
x-19.502 y2.782 z-6.000
x-19.083 y2.518 z-6.000
x-19.035 y2.489 z-6.000
x-18.986 y2.461 z-6.000
x-18.953 y2.444 z-6.000
x-18.520 y2.225 z-6.000
x-18.470 y2.201 z-6.000
x-18.418 y2.178 z-6.000
x-18.366 y2.157 z-6.000
x-18.313 y2.138 z-6.000
x-18.259 y2.121 z-6.000
x-18.205 y2.106 z-6.000
x-18.150 y2.093 z-6.000
x-18.095 y2.081 z-6.000
x-18.039 y2.072 z-6.000
x-17.983 y2.065 z-6.000
x-17.927 y2.059 z-6.000
x-17.871 y2.056 z-6.000
x-17.815 y2.055 z-6.000
x-17.758 y2.055 z-6.000
x-17.693 y2.058 z-6.000
x-17.219 y2.091 z-6.000
x-16.862 y2.092 z-6.000
x-16.497 y2.066 z-6.000
x-16.191 y2.020 z-6.000
x-15.922 y1.958 z-6.000
x-15.684 y1.880 z-6.000
x-15.502 y1.802 z-6.000
x-15.357 y1.722 z-6.000
x-15.246 y1.643 z-6.000
x-15.173 y1.576 z-6.000
x-15.162 y1.563 z-6.000
x-15.223 y0.834 z-6.000
x-15.227 y0.778 z-6.000
x-15.228 y0.744 z-6.000
x-15.247 y0.043 z-6.000
x-15.247 y-0.043 z-6.000
x-15.228 y-0.744 z-6.000
x-15.225 y-0.800 z-6.000
x-15.223 y-0.834 z-6.000
x-15.162 y-1.563 z-6.000
x-15.174 y-1.577 z-6.000
x-15.249 y-1.645 z-6.000
x-15.357 y-1.722 z-6.000
x-15.502 y-1.802 z-6.000
x-15.684 y-1.880 z-6.000
x-15.922 y-1.958 z-6.000
x-16.191 y-2.020 z-6.000
x-16.497 y-2.066 z-6.000
x-16.862 y-2.092 z-6.000
x-17.219 y-2.091 z-6.000
x-17.694 y-2.058 z-6.000
x-17.750 y-2.055 z-6.000
x-17.806 y-2.055 z-6.000
x-17.862 y-2.056 z-6.000
x-17.919 y-2.059 z-6.000
x-17.975 y-2.064 z-6.000
x-18.031 y-2.071 z-6.000
x-18.086 y-2.080 z-6.000
x-18.142 y-2.091 z-6.000
x-18.196 y-2.104 z-6.000
x-18.251 y-2.119 z-6.000
x-18.305 y-2.135 z-6.000
x-18.358 y-2.154 z-6.000
x-18.410 y-2.175 z-6.000
x-18.462 y-2.197 z-6.000
x-18.520 y-2.225 z-6.000
x-18.953 y-2.444 z-6.000
x-19.003 y-2.471 z-6.000
x-19.052 y-2.499 z-6.000
x-19.083 y-2.518 z-6.000
x-19.502 y-2.782 z-6.000
x-19.549 y-2.813 z-6.000
x-19.611 y-2.857 z-6.000
x-20.106 y-3.230 z-6.000
x-20.151 y-3.265 z-6.000
x-20.211 y-3.316 z-6.000
x-20.761 y-3.809 z-6.000
x-20.802 y-3.847 z-6.000
x-20.831 y-3.876 z-6.000
x-21.122 y-4.171 z-6.000
x-21.165 y-4.217 z-6.000
x-21.463 y-4.544 z-6.000
x-21.510 y-4.597 z-6.000
x-21.815 y-4.963 z-6.000
x-21.856 y-5.014 z-6.000
x-22.162 y-5.414 z-6.000
x-22.200 y-5.467 z-6.000
x-22.506 y-5.903 z-6.000
x-22.544 y-5.959 z-6.000
x-22.848 y-6.434 z-6.000
x-22.882 y-6.490 z-6.000
x-23.180 y-7.001 z-6.000
x-23.212 y-7.059 z-6.000
x-23.504 y-7.611 z-6.000
x-23.535 y-7.672 z-6.000
x-23.785 y-8.198 z-6.000
x-23.808 y-8.249 z-6.000
x-23.830 y-8.301 z-6.000
x-23.849 y-8.354 z-6.000
x-23.867 y-8.407 z-6.000
x-23.883 y-8.461 z-6.000
x-23.896 y-8.516 z-6.000
x-23.908 y-8.571 z-6.000
x-23.918 y-8.627 z-6.000
x-23.926 y-8.682 z-6.000
x-23.932 y-8.738 z-6.000
x-23.936 y-8.795 z-6.000
x-23.938 y-8.851 z-6.000
x-23.938 y-8.907 z-6.000
x-23.936 y-8.963 z-6.000
x-23.932 y-9.020 z-6.000
x-23.926 y-9.076 z-6.000
x-23.918 y-9.131 z-6.000
x-23.908 y-9.187 z-6.000
x-23.896 y-9.242 z-6.000
x-23.883 y-9.297 z-6.000
x-23.867 y-9.351 z-6.000
x-23.849 y-9.404 z-6.000
x-23.830 y-9.457 z-6.000
x-23.819 y-9.484 z-6.000
x-23.772 y-9.598 z-6.000
x-23.762 y-9.620 z-6.000
x-23.713 y-9.734 z-6.000
x-23.670 y-9.837 z-6.000
x-23.659 y-9.863 z-6.000
x-23.509 y-10.202 z-6.000
x-23.502 y-10.218 z-6.000
x-23.451 y-10.330 z-6.000
x-23.448 y-10.336 z-6.000
x-23.396 y-10.449 z-6.000
x-23.392 y-10.458 z-6.000
x-23.340 y-10.569 z-6.000
x-23.337 y-10.575 z-6.000
x-23.284 y-10.687 z-6.000
x-23.278 y-10.700 z-6.000
x-23.217 y-10.826 z-6.000
x-23.215 y-10.830 z-6.000
x-23.154 y-10.955 z-6.000
x-23.149 y-10.964 z-6.000
x-23.087 y-11.089 z-6.000
x-23.083 y-11.098 z-6.000
x-23.020 y-11.223 z-6.000
x-23.017 y-11.228 z-6.000
x-22.954 y-11.352 z-6.000
x-22.950 y-11.361 z-6.000
x-22.886 y-11.485 z-6.000
x-22.881 y-11.494 z-6.000
x-22.816 y-11.618 z-6.000
x-22.809 y-11.632 z-6.000
x-22.743 y-11.755 z-6.000
x-22.738 y-11.763 z-6.000
x-22.671 y-11.886 z-6.000
x-22.668 y-11.891 z-6.000
x-22.601 y-12.013 z-6.000
x-22.573 y-12.062 z-6.000
x-22.544 y-12.110 z-6.000
x-22.512 y-12.157 z-6.000
x-22.479 y-12.202 z-6.000
x-22.445 y-12.247 z-6.000
x-22.409 y-12.290 z-6.000
x-22.371 y-12.332 z-6.000
x-22.332 y-12.372 z-6.000
x-22.291 y-12.411 z-6.000
x-22.249 y-12.449 z-6.000
x-22.206 y-12.485 z-6.000
x-22.161 y-12.520 z-6.000
x-22.116 y-12.553 z-6.000
x-22.069 y-12.584 z-6.000
x-22.021 y-12.614 z-6.000
x-21.972 y-12.642 z-6.000
x-21.922 y-12.668 z-6.000
x-21.871 y-12.692 z-6.000
x-21.820 y-12.715 z-6.000
x-21.767 y-12.735 z-6.000
x-21.714 y-12.754 z-6.000
x-21.660 y-12.771 z-6.000
x-21.606 y-12.786 z-6.000
x-21.570 y-12.795 z-6.000
x-21.003 y-12.927 z-6.000
x-20.938 y-12.941 z-6.000
x-20.324 y-13.057 z-6.000
x-20.260 y-13.068 z-6.000
x-19.675 y-13.154 z-6.000
x-19.607 y-13.162 z-6.000
x-19.046 y-13.220 z-6.000
x-18.981 y-13.225 z-6.000
x-18.450 y-13.258 z-6.000
x-18.383 y-13.261 z-6.000
x-17.878 y-13.271 z-6.000
x-17.814 y-13.271 z-6.000
x-17.338 y-13.261 z-6.000
x-17.267 y-13.258 z-6.000
x-16.826 y-13.229 z-6.000
x-16.761 y-13.224 z-6.000
x-16.349 y-13.180 z-6.000
x-16.294 y-13.173 z-6.000
x-16.254 y-13.166 z-6.000
x-15.525 y-13.043 z-6.000
x-15.469 y-13.033 z-6.000
x-15.394 y-13.016 z-6.000
x-14.795 y-12.862 z-6.000
x-14.740 y-12.847 z-6.000
x-14.669 y-12.824 z-6.000
x-14.200 y-12.661 z-6.000
x-14.147 y-12.641 z-6.000
x-14.095 y-12.620 z-6.000
x-14.060 y-12.604 z-6.000
x-13.619 y-12.402 z-6.000
x-13.568 y-12.378 z-6.000
x-13.518 y-12.352 z-6.000
x-13.469 y-12.324 z-6.000
x-13.421 y-12.294 z-6.000
x-13.374 y-12.263 z-6.000
x-13.329 y-12.230 z-6.000
x-13.284 y-12.195 z-6.000
x-13.241 y-12.159 z-6.000
x-13.199 y-12.122 z-6.000
x-13.159 y-12.083 z-6.000
x-13.119 y-12.042 z-6.000
x-13.082 y-12.000 z-6.000
x-13.045 y-11.957 z-6.000
x-13.011 y-11.913 z-6.000
x-12.972 y-11.859 z-6.000
x-12.709 y-11.477 z-6.000
x-12.472 y-11.180 z-6.000
x-12.242 y-10.929 z-6.000
x-12.004 y-10.707 z-6.000
x-11.792 y-10.539 z-6.000
x-11.585 y-10.403 z-6.000
x-11.400 y-10.304 z-6.000
x-11.250 y-10.242 z-6.000
x-11.117 y-10.203 z-6.000
x-11.039 y-10.191 z-6.000
x-11.006 y-10.190 z-6.000
x-10.475 y-10.692 z-6.000
x-10.434 y-10.730 z-6.000
x-10.408 y-10.752 z-6.000
