( Created by GrblGru )
( 25.03.2024 16:06:30 )



( Additional commands from settings )
G1 F200 Z25
G4 P2

( Job: Solder Tracks  -> None 3.175mm )
( ------------------------------- )

( Job mode = 0, CUT )
( Type of tool = 0, SPINDLE )

( TransformationTyp = NONE )
( Plano de segurança = 5 )
( Soma da profundidade = 0.4 )
( Profundidade por passo = 0.4 )
( Rampa de Mergulho = 0 )
( Tamanho de partição = 2 )
( Avanço de corte = 500 )
( Avanço rápido = 2000 )
( Avanço de mergulho = 500 )
( Tool = V-carve 60° x 10 )
( Tool diameter = 10 )



G1 G90 F100

( Percurso da ferramenta )
( ------------------------- )

( Spindle on )
M3
S500

( Current depth = -0.400 )

( MoveToStartpoint2 )
F2000 G90 z5.000
F2000 x2.504 y-7.490 z5.000
F2000 x2.504 y-7.490 z0.000

( Loop )
G90 F500
x2.504 y-7.490 z-0.400
F500
x2.536 y-7.490 z-0.400
x2.568 y-7.488 z-0.400
x2.600 y-7.484 z-0.400
x2.631 y-7.478 z-0.400
x2.662 y-7.470 z-0.400
x2.692 y-7.460 z-0.400
x2.722 y-7.448 z-0.400
x2.751 y-7.434 z-0.400
x2.779 y-7.419 z-0.400
x2.806 y-7.402 z-0.400
x2.832 y-7.383 z-0.400
x2.880 y-7.341 z-0.400
x5.126 y-5.095 z-0.400
x5.138 y-5.082 z-0.400
x5.159 y-5.058 z-0.400
x5.178 y-5.033 z-0.400
x5.196 y-5.006 z-0.400
x5.212 y-4.979 z-0.400
x5.227 y-4.950 z-0.400
x5.239 y-4.921 z-0.400
x5.250 y-4.891 z-0.400
x5.259 y-4.860 z-0.400
x5.266 y-4.829 z-0.400
x5.271 y-4.798 z-0.400
x5.274 y-4.766 z-0.400
x5.275 y-4.734 z-0.400
x5.275 y-2.408 z-0.400
x5.274 y-2.371 z-0.400
x5.270 y-2.339 z-0.400
x5.265 y-2.308 z-0.400
x5.258 y-2.276 z-0.400
x5.249 y-2.246 z-0.400
x5.237 y-2.216 z-0.400
x5.225 y-2.187 z-0.400
x5.210 y-2.158 z-0.400
x5.193 y-2.131 z-0.400
x5.175 y-2.105 z-0.400
x5.155 y-2.080 z-0.400
x5.134 y-2.056 z-0.400
x5.111 y-2.034 z-0.400
x5.087 y-2.013 z-0.400
x5.062 y-1.993 z-0.400
x5.035 y-1.975 z-0.400
x5.008 y-1.959 z-0.400
x4.979 y-1.945 z-0.400
x4.950 y-1.933 z-0.400
x4.920 y-1.922 z-0.400
x4.889 y-1.913 z-0.400
x4.858 y-1.906 z-0.400
x4.826 y-1.902 z-0.400
x4.794 y-1.899 z-0.400
x4.762 y-1.898 z-0.400
x4.730 y-1.899 z-0.400
x4.699 y-1.902 z-0.400
x4.667 y-1.907 z-0.400
x4.636 y-1.915 z-0.400
x4.605 y-1.924 z-0.400
x4.575 y-1.935 z-0.400
x4.546 y-1.947 z-0.400
x4.518 y-1.962 z-0.400
x4.490 y-1.978 z-0.400
x4.464 y-1.996 z-0.400
x4.439 y-2.016 z-0.400
x4.415 y-2.037 z-0.400
x4.392 y-2.060 z-0.400
x4.371 y-2.084 z-0.400
x4.352 y-2.109 z-0.400
x4.334 y-2.136 z-0.400
x4.318 y-2.163 z-0.400
x4.303 y-2.192 z-0.400
x4.291 y-2.221 z-0.400
x4.280 y-2.251 z-0.400
x4.271 y-2.282 z-0.400
x4.264 y-2.313 z-0.400
x4.259 y-2.344 z-0.400
x4.256 y-2.376 z-0.400
x4.255 y-2.408 z-0.400
x4.255 y-4.522 z-0.400
x2.158 y-6.619 z-0.400
x2.133 y-6.647 z-0.400
x2.113 y-6.671 z-0.400
x2.094 y-6.697 z-0.400
x2.062 y-6.753 z-0.400
x2.049 y-6.782 z-0.400
x2.038 y-6.812 z-0.400
x2.028 y-6.842 z-0.400
x2.020 y-6.873 z-0.400
x2.015 y-6.904 z-0.400
x2.011 y-6.936 z-0.400
x2.009 y-6.968 z-0.400
x2.009 y-7.000 z-0.400
x2.012 y-7.032 z-0.400
x2.016 y-7.063 z-0.400
x2.022 y-7.095 z-0.400
x2.030 y-7.126 z-0.400
x2.040 y-7.156 z-0.400
x2.052 y-7.186 z-0.400
x2.066 y-7.214 z-0.400
x2.082 y-7.242 z-0.400
x2.099 y-7.269 z-0.400
x2.118 y-7.295 z-0.400
x2.138 y-7.319 z-0.400
x2.160 y-7.342 z-0.400
x2.184 y-7.364 z-0.400
x2.208 y-7.384 z-0.400
x2.234 y-7.403 z-0.400
x2.261 y-7.420 z-0.400
x2.289 y-7.435 z-0.400
x2.318 y-7.449 z-0.400
x2.348 y-7.460 z-0.400
x2.378 y-7.470 z-0.400
x2.409 y-7.478 z-0.400
x2.441 y-7.484 z-0.400
x2.472 y-7.488 z-0.400
x2.504 y-7.490 z-0.400

( Lift to 5.000 )
F2000 z5.000

( Percurso da ferramenta 4 )
( ------------------------- )

( Spindle on )
M3
S500

( Current depth = -0.400 )

( MoveToStartpoint2 )
F2000 G90 z5.000
F2000 x14.034 y-6.853 z5.000
F2000 x14.034 y-6.853 z0.000

( Loop )
G90 F500
x14.034 y-6.853 z-0.400
F500
x14.034 y-13.963 z-0.400
x7.392 y-13.963 z-0.400
x7.355 y-13.964 z-0.400
x7.323 y-13.968 z-0.400
x7.292 y-13.973 z-0.400
x7.260 y-13.980 z-0.400
x7.230 y-13.989 z-0.400
x7.200 y-14.001 z-0.400
x7.171 y-14.013 z-0.400
x7.142 y-14.028 z-0.400
x7.115 y-14.045 z-0.400
x7.089 y-14.063 z-0.400
x7.064 y-14.083 z-0.400
x7.040 y-14.104 z-0.400
x7.018 y-14.127 z-0.400
x6.997 y-14.151 z-0.400
x6.977 y-14.176 z-0.400
x6.959 y-14.203 z-0.400
x6.943 y-14.230 z-0.400
x6.929 y-14.259 z-0.400
x6.917 y-14.288 z-0.400
x6.906 y-14.318 z-0.400
x6.897 y-14.349 z-0.400
x6.890 y-14.380 z-0.400
x6.886 y-14.412 z-0.400
x6.883 y-14.444 z-0.400
x6.882 y-14.476 z-0.400
x6.883 y-14.508 z-0.400
x6.886 y-14.539 z-0.400
x6.891 y-14.571 z-0.400
x6.899 y-14.602 z-0.400
x6.908 y-14.633 z-0.400
x6.919 y-14.663 z-0.400
x6.931 y-14.692 z-0.400
x6.946 y-14.720 z-0.400
x6.962 y-14.748 z-0.400
x6.980 y-14.774 z-0.400
x7.000 y-14.799 z-0.400
x7.021 y-14.823 z-0.400
x7.044 y-14.846 z-0.400
x7.068 y-14.867 z-0.400
x7.093 y-14.886 z-0.400
x7.120 y-14.904 z-0.400
x7.147 y-14.920 z-0.400
x7.176 y-14.935 z-0.400
x7.205 y-14.947 z-0.400
x7.235 y-14.958 z-0.400
x7.266 y-14.967 z-0.400
x7.297 y-14.974 z-0.400
x7.328 y-14.979 z-0.400
x7.360 y-14.982 z-0.400
x7.392 y-14.983 z-0.400
x14.034 y-14.983 z-0.400
x14.034 y-19.170 z-0.400
x4.765 y-19.170 z-0.400
x4.728 y-19.171 z-0.400
x4.696 y-19.175 z-0.400
x4.665 y-19.180 z-0.400
x4.633 y-19.187 z-0.400
x4.603 y-19.196 z-0.400
x4.573 y-19.208 z-0.400
x4.544 y-19.220 z-0.400
x4.515 y-19.235 z-0.400
x4.488 y-19.252 z-0.400
x4.462 y-19.270 z-0.400
x4.437 y-19.290 z-0.400
x4.413 y-19.311 z-0.400
x4.391 y-19.334 z-0.400
x4.370 y-19.358 z-0.400
x4.350 y-19.383 z-0.400
x4.332 y-19.410 z-0.400
x4.316 y-19.437 z-0.400
x4.302 y-19.466 z-0.400
x4.290 y-19.495 z-0.400
x4.279 y-19.525 z-0.400
x4.270 y-19.556 z-0.400
x4.263 y-19.587 z-0.400
x4.259 y-19.619 z-0.400
x4.256 y-19.651 z-0.400
x4.255 y-19.683 z-0.400
x4.256 y-19.715 z-0.400
x4.259 y-19.746 z-0.400
x4.264 y-19.778 z-0.400
x4.272 y-19.809 z-0.400
x4.281 y-19.840 z-0.400
x4.292 y-19.870 z-0.400
x4.304 y-19.899 z-0.400
x4.319 y-19.927 z-0.400
x4.335 y-19.955 z-0.400
x4.353 y-19.981 z-0.400
x4.373 y-20.006 z-0.400
x4.394 y-20.030 z-0.400
x4.417 y-20.053 z-0.400
x4.441 y-20.074 z-0.400
x4.466 y-20.093 z-0.400
x4.493 y-20.111 z-0.400
x4.520 y-20.127 z-0.400
x4.549 y-20.142 z-0.400
x4.578 y-20.154 z-0.400
x4.608 y-20.165 z-0.400
x4.639 y-20.174 z-0.400
x4.670 y-20.181 z-0.400
x4.701 y-20.186 z-0.400
x4.733 y-20.189 z-0.400
x4.765 y-20.190 z-0.400
x14.332 y-20.190 z-0.400
x14.437 y-20.295 z-0.400
x14.465 y-20.320 z-0.400
x14.489 y-20.340 z-0.400
x14.515 y-20.359 z-0.400
x14.571 y-20.391 z-0.400
x14.600 y-20.404 z-0.400
x14.630 y-20.415 z-0.400
x14.660 y-20.425 z-0.400
x14.691 y-20.433 z-0.400
x14.722 y-20.438 z-0.400
x14.754 y-20.442 z-0.400
x14.786 y-20.444 z-0.400
x14.818 y-20.444 z-0.400
x14.850 y-20.441 z-0.400
x14.881 y-20.437 z-0.400
x14.913 y-20.431 z-0.400
x14.944 y-20.423 z-0.400
x14.974 y-20.413 z-0.400
x15.004 y-20.401 z-0.400
x15.032 y-20.387 z-0.400
x15.060 y-20.371 z-0.400
x15.087 y-20.354 z-0.400
x15.113 y-20.335 z-0.400
x15.137 y-20.315 z-0.400
x15.160 y-20.293 z-0.400
x15.182 y-20.269 z-0.400
x15.202 y-20.245 z-0.400
x15.221 y-20.219 z-0.400
x15.238 y-20.192 z-0.400
x15.253 y-20.164 z-0.400
x15.267 y-20.135 z-0.400
x15.278 y-20.105 z-0.400
x15.288 y-20.075 z-0.400
x15.296 y-20.044 z-0.400
x15.302 y-20.012 z-0.400
x15.306 y-19.981 z-0.400
x15.308 y-19.949 z-0.400
x15.308 y-19.917 z-0.400
x15.306 y-19.885 z-0.400
x15.302 y-19.853 z-0.400
x15.296 y-19.822 z-0.400
x15.288 y-19.791 z-0.400
x15.278 y-19.761 z-0.400
x15.266 y-19.731 z-0.400
x15.252 y-19.702 z-0.400
x15.237 y-19.674 z-0.400
x15.220 y-19.647 z-0.400
x15.201 y-19.621 z-0.400
x15.159 y-19.573 z-0.400
x15.054 y-19.468 z-0.400
x15.054 y-6.853 z-0.400
x15.053 y-6.816 z-0.400
x15.049 y-6.784 z-0.400
x15.044 y-6.753 z-0.400
x15.037 y-6.721 z-0.400
x15.028 y-6.691 z-0.400
x15.016 y-6.661 z-0.400
x15.004 y-6.632 z-0.400
x14.989 y-6.603 z-0.400
x14.972 y-6.576 z-0.400
x14.954 y-6.550 z-0.400
x14.934 y-6.525 z-0.400
x14.913 y-6.501 z-0.400
x14.890 y-6.479 z-0.400
x14.866 y-6.458 z-0.400
x14.841 y-6.438 z-0.400
x14.814 y-6.420 z-0.400
x14.787 y-6.404 z-0.400
x14.758 y-6.390 z-0.400
x14.729 y-6.378 z-0.400
x14.699 y-6.367 z-0.400
x14.668 y-6.358 z-0.400
x14.637 y-6.351 z-0.400
x14.605 y-6.347 z-0.400
x14.573 y-6.344 z-0.400
x14.541 y-6.343 z-0.400
x14.509 y-6.344 z-0.400
x14.478 y-6.347 z-0.400
x14.446 y-6.352 z-0.400
x14.415 y-6.360 z-0.400
x14.384 y-6.369 z-0.400
x14.354 y-6.380 z-0.400
x14.325 y-6.392 z-0.400
x14.297 y-6.407 z-0.400
x14.269 y-6.423 z-0.400
x14.243 y-6.441 z-0.400
x14.218 y-6.461 z-0.400
x14.194 y-6.482 z-0.400
x14.171 y-6.505 z-0.400
x14.150 y-6.529 z-0.400
x14.131 y-6.554 z-0.400
x14.113 y-6.581 z-0.400
x14.097 y-6.608 z-0.400
x14.082 y-6.637 z-0.400
x14.070 y-6.666 z-0.400
x14.059 y-6.696 z-0.400
x14.050 y-6.727 z-0.400
x14.043 y-6.758 z-0.400
x14.038 y-6.789 z-0.400
x14.035 y-6.821 z-0.400
x14.034 y-6.853 z-0.400

( Lift to 5.000 )
F2000 z5.000

( Percurso da ferramenta 0 )
( ------------------------- )

( Spindle on )
M3
S500

( Current depth = -0.400 )

( MoveToStartpoint2 )
F2000 G90 z5.000
F2000 x13.579 y-3.426 z5.000
F2000 x13.579 y-3.426 z0.000

( Loop )
G90 F500
x13.579 y-3.426 z-0.400
F500
x15.304 y-5.059 z-0.400
x15.304 y-14.473 z-0.400
x15.305 y-14.510 z-0.400
x15.309 y-14.542 z-0.400
x15.314 y-14.573 z-0.400
x15.321 y-14.605 z-0.400
x15.330 y-14.635 z-0.400
x15.342 y-14.665 z-0.400
x15.354 y-14.694 z-0.400
x15.369 y-14.723 z-0.400
x15.386 y-14.750 z-0.400
x15.404 y-14.776 z-0.400
x15.424 y-14.801 z-0.400
x15.445 y-14.825 z-0.400
x15.468 y-14.847 z-0.400
x15.492 y-14.868 z-0.400
x15.517 y-14.888 z-0.400
x15.544 y-14.906 z-0.400
x15.571 y-14.922 z-0.400
x15.600 y-14.936 z-0.400
x15.629 y-14.948 z-0.400
x15.659 y-14.959 z-0.400
x15.690 y-14.968 z-0.400
x15.722 y-14.975 z-0.400
x15.754 y-14.979 z-0.400
x15.785 y-14.982 z-0.400
x15.817 y-14.983 z-0.400
x15.849 y-14.982 z-0.400
x15.880 y-14.979 z-0.400
x15.912 y-14.974 z-0.400
x15.943 y-14.966 z-0.400
x15.974 y-14.957 z-0.400
x16.004 y-14.946 z-0.400
x16.033 y-14.934 z-0.400
x16.061 y-14.919 z-0.400
x16.089 y-14.903 z-0.400
x16.115 y-14.885 z-0.400
x16.140 y-14.865 z-0.400
x16.164 y-14.844 z-0.400
x16.187 y-14.821 z-0.400
x16.208 y-14.797 z-0.400
x16.227 y-14.772 z-0.400
x16.245 y-14.745 z-0.400
x16.261 y-14.718 z-0.400
x16.276 y-14.689 z-0.400
x16.288 y-14.660 z-0.400
x16.299 y-14.630 z-0.400
x16.308 y-14.599 z-0.400
x16.315 y-14.568 z-0.400
x16.320 y-14.537 z-0.400
x16.323 y-14.505 z-0.400
x16.324 y-14.473 z-0.400
x16.324 y-4.906 z-0.400
x17.677 y-3.553 z-0.400
x30.714 y-3.553 z-0.400
x32.448 y-5.287 z-0.400
x32.448 y-6.188 z-0.400
x32.449 y-6.214 z-0.400
x32.451 y-6.245 z-0.400
x32.456 y-6.277 z-0.400
x32.462 y-6.308 z-0.400
x32.471 y-6.339 z-0.400
x32.481 y-6.369 z-0.400
x32.494 y-6.399 z-0.400
x32.508 y-6.427 z-0.400
x32.524 y-6.455 z-0.400
x32.541 y-6.482 z-0.400
x32.560 y-6.507 z-0.400
x32.581 y-6.532 z-0.400
x32.603 y-6.554 z-0.400
x32.634 y-6.584 z-0.400
x32.662 y-6.609 z-0.400
x32.687 y-6.629 z-0.400
x32.713 y-6.647 z-0.400
x32.741 y-6.664 z-0.400
x32.769 y-6.678 z-0.400
x32.798 y-6.691 z-0.400
x32.828 y-6.702 z-0.400
x32.859 y-6.711 z-0.400
x32.890 y-6.718 z-0.400
x32.922 y-6.724 z-0.400
x32.953 y-6.727 z-0.400
x32.985 y-6.728 z-0.400
x33.017 y-6.727 z-0.400
x33.049 y-6.724 z-0.400
x33.081 y-6.720 z-0.400
x33.112 y-6.713 z-0.400
x33.143 y-6.704 z-0.400
x33.173 y-6.694 z-0.400
x33.202 y-6.681 z-0.400
x33.231 y-6.667 z-0.400
x33.258 y-6.651 z-0.400
x33.285 y-6.633 z-0.400
x33.310 y-6.614 z-0.400
x33.335 y-6.593 z-0.400
x33.357 y-6.571 z-0.400
x33.379 y-6.547 z-0.400
x33.398 y-6.522 z-0.400
x33.417 y-6.496 z-0.400
x33.433 y-6.468 z-0.400
x33.448 y-6.440 z-0.400
x33.461 y-6.411 z-0.400
x33.472 y-6.381 z-0.400
x33.481 y-6.351 z-0.400
x33.489 y-6.319 z-0.400
x33.494 y-6.288 z-0.400
x33.498 y-6.256 z-0.400
x33.499 y-6.224 z-0.400
x33.498 y-6.192 z-0.400
x33.496 y-6.161 z-0.400
x33.491 y-6.129 z-0.400
x33.485 y-6.098 z-0.400
x33.476 y-6.067 z-0.400
x33.468 y-6.043 z-0.400
x33.468 y-5.058 z-0.400
x33.466 y-5.026 z-0.400
x33.462 y-4.994 z-0.400
x33.456 y-4.963 z-0.400
x33.448 y-4.932 z-0.400
x33.438 y-4.902 z-0.400
x33.426 y-4.872 z-0.400
x33.412 y-4.843 z-0.400
x33.397 y-4.815 z-0.400
x33.380 y-4.788 z-0.400
x33.361 y-4.762 z-0.400
x33.319 y-4.714 z-0.400
x31.287 y-2.682 z-0.400
x31.274 y-2.670 z-0.400
x31.250 y-2.649 z-0.400
x31.225 y-2.630 z-0.400
x31.198 y-2.612 z-0.400
x31.171 y-2.596 z-0.400
x31.142 y-2.581 z-0.400
x31.113 y-2.569 z-0.400
x31.083 y-2.558 z-0.400
x31.052 y-2.549 z-0.400
x31.021 y-2.542 z-0.400
x30.990 y-2.537 z-0.400
x30.958 y-2.534 z-0.400
x30.926 y-2.533 z-0.400
x17.448 y-2.533 z-0.400
x17.416 y-2.535 z-0.400
x17.384 y-2.539 z-0.400
x17.353 y-2.545 z-0.400
x17.322 y-2.553 z-0.400
x17.292 y-2.563 z-0.400
x17.262 y-2.575 z-0.400
x17.233 y-2.589 z-0.400
x17.205 y-2.604 z-0.400
x17.178 y-2.621 z-0.400
x17.152 y-2.640 z-0.400
x17.104 y-2.682 z-0.400
x15.730 y-4.057 z-0.400
x14.133 y-2.546 z-0.400
x14.106 y-2.522 z-0.400
x14.081 y-2.503 z-0.400
x14.054 y-2.485 z-0.400
x14.027 y-2.469 z-0.400
x13.998 y-2.454 z-0.400
x13.969 y-2.442 z-0.400
x13.939 y-2.431 z-0.400
x13.908 y-2.422 z-0.400
x13.877 y-2.415 z-0.400
x13.846 y-2.410 z-0.400
x13.814 y-2.407 z-0.400
x13.782 y-2.406 z-0.400
x9.193 y-2.406 z-0.400
x9.161 y-2.408 z-0.400
x9.129 y-2.412 z-0.400
x9.098 y-2.418 z-0.400
x9.067 y-2.426 z-0.400
x9.037 y-2.436 z-0.400
x9.007 y-2.448 z-0.400
x8.978 y-2.462 z-0.400
x8.950 y-2.477 z-0.400
x8.923 y-2.494 z-0.400
x8.897 y-2.513 z-0.400
x8.849 y-2.555 z-0.400
x7.158 y-4.246 z-0.400
x7.146 y-4.259 z-0.400
x7.125 y-4.283 z-0.400
x7.106 y-4.308 z-0.400
x7.088 y-4.335 z-0.400
x7.072 y-4.362 z-0.400
x7.057 y-4.391 z-0.400
x7.045 y-4.420 z-0.400
x7.034 y-4.450 z-0.400
x7.025 y-4.481 z-0.400
x7.018 y-4.512 z-0.400
x7.013 y-4.543 z-0.400
x7.010 y-4.575 z-0.400
x7.009 y-4.607 z-0.400
x7.009 y-6.980 z-0.400
x7.010 y-7.017 z-0.400
x7.014 y-7.049 z-0.400
x7.019 y-7.080 z-0.400
x7.026 y-7.112 z-0.400
x7.035 y-7.142 z-0.400
x7.047 y-7.172 z-0.400
x7.059 y-7.201 z-0.400
x7.074 y-7.230 z-0.400
x7.091 y-7.257 z-0.400
x7.109 y-7.283 z-0.400
x7.129 y-7.308 z-0.400
x7.150 y-7.332 z-0.400
x7.173 y-7.354 z-0.400
x7.197 y-7.375 z-0.400
x7.222 y-7.395 z-0.400
x7.249 y-7.413 z-0.400
x7.276 y-7.429 z-0.400
x7.305 y-7.443 z-0.400
x7.334 y-7.455 z-0.400
x7.364 y-7.466 z-0.400
x7.395 y-7.475 z-0.400
x7.426 y-7.482 z-0.400
x7.458 y-7.486 z-0.400
x7.490 y-7.489 z-0.400
x7.522 y-7.490 z-0.400
x7.554 y-7.489 z-0.400
x7.585 y-7.486 z-0.400
x7.617 y-7.481 z-0.400
x7.648 y-7.473 z-0.400
x7.679 y-7.464 z-0.400
x7.709 y-7.453 z-0.400
x7.738 y-7.441 z-0.400
x7.766 y-7.426 z-0.400
x7.794 y-7.410 z-0.400
x7.820 y-7.392 z-0.400
x7.845 y-7.372 z-0.400
x7.869 y-7.351 z-0.400
x7.892 y-7.328 z-0.400
x7.913 y-7.304 z-0.400
x7.932 y-7.279 z-0.400
x7.950 y-7.252 z-0.400
x7.966 y-7.225 z-0.400
x7.981 y-7.196 z-0.400
x7.993 y-7.167 z-0.400
x8.004 y-7.137 z-0.400
x8.013 y-7.106 z-0.400
x8.020 y-7.075 z-0.400
x8.025 y-7.044 z-0.400
x8.028 y-7.012 z-0.400
x8.029 y-6.980 z-0.400
x8.029 y-4.819 z-0.400
x9.422 y-3.426 z-0.400
x13.579 y-3.426 z-0.400

( Lift to 5.000 )
F2000 z5.000

( Percurso da ferramenta 3 )
( ------------------------- )

( Spindle on )
M3
S500

( Current depth = -0.400 )

( MoveToStartpoint2 )
F2000 G90 z5.000
F2000 x20.751 y-20.444 z5.000
F2000 x20.751 y-20.444 z0.000

( Loop )
G90 F500
x20.751 y-20.444 z-0.400
F500
x20.783 y-20.444 z-0.400
x20.815 y-20.442 z-0.400
x20.847 y-20.438 z-0.400
x20.878 y-20.432 z-0.400
x20.909 y-20.424 z-0.400
x20.939 y-20.414 z-0.400
x20.969 y-20.402 z-0.400
x20.998 y-20.388 z-0.400
x21.026 y-20.373 z-0.400
x21.053 y-20.356 z-0.400
x21.079 y-20.337 z-0.400
x21.127 y-20.295 z-0.400
x23.159 y-18.263 z-0.400
x23.171 y-18.250 z-0.400
x23.192 y-18.226 z-0.400
x23.211 y-18.201 z-0.400
x23.229 y-18.174 z-0.400
x23.245 y-18.147 z-0.400
x23.260 y-18.118 z-0.400
x23.272 y-18.089 z-0.400
x23.283 y-18.059 z-0.400
x23.292 y-18.028 z-0.400
x23.299 y-17.997 z-0.400
x23.304 y-17.966 z-0.400
x23.307 y-17.934 z-0.400
x23.308 y-17.902 z-0.400
x23.308 y-10.663 z-0.400
x23.307 y-10.626 z-0.400
x23.303 y-10.594 z-0.400
x23.298 y-10.563 z-0.400
x23.291 y-10.531 z-0.400
x23.282 y-10.501 z-0.400
x23.270 y-10.471 z-0.400
x23.258 y-10.442 z-0.400
x23.243 y-10.413 z-0.400
x23.226 y-10.386 z-0.400
x23.208 y-10.360 z-0.400
x23.188 y-10.335 z-0.400
x23.167 y-10.311 z-0.400
x23.144 y-10.289 z-0.400
x23.120 y-10.268 z-0.400
x23.095 y-10.248 z-0.400
x23.068 y-10.230 z-0.400
x23.041 y-10.214 z-0.400
x23.012 y-10.200 z-0.400
x22.983 y-10.188 z-0.400
x22.953 y-10.177 z-0.400
x22.922 y-10.168 z-0.400
x22.891 y-10.161 z-0.400
x22.859 y-10.157 z-0.400
x22.827 y-10.154 z-0.400
x22.795 y-10.153 z-0.400
x22.763 y-10.154 z-0.400
x22.732 y-10.157 z-0.400
x22.700 y-10.162 z-0.400
x22.669 y-10.170 z-0.400
x22.638 y-10.179 z-0.400
x22.608 y-10.190 z-0.400
x22.579 y-10.202 z-0.400
x22.551 y-10.217 z-0.400
x22.523 y-10.233 z-0.400
x22.497 y-10.251 z-0.400
x22.472 y-10.271 z-0.400
x22.448 y-10.292 z-0.400
x22.425 y-10.315 z-0.400
x22.404 y-10.339 z-0.400
x22.385 y-10.364 z-0.400
x22.367 y-10.391 z-0.400
x22.351 y-10.418 z-0.400
x22.336 y-10.447 z-0.400
x22.324 y-10.476 z-0.400
x22.313 y-10.506 z-0.400
x22.304 y-10.537 z-0.400
x22.297 y-10.568 z-0.400
x22.292 y-10.599 z-0.400
x22.289 y-10.631 z-0.400
x22.288 y-10.661 z-0.400
x19.327 y-10.661 z-0.400
x17.594 y-8.927 z-0.400
x17.594 y-6.853 z-0.400
x17.593 y-6.816 z-0.400
x17.589 y-6.784 z-0.400
x17.584 y-6.753 z-0.400
x17.577 y-6.721 z-0.400
x17.568 y-6.691 z-0.400
x17.556 y-6.661 z-0.400
x17.544 y-6.632 z-0.400
x17.529 y-6.603 z-0.400
x17.512 y-6.576 z-0.400
x17.494 y-6.550 z-0.400
x17.474 y-6.525 z-0.400
x17.453 y-6.501 z-0.400
x17.430 y-6.479 z-0.400
x17.406 y-6.458 z-0.400
x17.381 y-6.438 z-0.400
x17.354 y-6.420 z-0.400
x17.327 y-6.404 z-0.400
x17.298 y-6.390 z-0.400
x17.269 y-6.378 z-0.400
x17.239 y-6.367 z-0.400
x17.208 y-6.358 z-0.400
x17.177 y-6.351 z-0.400
x17.145 y-6.347 z-0.400
x17.113 y-6.344 z-0.400
x17.081 y-6.343 z-0.400
x17.049 y-6.344 z-0.400
x17.018 y-6.347 z-0.400
x16.986 y-6.352 z-0.400
x16.955 y-6.360 z-0.400
x16.924 y-6.369 z-0.400
x16.894 y-6.380 z-0.400
x16.865 y-6.392 z-0.400
x16.837 y-6.407 z-0.400
x16.809 y-6.423 z-0.400
x16.783 y-6.441 z-0.400
x16.758 y-6.461 z-0.400
x16.735 y-6.482 z-0.400
x16.711 y-6.505 z-0.400
x16.690 y-6.529 z-0.400
x16.671 y-6.554 z-0.400
x16.653 y-6.581 z-0.400
x16.637 y-6.608 z-0.400
x16.622 y-6.637 z-0.400
x16.610 y-6.666 z-0.400
x16.599 y-6.696 z-0.400
x16.590 y-6.727 z-0.400
x16.583 y-6.758 z-0.400
x16.578 y-6.789 z-0.400
x16.575 y-6.821 z-0.400
x16.574 y-6.853 z-0.400
x16.574 y-9.156 z-0.400
x16.576 y-9.188 z-0.400
x16.580 y-9.220 z-0.400
x16.586 y-9.251 z-0.400
x16.594 y-9.282 z-0.400
x16.604 y-9.312 z-0.400
x16.616 y-9.342 z-0.400
x16.630 y-9.371 z-0.400
x16.645 y-9.399 z-0.400
x16.662 y-9.426 z-0.400
x16.681 y-9.452 z-0.400
x16.701 y-9.476 z-0.400
x16.723 y-9.500 z-0.400
x18.754 y-11.532 z-0.400
x18.767 y-11.544 z-0.400
x18.791 y-11.565 z-0.400
x18.816 y-11.584 z-0.400
x18.843 y-11.602 z-0.400
x18.870 y-11.618 z-0.400
x18.899 y-11.633 z-0.400
x18.928 y-11.645 z-0.400
x18.958 y-11.656 z-0.400
x18.989 y-11.665 z-0.400
x19.020 y-11.672 z-0.400
x19.051 y-11.677 z-0.400
x19.083 y-11.680 z-0.400
x19.115 y-11.681 z-0.400
x22.288 y-11.681 z-0.400
x22.288 y-17.690 z-0.400
x20.405 y-19.573 z-0.400
x20.380 y-19.601 z-0.400
x20.360 y-19.625 z-0.400
x20.341 y-19.651 z-0.400
x20.309 y-19.707 z-0.400
x20.296 y-19.736 z-0.400
x20.285 y-19.766 z-0.400
x20.275 y-19.796 z-0.400
x20.267 y-19.827 z-0.400
x20.262 y-19.858 z-0.400
x20.258 y-19.890 z-0.400
x20.256 y-19.922 z-0.400
x20.256 y-19.954 z-0.400
x20.259 y-19.986 z-0.400
x20.263 y-20.017 z-0.400
x20.269 y-20.049 z-0.400
x20.277 y-20.080 z-0.400
x20.287 y-20.110 z-0.400
x20.299 y-20.140 z-0.400
x20.313 y-20.168 z-0.400
x20.329 y-20.196 z-0.400
x20.346 y-20.223 z-0.400
x20.365 y-20.249 z-0.400
x20.385 y-20.273 z-0.400
x20.407 y-20.296 z-0.400
x20.431 y-20.318 z-0.400
x20.455 y-20.338 z-0.400
x20.481 y-20.357 z-0.400
x20.508 y-20.374 z-0.400
x20.536 y-20.389 z-0.400
x20.565 y-20.403 z-0.400
x20.595 y-20.414 z-0.400
x20.625 y-20.424 z-0.400
x20.656 y-20.432 z-0.400
x20.688 y-20.438 z-0.400
x20.719 y-20.442 z-0.400
x20.751 y-20.444 z-0.400

( Lift to 5.000 )
F2000 z5.000

( Percurso da ferramenta 5 )
( ------------------------- )

( Spindle on )
M3
S500

( Current depth = -0.400 )

( MoveToStartpoint2 )
F2000 G90 z5.000
F2000 x19.115 y-24.000 z5.000
F2000 x19.115 y-24.000 z0.000

( Loop )
G90 F500
x19.115 y-24.000 z-0.400
F500
x29.546 y-24.000 z-0.400
x29.578 y-23.998 z-0.400
x29.610 y-23.993 z-0.400
x29.641 y-23.988 z-0.400
x29.672 y-23.980 z-0.400
x29.732 y-23.958 z-0.400
x29.761 y-23.944 z-0.400
x29.789 y-23.929 z-0.400
x29.816 y-23.912 z-0.400
x29.842 y-23.893 z-0.400
x29.890 y-23.851 z-0.400
x34.208 y-19.533 z-0.400
x34.220 y-19.520 z-0.400
x34.241 y-19.496 z-0.400
x34.260 y-19.471 z-0.400
x34.278 y-19.444 z-0.400
x34.294 y-19.417 z-0.400
x34.309 y-19.388 z-0.400
x34.321 y-19.359 z-0.400
x34.332 y-19.329 z-0.400
x34.341 y-19.298 z-0.400
x34.348 y-19.267 z-0.400
x34.353 y-19.236 z-0.400
x34.356 y-19.204 z-0.400
x34.357 y-19.172 z-0.400
x34.357 y-16.361 z-0.400
x34.355 y-16.329 z-0.400
x34.351 y-16.297 z-0.400
x34.345 y-16.266 z-0.400
x34.337 y-16.235 z-0.400
x34.327 y-16.205 z-0.400
x34.315 y-16.175 z-0.400
x34.301 y-16.146 z-0.400
x34.286 y-16.118 z-0.400
x34.269 y-16.091 z-0.400
x34.250 y-16.065 z-0.400
x34.208 y-16.017 z-0.400
x33.319 y-15.128 z-0.400
x33.291 y-15.103 z-0.400
x33.267 y-15.083 z-0.400
x33.241 y-15.064 z-0.400
x33.185 y-15.032 z-0.400
x33.156 y-15.019 z-0.400
x33.126 y-15.008 z-0.400
x33.096 y-14.998 z-0.400
x33.065 y-14.990 z-0.400
x33.034 y-14.985 z-0.400
x33.002 y-14.981 z-0.400
x32.970 y-14.979 z-0.400
x32.938 y-14.979 z-0.400
x32.906 y-14.982 z-0.400
x32.875 y-14.986 z-0.400
x32.843 y-14.992 z-0.400
x32.812 y-15.000 z-0.400
x32.782 y-15.010 z-0.400
x32.752 y-15.022 z-0.400
x32.724 y-15.036 z-0.400
x32.696 y-15.052 z-0.400
x32.669 y-15.069 z-0.400
x32.643 y-15.088 z-0.400
x32.619 y-15.108 z-0.400
x32.596 y-15.130 z-0.400
x32.574 y-15.154 z-0.400
x32.554 y-15.178 z-0.400
x32.535 y-15.204 z-0.400
x32.518 y-15.231 z-0.400
x32.503 y-15.259 z-0.400
x32.489 y-15.288 z-0.400
x32.478 y-15.318 z-0.400
x32.468 y-15.348 z-0.400
x32.460 y-15.379 z-0.400
x32.454 y-15.411 z-0.400
x32.450 y-15.442 z-0.400
x32.448 y-15.474 z-0.400
x32.448 y-15.506 z-0.400
x32.450 y-15.538 z-0.400
x32.454 y-15.570 z-0.400
x32.460 y-15.601 z-0.400
x32.468 y-15.632 z-0.400
x32.478 y-15.662 z-0.400
x32.490 y-15.692 z-0.400
x32.504 y-15.721 z-0.400
x32.519 y-15.749 z-0.400
x32.536 y-15.776 z-0.400
x32.555 y-15.802 z-0.400
x32.597 y-15.851 z-0.400
x33.337 y-16.590 z-0.400
x33.337 y-18.960 z-0.400
x29.317 y-22.980 z-0.400
x19.327 y-22.980 z-0.400
x18.355 y-22.008 z-0.400
x18.355 y-17.377 z-0.400
x18.353 y-17.345 z-0.400
x18.349 y-17.314 z-0.400
x18.343 y-17.282 z-0.400
x18.335 y-17.251 z-0.400
x18.325 y-17.221 z-0.400
x18.313 y-17.191 z-0.400
x18.299 y-17.162 z-0.400
x18.284 y-17.134 z-0.400
x18.267 y-17.107 z-0.400
x18.248 y-17.082 z-0.400
x18.228 y-17.057 z-0.400
x18.206 y-17.034 z-0.400
x17.594 y-16.421 z-0.400
x17.594 y-14.473 z-0.400
x17.593 y-14.436 z-0.400
x17.589 y-14.404 z-0.400
x17.584 y-14.373 z-0.400
x17.577 y-14.341 z-0.400
x17.568 y-14.311 z-0.400
x17.556 y-14.281 z-0.400
x17.544 y-14.252 z-0.400
x17.529 y-14.223 z-0.400
x17.512 y-14.196 z-0.400
x17.494 y-14.170 z-0.400
x17.474 y-14.145 z-0.400
x17.453 y-14.121 z-0.400
x17.430 y-14.099 z-0.400
x17.406 y-14.078 z-0.400
x17.381 y-14.058 z-0.400
x17.354 y-14.040 z-0.400
x17.327 y-14.024 z-0.400
x17.298 y-14.010 z-0.400
x17.269 y-13.998 z-0.400
x17.239 y-13.987 z-0.400
x17.208 y-13.978 z-0.400
x17.177 y-13.971 z-0.400
x17.145 y-13.967 z-0.400
x17.113 y-13.964 z-0.400
x17.081 y-13.963 z-0.400
x17.049 y-13.964 z-0.400
x17.018 y-13.967 z-0.400
x16.986 y-13.972 z-0.400
x16.955 y-13.980 z-0.400
x16.924 y-13.989 z-0.400
x16.894 y-14.000 z-0.400
x16.865 y-14.012 z-0.400
x16.837 y-14.027 z-0.400
x16.809 y-14.043 z-0.400
x16.783 y-14.061 z-0.400
x16.758 y-14.081 z-0.400
x16.735 y-14.102 z-0.400
x16.711 y-14.125 z-0.400
x16.690 y-14.149 z-0.400
x16.671 y-14.174 z-0.400
x16.653 y-14.201 z-0.400
x16.637 y-14.228 z-0.400
x16.622 y-14.257 z-0.400
x16.610 y-14.286 z-0.400
x16.599 y-14.316 z-0.400
x16.590 y-14.347 z-0.400
x16.583 y-14.378 z-0.400
x16.578 y-14.409 z-0.400
x16.575 y-14.441 z-0.400
x16.574 y-14.473 z-0.400
x16.574 y-16.649 z-0.400
x16.576 y-16.681 z-0.400
x16.580 y-16.712 z-0.400
x16.586 y-16.744 z-0.400
x16.594 y-16.775 z-0.400
x16.604 y-16.805 z-0.400
x16.616 y-16.835 z-0.400
x16.630 y-16.864 z-0.400
x16.645 y-16.892 z-0.400
x16.662 y-16.919 z-0.400
x16.681 y-16.944 z-0.400
x16.701 y-16.969 z-0.400
x16.723 y-16.992 z-0.400
x17.335 y-17.605 z-0.400
x17.335 y-22.237 z-0.400
x17.337 y-22.269 z-0.400
x17.341 y-22.301 z-0.400
x17.347 y-22.332 z-0.400
x17.355 y-22.363 z-0.400
x17.365 y-22.393 z-0.400
x17.377 y-22.423 z-0.400
x17.391 y-22.452 z-0.400
x17.406 y-22.480 z-0.400
x17.423 y-22.507 z-0.400
x17.442 y-22.533 z-0.400
x17.484 y-22.581 z-0.400
x18.754 y-23.851 z-0.400
x18.767 y-23.863 z-0.400
x18.791 y-23.884 z-0.400
x18.816 y-23.903 z-0.400
x18.843 y-23.921 z-0.400
x18.870 y-23.937 z-0.400
x18.899 y-23.952 z-0.400
x18.928 y-23.964 z-0.400
x18.958 y-23.975 z-0.400
x18.989 y-23.984 z-0.400
x19.020 y-23.991 z-0.400
x19.051 y-23.996 z-0.400
x19.083 y-23.999 z-0.400
x19.115 y-24.000 z-0.400

( Lift to 5.000 )
F2000 z5.000

( Percurso da ferramenta 2 )
( ------------------------- )

( Spindle on )
M3
S500

( Current depth = -0.400 )

( MoveToStartpoint2 )
F2000 G90 z5.000
F2000 x4.638 y-25.524 z5.000
F2000 x4.638 y-25.524 z0.000

( Loop )
G90 F500
x4.638 y-25.524 z-0.400
F500
x30.181 y-25.524 z-0.400
x30.213 y-25.522 z-0.400
x30.245 y-25.518 z-0.400
x30.276 y-25.512 z-0.400
x30.307 y-25.504 z-0.400
x30.337 y-25.494 z-0.400
x30.367 y-25.482 z-0.400
x30.396 y-25.468 z-0.400
x30.424 y-25.453 z-0.400
x30.451 y-25.436 z-0.400
x30.477 y-25.417 z-0.400
x30.501 y-25.397 z-0.400
x30.525 y-25.375 z-0.400
x35.706 y-20.195 z-0.400
x35.718 y-20.182 z-0.400
x35.739 y-20.158 z-0.400
x35.758 y-20.133 z-0.400
x35.776 y-20.106 z-0.400
x35.792 y-20.079 z-0.400
x35.807 y-20.050 z-0.400
x35.819 y-20.021 z-0.400
x35.830 y-19.991 z-0.400
x35.839 y-19.960 z-0.400
x35.846 y-19.929 z-0.400
x35.851 y-19.898 z-0.400
x35.854 y-19.866 z-0.400
x35.855 y-19.834 z-0.400
x35.855 y-13.160 z-0.400
x35.853 y-13.128 z-0.400
x35.849 y-13.096 z-0.400
x35.843 y-13.065 z-0.400
x35.835 y-13.034 z-0.400
x35.825 y-13.004 z-0.400
x35.813 y-12.974 z-0.400
x35.799 y-12.945 z-0.400
x35.784 y-12.917 z-0.400
x35.767 y-12.890 z-0.400
x35.748 y-12.864 z-0.400
x35.706 y-12.816 z-0.400
x33.319 y-10.429 z-0.400
x33.291 y-10.404 z-0.400
x33.267 y-10.384 z-0.400
x33.241 y-10.365 z-0.400
x33.185 y-10.333 z-0.400
x33.156 y-10.320 z-0.400
x33.126 y-10.309 z-0.400
x33.096 y-10.299 z-0.400
x33.065 y-10.291 z-0.400
x33.034 y-10.286 z-0.400
x33.002 y-10.282 z-0.400
x32.970 y-10.280 z-0.400
x32.938 y-10.280 z-0.400
x32.906 y-10.283 z-0.400
x32.875 y-10.287 z-0.400
x32.843 y-10.293 z-0.400
x32.812 y-10.301 z-0.400
x32.811 y-10.301 z-0.400
x28.366 y-5.857 z-0.400
x28.353 y-5.845 z-0.400
x28.329 y-5.824 z-0.400
x28.304 y-5.805 z-0.400
x28.277 y-5.787 z-0.400
x28.250 y-5.771 z-0.400
x28.221 y-5.756 z-0.400
x28.192 y-5.744 z-0.400
x28.162 y-5.733 z-0.400
x28.131 y-5.724 z-0.400
x28.100 y-5.717 z-0.400
x28.069 y-5.712 z-0.400
x28.037 y-5.709 z-0.400
x28.005 y-5.708 z-0.400
x22.829 y-5.708 z-0.400
x22.792 y-5.709 z-0.400
x22.760 y-5.713 z-0.400
x22.729 y-5.718 z-0.400
x22.697 y-5.725 z-0.400
x22.667 y-5.734 z-0.400
x22.637 y-5.746 z-0.400
x22.608 y-5.758 z-0.400
x22.579 y-5.773 z-0.400
x22.552 y-5.790 z-0.400
x22.526 y-5.808 z-0.400
x22.501 y-5.828 z-0.400
x22.477 y-5.849 z-0.400
x22.455 y-5.872 z-0.400
x22.434 y-5.896 z-0.400
x22.414 y-5.921 z-0.400
x22.396 y-5.948 z-0.400
x22.380 y-5.975 z-0.400
x22.366 y-6.004 z-0.400
x22.354 y-6.033 z-0.400
x22.343 y-6.063 z-0.400
x22.334 y-6.094 z-0.400
x22.327 y-6.125 z-0.400
x22.323 y-6.157 z-0.400
x22.320 y-6.189 z-0.400
x22.319 y-6.221 z-0.400
x22.320 y-6.253 z-0.400
x22.323 y-6.284 z-0.400
x22.328 y-6.316 z-0.400
x22.336 y-6.347 z-0.400
x22.345 y-6.378 z-0.400
x22.356 y-6.408 z-0.400
x22.368 y-6.437 z-0.400
x22.383 y-6.465 z-0.400
x22.399 y-6.493 z-0.400
x22.417 y-6.519 z-0.400
x22.437 y-6.544 z-0.400
x22.458 y-6.568 z-0.400
x22.481 y-6.591 z-0.400
x22.505 y-6.612 z-0.400
x22.530 y-6.631 z-0.400
x22.557 y-6.649 z-0.400
x22.584 y-6.665 z-0.400
x22.613 y-6.680 z-0.400
x22.642 y-6.692 z-0.400
x22.672 y-6.703 z-0.400
x22.703 y-6.712 z-0.400
x22.734 y-6.719 z-0.400
x22.765 y-6.724 z-0.400
x22.797 y-6.727 z-0.400
x22.829 y-6.728 z-0.400
x27.793 y-6.728 z-0.400
x32.597 y-11.532 z-0.400
x32.625 y-11.557 z-0.400
x32.649 y-11.577 z-0.400
x32.675 y-11.596 z-0.400
x32.731 y-11.628 z-0.400
x32.760 y-11.641 z-0.400
x32.790 y-11.652 z-0.400
x32.820 y-11.662 z-0.400
x32.851 y-11.670 z-0.400
x32.882 y-11.675 z-0.400
x32.914 y-11.679 z-0.400
x32.946 y-11.681 z-0.400
x32.978 y-11.681 z-0.400
x33.010 y-11.678 z-0.400
x33.041 y-11.674 z-0.400
x33.073 y-11.668 z-0.400
x33.104 y-11.660 z-0.400
x33.106 y-11.659 z-0.400
x34.835 y-13.389 z-0.400
x34.835 y-19.622 z-0.400
x29.952 y-24.504 z-0.400
x4.850 y-24.504 z-0.400
x2.902 y-22.556 z-0.400
x2.902 y-14.473 z-0.400
x2.901 y-14.436 z-0.400
x2.897 y-14.404 z-0.400
x2.892 y-14.373 z-0.400
x2.885 y-14.341 z-0.400
x2.876 y-14.311 z-0.400
x2.864 y-14.281 z-0.400
x2.852 y-14.252 z-0.400
x2.837 y-14.223 z-0.400
x2.820 y-14.196 z-0.400
x2.802 y-14.170 z-0.400
x2.782 y-14.145 z-0.400
x2.761 y-14.121 z-0.400
x2.738 y-14.099 z-0.400
x2.714 y-14.078 z-0.400
x2.689 y-14.058 z-0.400
x2.662 y-14.040 z-0.400
x2.635 y-14.024 z-0.400
x2.606 y-14.010 z-0.400
x2.577 y-13.998 z-0.400
x2.547 y-13.987 z-0.400
x2.516 y-13.978 z-0.400
x2.485 y-13.971 z-0.400
x2.453 y-13.967 z-0.400
x2.421 y-13.964 z-0.400
x2.389 y-13.963 z-0.400
x2.357 y-13.964 z-0.400
x2.326 y-13.967 z-0.400
x2.294 y-13.972 z-0.400
x2.263 y-13.980 z-0.400
x2.232 y-13.989 z-0.400
x2.202 y-14.000 z-0.400
x2.173 y-14.012 z-0.400
x2.145 y-14.027 z-0.400
x2.117 y-14.043 z-0.400
x2.091 y-14.061 z-0.400
x2.066 y-14.081 z-0.400
x2.042 y-14.102 z-0.400
x2.019 y-14.125 z-0.400
x1.998 y-14.149 z-0.400
x1.979 y-14.174 z-0.400
x1.961 y-14.201 z-0.400
x1.945 y-14.228 z-0.400
x1.930 y-14.257 z-0.400
x1.918 y-14.286 z-0.400
x1.907 y-14.316 z-0.400
x1.898 y-14.347 z-0.400
x1.891 y-14.378 z-0.400
x1.886 y-14.409 z-0.400
x1.883 y-14.441 z-0.400
x1.882 y-14.473 z-0.400
x1.882 y-22.855 z-0.400
x1.883 y-22.890 z-0.400
x1.886 y-22.921 z-0.400
x1.891 y-22.953 z-0.400
x1.899 y-22.984 z-0.400
x1.908 y-23.015 z-0.400
x1.919 y-23.045 z-0.400
x1.931 y-23.074 z-0.400
x1.946 y-23.102 z-0.400
x1.962 y-23.130 z-0.400
x1.980 y-23.156 z-0.400
x2.000 y-23.181 z-0.400
x2.021 y-23.205 z-0.400
x2.044 y-23.228 z-0.400
x2.068 y-23.249 z-0.400
x2.093 y-23.268 z-0.400
x2.120 y-23.286 z-0.400
x2.147 y-23.302 z-0.400
x2.176 y-23.317 z-0.400
x2.205 y-23.329 z-0.400
x2.235 y-23.340 z-0.400
x2.245 y-23.343 z-0.400
x4.277 y-25.375 z-0.400
x4.290 y-25.387 z-0.400
x4.314 y-25.408 z-0.400
x4.339 y-25.427 z-0.400
x4.366 y-25.445 z-0.400
x4.393 y-25.461 z-0.400
x4.422 y-25.476 z-0.400
x4.451 y-25.488 z-0.400
x4.481 y-25.499 z-0.400
x4.512 y-25.508 z-0.400
x4.543 y-25.515 z-0.400
x4.574 y-25.520 z-0.400
x4.606 y-25.523 z-0.400
x4.638 y-25.524 z-0.400

( Lift to 5.000 )
F2000 z5.000

( Program end, back to origin )
G90 F2000 z5.000

( Spindle off )
M5
F2000 x0.000 y0.000 z5.000
