( Created by GrblGru )
( 24.03.2024 23:50:48 )



( Additional commands from settings )
G1 F200 Z25
G4 P2

( Job: Solder Tracks  -> None 3.175mm )
( ------------------------------- )

( Job mode = 0, CUT )
( Type of tool = 0, SPINDLE )

( TransformationTyp = NONE )
( Plano de segurança = 5 )
( Soma da profundidade = 0.4 )
( Profundidade por passo = 0.4 )
( Rampa de Mergulho = 0 )
( Tamanho de partição = 2 )
( Avanço de corte = 500 )
( Avanço rápido = 2000 )
( Avanço de mergulho = 500 )
( Tool = V-carve 60° x 10 )
( Tool diameter = 10 )



G1 G90 F100

( Percurso da ferramenta 0 )
( ------------------------- )

( Spindle on )
M3
S500

( Current depth = -0.400 )

( MoveToStartpoint2 )
F2000 G90 z5.000
F2000 x20.060 y-3.553 z5.000
F2000 x20.060 y-3.553 z0.000

( Loop )
G90 F500
x20.060 y-3.553 z-0.400
F500
x21.413 y-4.906 z-0.400
x21.413 y-14.473 z-0.400
x21.414 y-14.510 z-0.400
x21.418 y-14.542 z-0.400
x21.423 y-14.573 z-0.400
x21.430 y-14.605 z-0.400
x21.439 y-14.635 z-0.400
x21.451 y-14.665 z-0.400
x21.463 y-14.694 z-0.400
x21.478 y-14.723 z-0.400
x21.495 y-14.750 z-0.400
x21.513 y-14.776 z-0.400
x21.533 y-14.801 z-0.400
x21.554 y-14.825 z-0.400
x21.577 y-14.847 z-0.400
x21.601 y-14.868 z-0.400
x21.626 y-14.888 z-0.400
x21.653 y-14.906 z-0.400
x21.680 y-14.922 z-0.400
x21.709 y-14.936 z-0.400
x21.738 y-14.948 z-0.400
x21.768 y-14.959 z-0.400
x21.799 y-14.968 z-0.400
x21.830 y-14.975 z-0.400
x21.862 y-14.979 z-0.400
x21.894 y-14.982 z-0.400
x21.926 y-14.983 z-0.400
x21.958 y-14.982 z-0.400
x21.989 y-14.979 z-0.400
x22.021 y-14.974 z-0.400
x22.051 y-14.966 z-0.400
x22.083 y-14.957 z-0.400
x22.113 y-14.946 z-0.400
x22.142 y-14.934 z-0.400
x22.170 y-14.919 z-0.400
x22.198 y-14.903 z-0.400
x22.224 y-14.885 z-0.400
x22.249 y-14.865 z-0.400
x22.273 y-14.844 z-0.400
x22.296 y-14.821 z-0.400
x22.317 y-14.797 z-0.400
x22.336 y-14.772 z-0.400
x22.354 y-14.745 z-0.400
x22.370 y-14.718 z-0.400
x22.385 y-14.689 z-0.400
x22.397 y-14.660 z-0.400
x22.408 y-14.630 z-0.400
x22.417 y-14.599 z-0.400
x22.424 y-14.568 z-0.400
x22.429 y-14.537 z-0.400
x22.432 y-14.505 z-0.400
x22.433 y-14.473 z-0.400
x22.433 y-5.059 z-0.400
x24.158 y-3.426 z-0.400
x28.315 y-3.426 z-0.400
x29.708 y-4.819 z-0.400
x29.708 y-6.980 z-0.400
x29.709 y-7.017 z-0.400
x29.713 y-7.049 z-0.400
x29.718 y-7.080 z-0.400
x29.725 y-7.112 z-0.400
x29.734 y-7.142 z-0.400
x29.746 y-7.172 z-0.400
x29.758 y-7.201 z-0.400
x29.773 y-7.230 z-0.400
x29.790 y-7.257 z-0.400
x29.808 y-7.283 z-0.400
x29.828 y-7.308 z-0.400
x29.849 y-7.332 z-0.400
x29.872 y-7.354 z-0.400
x29.896 y-7.375 z-0.400
x29.921 y-7.395 z-0.400
x29.948 y-7.413 z-0.400
x29.975 y-7.429 z-0.400
x30.004 y-7.443 z-0.400
x30.033 y-7.455 z-0.400
x30.063 y-7.466 z-0.400
x30.094 y-7.475 z-0.400
x30.125 y-7.482 z-0.400
x30.157 y-7.486 z-0.400
x30.189 y-7.489 z-0.400
x30.221 y-7.490 z-0.400
x30.253 y-7.489 z-0.400
x30.284 y-7.486 z-0.400
x30.316 y-7.481 z-0.400
x30.347 y-7.473 z-0.400
x30.378 y-7.464 z-0.400
x30.408 y-7.453 z-0.400
x30.437 y-7.441 z-0.400
x30.465 y-7.426 z-0.400
x30.493 y-7.410 z-0.400
x30.519 y-7.392 z-0.400
x30.544 y-7.372 z-0.400
x30.568 y-7.351 z-0.400
x30.591 y-7.328 z-0.400
x30.612 y-7.304 z-0.400
x30.631 y-7.279 z-0.400
x30.649 y-7.252 z-0.400
x30.665 y-7.225 z-0.400
x30.680 y-7.196 z-0.400
x30.692 y-7.167 z-0.400
x30.703 y-7.137 z-0.400
x30.712 y-7.106 z-0.400
x30.719 y-7.075 z-0.400
x30.724 y-7.044 z-0.400
x30.727 y-7.012 z-0.400
x30.728 y-6.980 z-0.400
x30.728 y-4.590 z-0.400
x30.726 y-4.558 z-0.400
x30.722 y-4.526 z-0.400
x30.716 y-4.495 z-0.400
x30.708 y-4.464 z-0.400
x30.698 y-4.434 z-0.400
x30.686 y-4.404 z-0.400
x30.672 y-4.375 z-0.400
x30.657 y-4.347 z-0.400
x30.640 y-4.320 z-0.400
x30.621 y-4.294 z-0.400
x30.579 y-4.246 z-0.400
x28.888 y-2.555 z-0.400
x28.875 y-2.543 z-0.400
x28.851 y-2.522 z-0.400
x28.826 y-2.503 z-0.400
x28.799 y-2.485 z-0.400
x28.772 y-2.469 z-0.400
x28.743 y-2.454 z-0.400
x28.714 y-2.442 z-0.400
x28.684 y-2.431 z-0.400
x28.653 y-2.422 z-0.400
x28.622 y-2.415 z-0.400
x28.591 y-2.410 z-0.400
x28.559 y-2.407 z-0.400
x28.527 y-2.406 z-0.400
x23.955 y-2.406 z-0.400
x23.920 y-2.407 z-0.400
x23.888 y-2.410 z-0.400
x23.857 y-2.416 z-0.400
x23.825 y-2.423 z-0.400
x23.795 y-2.432 z-0.400
x23.765 y-2.443 z-0.400
x23.736 y-2.456 z-0.400
x23.707 y-2.470 z-0.400
x23.680 y-2.487 z-0.400
x23.653 y-2.505 z-0.400
x23.628 y-2.524 z-0.400
x23.604 y-2.546 z-0.400
x22.008 y-4.057 z-0.400
x20.633 y-2.682 z-0.400
x20.620 y-2.670 z-0.400
x20.596 y-2.649 z-0.400
x20.571 y-2.630 z-0.400
x20.544 y-2.612 z-0.400
x20.517 y-2.596 z-0.400
x20.488 y-2.581 z-0.400
x20.459 y-2.569 z-0.400
x20.429 y-2.558 z-0.400
x20.398 y-2.549 z-0.400
x20.367 y-2.542 z-0.400
x20.336 y-2.537 z-0.400
x20.304 y-2.534 z-0.400
x20.272 y-2.533 z-0.400
x6.793 y-2.533 z-0.400
x6.761 y-2.535 z-0.400
x6.729 y-2.539 z-0.400
x6.698 y-2.545 z-0.400
x6.667 y-2.553 z-0.400
x6.637 y-2.563 z-0.400
x6.607 y-2.575 z-0.400
x6.578 y-2.589 z-0.400
x6.550 y-2.604 z-0.400
x6.523 y-2.621 z-0.400
x6.497 y-2.640 z-0.400
x6.449 y-2.682 z-0.400
x4.417 y-4.714 z-0.400
x4.405 y-4.727 z-0.400
x4.384 y-4.751 z-0.400
x4.365 y-4.776 z-0.400
x4.347 y-4.803 z-0.400
x4.331 y-4.830 z-0.400
x4.316 y-4.859 z-0.400
x4.304 y-4.888 z-0.400
x4.293 y-4.918 z-0.400
x4.284 y-4.949 z-0.400
x4.277 y-4.980 z-0.400
x4.272 y-5.011 z-0.400
x4.269 y-5.043 z-0.400
x4.268 y-5.075 z-0.400
x4.268 y-6.047 z-0.400
x4.257 y-6.080 z-0.400
x4.249 y-6.111 z-0.400
x4.244 y-6.142 z-0.400
x4.240 y-6.174 z-0.400
x4.238 y-6.206 z-0.400
x4.238 y-6.238 z-0.400
x4.241 y-6.270 z-0.400
x4.245 y-6.301 z-0.400
x4.251 y-6.333 z-0.400
x4.259 y-6.364 z-0.400
x4.269 y-6.394 z-0.400
x4.281 y-6.424 z-0.400
x4.295 y-6.452 z-0.400
x4.311 y-6.480 z-0.400
x4.328 y-6.507 z-0.400
x4.347 y-6.533 z-0.400
x4.367 y-6.557 z-0.400
x4.389 y-6.580 z-0.400
x4.413 y-6.602 z-0.400
x4.437 y-6.622 z-0.400
x4.463 y-6.641 z-0.400
x4.490 y-6.658 z-0.400
x4.518 y-6.673 z-0.400
x4.547 y-6.687 z-0.400
x4.577 y-6.698 z-0.400
x4.607 y-6.708 z-0.400
x4.638 y-6.716 z-0.400
x4.670 y-6.722 z-0.400
x4.701 y-6.726 z-0.400
x4.733 y-6.728 z-0.400
x4.765 y-6.728 z-0.400
x4.797 y-6.726 z-0.400
x4.829 y-6.722 z-0.400
x4.860 y-6.716 z-0.400
x4.891 y-6.708 z-0.400
x4.921 y-6.698 z-0.400
x4.951 y-6.686 z-0.400
x4.980 y-6.672 z-0.400
x5.008 y-6.657 z-0.400
x5.035 y-6.640 z-0.400
x5.061 y-6.621 z-0.400
x5.109 y-6.579 z-0.400
x5.139 y-6.549 z-0.400
x5.151 y-6.536 z-0.400
x5.172 y-6.512 z-0.400
x5.191 y-6.487 z-0.400
x5.209 y-6.460 z-0.400
x5.225 y-6.433 z-0.400
x5.240 y-6.404 z-0.400
x5.252 y-6.375 z-0.400
x5.263 y-6.345 z-0.400
x5.272 y-6.314 z-0.400
x5.279 y-6.283 z-0.400
x5.284 y-6.252 z-0.400
x5.287 y-6.220 z-0.400
x5.288 y-6.188 z-0.400
x5.288 y-5.287 z-0.400
x7.022 y-3.553 z-0.400
x20.060 y-3.553 z-0.400

( Lift to 5.000 )
F2000 z5.000

( Percurso da ferramenta 4 )
( ------------------------- )

( Spindle on )
M3
S500

( Current depth = -0.400 )

( MoveToStartpoint2 )
F2000 G90 z5.000
F2000 x30.345 y-13.963 z5.000
F2000 x30.345 y-13.963 z0.000

( Loop )
G90 F500
x30.345 y-13.963 z-0.400
F500
x23.703 y-13.963 z-0.400
x23.703 y-6.853 z-0.400
x23.702 y-6.816 z-0.400
x23.698 y-6.784 z-0.400
x23.693 y-6.753 z-0.400
x23.686 y-6.721 z-0.400
x23.677 y-6.691 z-0.400
x23.665 y-6.661 z-0.400
x23.653 y-6.632 z-0.400
x23.638 y-6.603 z-0.400
x23.621 y-6.576 z-0.400
x23.603 y-6.550 z-0.400
x23.583 y-6.525 z-0.400
x23.562 y-6.501 z-0.400
x23.539 y-6.479 z-0.400
x23.515 y-6.458 z-0.400
x23.490 y-6.438 z-0.400
x23.463 y-6.420 z-0.400
x23.436 y-6.404 z-0.400
x23.407 y-6.390 z-0.400
x23.378 y-6.378 z-0.400
x23.348 y-6.367 z-0.400
x23.317 y-6.358 z-0.400
x23.286 y-6.351 z-0.400
x23.254 y-6.347 z-0.400
x23.222 y-6.344 z-0.400
x23.190 y-6.343 z-0.400
x23.158 y-6.344 z-0.400
x23.127 y-6.347 z-0.400
x23.095 y-6.352 z-0.400
x23.064 y-6.360 z-0.400
x23.033 y-6.369 z-0.400
x23.003 y-6.380 z-0.400
x22.974 y-6.392 z-0.400
x22.946 y-6.407 z-0.400
x22.918 y-6.423 z-0.400
x22.892 y-6.441 z-0.400
x22.867 y-6.461 z-0.400
x22.843 y-6.482 z-0.400
x22.820 y-6.505 z-0.400
x22.799 y-6.529 z-0.400
x22.780 y-6.554 z-0.400
x22.762 y-6.581 z-0.400
x22.746 y-6.608 z-0.400
x22.731 y-6.637 z-0.400
x22.719 y-6.666 z-0.400
x22.708 y-6.696 z-0.400
x22.699 y-6.727 z-0.400
x22.692 y-6.758 z-0.400
x22.687 y-6.789 z-0.400
x22.684 y-6.821 z-0.400
x22.683 y-6.853 z-0.400
x22.683 y-17.541 z-0.400
x22.630 y-17.545 z-0.400
x22.592 y-17.550 z-0.400
x22.561 y-17.555 z-0.400
x22.296 y-17.612 z-0.400
x22.255 y-17.623 z-0.400
x22.224 y-17.633 z-0.400
x21.970 y-17.728 z-0.400
x21.933 y-17.744 z-0.400
x21.905 y-17.758 z-0.400
x21.667 y-17.889 z-0.400
x21.631 y-17.910 z-0.400
x21.605 y-17.929 z-0.400
x21.388 y-18.091 z-0.400
x21.357 y-18.117 z-0.400
x21.333 y-18.138 z-0.400
x21.142 y-18.329 z-0.400
x21.115 y-18.359 z-0.400
x21.095 y-18.384 z-0.400
x20.932 y-18.601 z-0.400
x20.909 y-18.635 z-0.400
x20.892 y-18.663 z-0.400
x20.762 y-18.901 z-0.400
x20.744 y-18.937 z-0.400
x20.732 y-18.966 z-0.400
x20.637 y-19.220 z-0.400
x20.624 y-19.261 z-0.400
x20.616 y-19.292 z-0.400
x20.559 y-19.557 z-0.400
x20.552 y-19.596 z-0.400
x20.549 y-19.628 z-0.400
x20.530 y-19.898 z-0.400
x20.529 y-19.935 z-0.400
x20.530 y-19.967 z-0.400
x20.530 y-19.972 z-0.400
x20.549 y-20.240 z-0.400
x20.554 y-20.280 z-0.400
x20.559 y-20.311 z-0.400
x20.616 y-20.576 z-0.400
x20.627 y-20.617 z-0.400
x20.637 y-20.648 z-0.400
x20.732 y-20.902 z-0.400
x20.748 y-20.938 z-0.400
x20.762 y-20.967 z-0.400
x20.892 y-21.205 z-0.400
x20.914 y-21.241 z-0.400
x20.932 y-21.267 z-0.400
x21.095 y-21.484 z-0.400
x21.121 y-21.515 z-0.400
x21.142 y-21.539 z-0.400
x21.333 y-21.730 z-0.400
x21.363 y-21.757 z-0.400
x21.388 y-21.777 z-0.400
x21.605 y-21.939 z-0.400
x21.639 y-21.963 z-0.400
x21.667 y-21.979 z-0.400
x21.905 y-22.110 z-0.400
x21.941 y-22.128 z-0.400
x21.970 y-22.140 z-0.400
x22.224 y-22.235 z-0.400
x22.265 y-22.248 z-0.400
x22.296 y-22.256 z-0.400
x22.561 y-22.313 z-0.400
x22.599 y-22.319 z-0.400
x22.630 y-22.323 z-0.400
x22.901 y-22.343 z-0.400
x22.945 y-22.344 z-0.400
x22.977 y-22.343 z-0.400
x23.247 y-22.323 z-0.400
x23.285 y-22.318 z-0.400
x23.316 y-22.313 z-0.400
x23.581 y-22.256 z-0.400
x23.622 y-22.245 z-0.400
x23.653 y-22.235 z-0.400
x23.907 y-22.140 z-0.400
x23.944 y-22.124 z-0.400
x23.972 y-22.110 z-0.400
x24.210 y-21.979 z-0.400
x24.246 y-21.958 z-0.400
x24.272 y-21.939 z-0.400
x24.489 y-21.777 z-0.400
x24.520 y-21.751 z-0.400
x24.544 y-21.730 z-0.400
x24.735 y-21.539 z-0.400
x24.762 y-21.509 z-0.400
x24.782 y-21.484 z-0.400
x24.945 y-21.267 z-0.400
x24.968 y-21.233 z-0.400
x24.985 y-21.205 z-0.400
x25.115 y-20.967 z-0.400
x25.133 y-20.931 z-0.400
x25.145 y-20.902 z-0.400
x25.240 y-20.648 z-0.400
x25.253 y-20.607 z-0.400
x25.261 y-20.576 z-0.400
x25.318 y-20.311 z-0.400
x25.324 y-20.273 z-0.400
x25.328 y-20.242 z-0.400
x25.332 y-20.190 z-0.400
x31.659 y-20.190 z-0.400
x31.664 y-20.204 z-0.400
x31.679 y-20.244 z-0.400
x31.692 y-20.273 z-0.400
x31.707 y-20.301 z-0.400
x31.801 y-20.464 z-0.400
x31.825 y-20.502 z-0.400
x31.844 y-20.527 z-0.400
x31.865 y-20.552 z-0.400
x31.991 y-20.691 z-0.400
x32.020 y-20.720 z-0.400
x32.044 y-20.741 z-0.400
x32.070 y-20.761 z-0.400
x32.223 y-20.872 z-0.400
x32.258 y-20.896 z-0.400
x32.286 y-20.911 z-0.400
x32.315 y-20.925 z-0.400
x32.486 y-21.001 z-0.400
x32.523 y-21.016 z-0.400
x32.554 y-21.026 z-0.400
x32.585 y-21.033 z-0.400
x32.769 y-21.073 z-0.400
x32.813 y-21.081 z-0.400
x32.845 y-21.084 z-0.400
x32.877 y-21.085 z-0.400
x33.066 y-21.085 z-0.400
x33.111 y-21.083 z-0.400
x33.143 y-21.079 z-0.400
x33.174 y-21.073 z-0.400
x33.358 y-21.033 z-0.400
x33.396 y-21.024 z-0.400
x33.427 y-21.013 z-0.400
x33.456 y-21.001 z-0.400
x33.628 y-20.925 z-0.400
x33.669 y-20.905 z-0.400
x33.696 y-20.889 z-0.400
x33.723 y-20.871 z-0.400
x33.875 y-20.760 z-0.400
x33.906 y-20.735 z-0.400
x33.930 y-20.713 z-0.400
x33.952 y-20.691 z-0.400
x34.078 y-20.552 z-0.400
x34.107 y-20.517 z-0.400
x34.125 y-20.491 z-0.400
x34.142 y-20.464 z-0.400
x34.236 y-20.301 z-0.400
x34.255 y-20.263 z-0.400
x34.268 y-20.234 z-0.400
x34.279 y-20.204 z-0.400
x34.337 y-20.026 z-0.400
x34.348 y-19.985 z-0.400
x34.355 y-19.954 z-0.400
x34.359 y-19.922 z-0.400
x34.379 y-19.734 z-0.400
x34.382 y-19.690 z-0.400
x34.382 y-19.658 z-0.400
x34.379 y-19.626 z-0.400
x34.359 y-19.439 z-0.400
x34.353 y-19.398 z-0.400
x34.346 y-19.366 z-0.400
x34.337 y-19.336 z-0.400
x34.279 y-19.157 z-0.400
x34.264 y-19.116 z-0.400
x34.251 y-19.087 z-0.400
x34.236 y-19.059 z-0.400
x34.142 y-18.896 z-0.400
x34.118 y-18.858 z-0.400
x34.099 y-18.833 z-0.400
x34.078 y-18.808 z-0.400
x33.952 y-18.669 z-0.400
x33.924 y-18.641 z-0.400
x33.900 y-18.620 z-0.400
x33.875 y-18.600 z-0.400
x33.723 y-18.489 z-0.400
x33.685 y-18.464 z-0.400
x33.657 y-18.448 z-0.400
x33.628 y-18.435 z-0.400
x33.456 y-18.359 z-0.400
x33.420 y-18.344 z-0.400
x33.389 y-18.334 z-0.400
x33.358 y-18.327 z-0.400
x33.174 y-18.287 z-0.400
x33.130 y-18.279 z-0.400
x33.098 y-18.276 z-0.400
x33.066 y-18.275 z-0.400
x32.877 y-18.275 z-0.400
x32.832 y-18.277 z-0.400
x32.800 y-18.281 z-0.400
x32.769 y-18.287 z-0.400
x32.585 y-18.327 z-0.400
x32.546 y-18.337 z-0.400
x32.515 y-18.347 z-0.400
x32.486 y-18.359 z-0.400
x32.315 y-18.435 z-0.400
x32.276 y-18.454 z-0.400
x32.249 y-18.470 z-0.400
x32.223 y-18.488 z-0.400
x32.070 y-18.599 z-0.400
x32.037 y-18.625 z-0.400
x32.013 y-18.647 z-0.400
x31.991 y-18.669 z-0.400
x31.865 y-18.808 z-0.400
x31.836 y-18.843 z-0.400
x31.818 y-18.869 z-0.400
x31.801 y-18.896 z-0.400
x31.707 y-19.059 z-0.400
x31.687 y-19.097 z-0.400
x31.675 y-19.127 z-0.400
x31.664 y-19.157 z-0.400
x31.660 y-19.170 z-0.400
x25.221 y-19.170 z-0.400
x25.145 y-18.966 z-0.400
x25.129 y-18.930 z-0.400
x25.115 y-18.901 z-0.400
x24.985 y-18.663 z-0.400
x24.963 y-18.627 z-0.400
x24.945 y-18.601 z-0.400
x24.782 y-18.384 z-0.400
x24.756 y-18.353 z-0.400
x24.735 y-18.329 z-0.400
x24.544 y-18.138 z-0.400
x24.514 y-18.111 z-0.400
x24.489 y-18.091 z-0.400
x24.272 y-17.929 z-0.400
x24.238 y-17.905 z-0.400
x24.210 y-17.889 z-0.400
x23.972 y-17.758 z-0.400
x23.936 y-17.740 z-0.400
x23.907 y-17.728 z-0.400
x23.703 y-17.652 z-0.400
x23.703 y-14.983 z-0.400
x30.345 y-14.983 z-0.400
x30.382 y-14.982 z-0.400
x30.414 y-14.978 z-0.400
x30.445 y-14.973 z-0.400
x30.477 y-14.966 z-0.400
x30.507 y-14.957 z-0.400
x30.537 y-14.945 z-0.400
x30.566 y-14.933 z-0.400
x30.595 y-14.918 z-0.400
x30.622 y-14.901 z-0.400
x30.648 y-14.883 z-0.400
x30.673 y-14.863 z-0.400
x30.697 y-14.842 z-0.400
x30.719 y-14.819 z-0.400
x30.740 y-14.795 z-0.400
x30.760 y-14.770 z-0.400
x30.778 y-14.743 z-0.400
x30.794 y-14.716 z-0.400
x30.808 y-14.687 z-0.400
x30.820 y-14.658 z-0.400
x30.831 y-14.628 z-0.400
x30.840 y-14.597 z-0.400
x30.847 y-14.566 z-0.400
x30.851 y-14.534 z-0.400
x30.854 y-14.502 z-0.400
x30.855 y-14.470 z-0.400
x30.854 y-14.438 z-0.400
x30.851 y-14.407 z-0.400
x30.846 y-14.375 z-0.400
x30.838 y-14.344 z-0.400
x30.829 y-14.313 z-0.400
x30.818 y-14.283 z-0.400
x30.806 y-14.254 z-0.400
x30.791 y-14.226 z-0.400
x30.775 y-14.198 z-0.400
x30.757 y-14.172 z-0.400
x30.737 y-14.147 z-0.400
x30.716 y-14.123 z-0.400
x30.693 y-14.100 z-0.400
x30.669 y-14.079 z-0.400
x30.644 y-14.060 z-0.400
x30.617 y-14.042 z-0.400
x30.590 y-14.026 z-0.400
x30.561 y-14.011 z-0.400
x30.532 y-13.999 z-0.400
x30.502 y-13.988 z-0.400
x30.471 y-13.979 z-0.400
x30.440 y-13.972 z-0.400
x30.409 y-13.967 z-0.400
x30.377 y-13.964 z-0.400
x30.345 y-13.963 z-0.400

( Lift to 5.000 )
F2000 z5.000

( Percurso da ferramenta )
( ------------------------- )

( Spindle on )
M3
S500

( Current depth = -0.400 )

( MoveToStartpoint2 )
F2000 G90 z5.000
F2000 x35.206 y-7.490 z5.000
F2000 x35.206 y-7.490 z0.000

( Loop )
G90 F500
x35.206 y-7.490 z-0.400
F500
x35.238 y-7.490 z-0.400
x35.270 y-7.487 z-0.400
x35.301 y-7.483 z-0.400
x35.333 y-7.477 z-0.400
x35.364 y-7.469 z-0.400
x35.394 y-7.459 z-0.400
x35.424 y-7.447 z-0.400
x35.452 y-7.433 z-0.400
x35.480 y-7.417 z-0.400
x35.507 y-7.400 z-0.400
x35.533 y-7.381 z-0.400
x35.557 y-7.361 z-0.400
x35.580 y-7.339 z-0.400
x35.602 y-7.315 z-0.400
x35.622 y-7.291 z-0.400
x35.641 y-7.265 z-0.400
x35.658 y-7.238 z-0.400
x35.673 y-7.210 z-0.400
x35.687 y-7.181 z-0.400
x35.698 y-7.151 z-0.400
x35.708 y-7.121 z-0.400
x35.716 y-7.090 z-0.400
x35.722 y-7.058 z-0.400
x35.726 y-7.027 z-0.400
x35.728 y-6.995 z-0.400
x35.728 y-6.963 z-0.400
x35.726 y-6.931 z-0.400
x35.722 y-6.899 z-0.400
x35.716 y-6.868 z-0.400
x35.708 y-6.837 z-0.400
x35.698 y-6.807 z-0.400
x35.686 y-6.777 z-0.400
x35.672 y-6.748 z-0.400
x35.657 y-6.720 z-0.400
x35.640 y-6.693 z-0.400
x35.621 y-6.667 z-0.400
x35.579 y-6.619 z-0.400
x33.482 y-4.522 z-0.400
x33.482 y-3.719 z-0.400
x33.628 y-3.654 z-0.400
x33.669 y-3.634 z-0.400
x33.696 y-3.619 z-0.400
x33.723 y-3.600 z-0.400
x33.875 y-3.489 z-0.400
x33.907 y-3.463 z-0.400
x33.931 y-3.441 z-0.400
x33.953 y-3.418 z-0.400
x34.079 y-3.278 z-0.400
x34.106 y-3.246 z-0.400
x34.124 y-3.220 z-0.400
x34.141 y-3.193 z-0.400
x34.235 y-3.031 z-0.400
x34.256 y-2.992 z-0.400
x34.268 y-2.962 z-0.400
x34.279 y-2.932 z-0.400
x34.337 y-2.753 z-0.400
x34.348 y-2.713 z-0.400
x34.355 y-2.682 z-0.400
x34.359 y-2.650 z-0.400
x34.379 y-2.462 z-0.400
x34.382 y-2.418 z-0.400
x34.382 y-2.386 z-0.400
x34.379 y-2.354 z-0.400
x34.359 y-2.167 z-0.400
x34.353 y-2.126 z-0.400
x34.346 y-2.094 z-0.400
x34.337 y-2.064 z-0.400
x34.279 y-1.885 z-0.400
x34.264 y-1.844 z-0.400
x34.251 y-1.815 z-0.400
x34.236 y-1.787 z-0.400
x34.142 y-1.624 z-0.400
x34.118 y-1.586 z-0.400
x34.099 y-1.561 z-0.400
x34.078 y-1.536 z-0.400
x33.952 y-1.397 z-0.400
x33.924 y-1.369 z-0.400
x33.900 y-1.348 z-0.400
x33.875 y-1.328 z-0.400
x33.723 y-1.217 z-0.400
x33.685 y-1.192 z-0.400
x33.657 y-1.176 z-0.400
x33.628 y-1.163 z-0.400
x33.456 y-1.087 z-0.400
x33.420 y-1.072 z-0.400
x33.389 y-1.062 z-0.400
x33.358 y-1.055 z-0.400
x33.174 y-1.015 z-0.400
x33.130 y-1.007 z-0.400
x33.098 y-1.004 z-0.400
x33.066 y-1.003 z-0.400
x32.877 y-1.003 z-0.400
x32.832 y-1.005 z-0.400
x32.800 y-1.009 z-0.400
x32.769 y-1.015 z-0.400
x32.585 y-1.055 z-0.400
x32.546 y-1.065 z-0.400
x32.515 y-1.075 z-0.400
x32.486 y-1.087 z-0.400
x32.315 y-1.163 z-0.400
x32.276 y-1.182 z-0.400
x32.249 y-1.198 z-0.400
x32.223 y-1.216 z-0.400
x32.070 y-1.327 z-0.400
x32.037 y-1.353 z-0.400
x32.013 y-1.375 z-0.400
x31.991 y-1.397 z-0.400
x31.865 y-1.536 z-0.400
x31.836 y-1.571 z-0.400
x31.818 y-1.597 z-0.400
x31.801 y-1.624 z-0.400
x31.707 y-1.787 z-0.400
x31.687 y-1.825 z-0.400
x31.675 y-1.855 z-0.400
x31.664 y-1.885 z-0.400
x31.606 y-2.064 z-0.400
x31.594 y-2.106 z-0.400
x31.588 y-2.138 z-0.400
x31.584 y-2.169 z-0.400
x31.565 y-2.356 z-0.400
x31.562 y-2.395 z-0.400
x31.562 y-2.427 z-0.400
x31.563 y-2.439 z-0.400
x31.564 y-2.457 z-0.400
x31.568 y-2.489 z-0.400
x31.568 y-2.491 z-0.400
x31.584 y-2.647 z-0.400
x31.590 y-2.691 z-0.400
x31.597 y-2.723 z-0.400
x31.606 y-2.753 z-0.400
x31.664 y-2.932 z-0.400
x31.679 y-2.974 z-0.400
x31.693 y-3.003 z-0.400
x31.708 y-3.031 z-0.400
x31.802 y-3.193 z-0.400
x31.824 y-3.228 z-0.400
x31.843 y-3.254 z-0.400
x31.864 y-3.278 z-0.400
x31.990 y-3.418 z-0.400
x32.020 y-3.449 z-0.400
x32.044 y-3.470 z-0.400
x32.070 y-3.490 z-0.400
x32.223 y-3.602 z-0.400
x32.258 y-3.625 z-0.400
x32.286 y-3.640 z-0.400
x32.315 y-3.654 z-0.400
x32.462 y-3.719 z-0.400
x32.462 y-4.751 z-0.400
x32.464 y-4.783 z-0.400
x32.468 y-4.815 z-0.400
x32.474 y-4.846 z-0.400
x32.482 y-4.877 z-0.400
x32.492 y-4.907 z-0.400
x32.504 y-4.937 z-0.400
x32.518 y-4.966 z-0.400
x32.533 y-4.994 z-0.400
x32.550 y-5.021 z-0.400
x32.569 y-5.047 z-0.400
x32.611 y-5.095 z-0.400
x34.857 y-7.341 z-0.400
x34.885 y-7.366 z-0.400
x34.909 y-7.386 z-0.400
x34.935 y-7.405 z-0.400
x34.991 y-7.437 z-0.400
x35.020 y-7.450 z-0.400
x35.050 y-7.461 z-0.400
x35.080 y-7.471 z-0.400
x35.111 y-7.479 z-0.400
x35.142 y-7.484 z-0.400
x35.174 y-7.488 z-0.400
x35.206 y-7.490 z-0.400

( Lift to 5.000 )
F2000 z5.000

( Percurso da ferramenta 3 )
( ------------------------- )

( Spindle on )
M3
S500

( Current depth = -0.400 )

( MoveToStartpoint2 )
F2000 G90 z5.000
F2000 x16.976 y-22.344 z5.000
F2000 x16.976 y-22.344 z0.000

( Loop )
G90 F500
x16.976 y-22.344 z-0.400
F500
x17.008 y-22.343 z-0.400
x17.279 y-22.323 z-0.400
x17.317 y-22.318 z-0.400
x17.348 y-22.313 z-0.400
x17.613 y-22.256 z-0.400
x17.654 y-22.245 z-0.400
x17.685 y-22.235 z-0.400
x17.939 y-22.140 z-0.400
x17.977 y-22.124 z-0.400
x18.005 y-22.110 z-0.400
x18.242 y-21.979 z-0.400
x18.278 y-21.958 z-0.400
x18.304 y-21.939 z-0.400
x18.521 y-21.777 z-0.400
x18.552 y-21.751 z-0.400
x18.576 y-21.730 z-0.400
x18.767 y-21.539 z-0.400
x18.794 y-21.509 z-0.400
x18.814 y-21.484 z-0.400
x18.977 y-21.267 z-0.400
x19.000 y-21.233 z-0.400
x19.018 y-21.205 z-0.400
x19.147 y-20.967 z-0.400
x19.165 y-20.931 z-0.400
x19.177 y-20.902 z-0.400
x19.272 y-20.648 z-0.400
x19.285 y-20.607 z-0.400
x19.293 y-20.576 z-0.400
x19.350 y-20.311 z-0.400
x19.357 y-20.272 z-0.400
x19.360 y-20.240 z-0.400
x19.379 y-19.970 z-0.400
x19.380 y-19.930 z-0.400
x19.379 y-19.898 z-0.400
x19.360 y-19.628 z-0.400
x19.355 y-19.588 z-0.400
x19.350 y-19.557 z-0.400
x19.293 y-19.292 z-0.400
x19.282 y-19.251 z-0.400
x19.272 y-19.220 z-0.400
x19.177 y-18.966 z-0.400
x19.161 y-18.930 z-0.400
x19.147 y-18.901 z-0.400
x19.018 y-18.663 z-0.400
x18.996 y-18.627 z-0.400
x18.977 y-18.601 z-0.400
x18.814 y-18.384 z-0.400
x18.788 y-18.353 z-0.400
x18.767 y-18.329 z-0.400
x18.576 y-18.138 z-0.400
x18.546 y-18.111 z-0.400
x18.521 y-18.091 z-0.400
x18.304 y-17.929 z-0.400
x18.270 y-17.905 z-0.400
x18.242 y-17.889 z-0.400
x18.005 y-17.758 z-0.400
x17.968 y-17.740 z-0.400
x17.939 y-17.728 z-0.400
x17.685 y-17.633 z-0.400
x17.644 y-17.620 z-0.400
x17.613 y-17.612 z-0.400
x17.348 y-17.555 z-0.400
x17.310 y-17.549 z-0.400
x17.279 y-17.545 z-0.400
x17.008 y-17.525 z-0.400
x16.964 y-17.524 z-0.400
x16.932 y-17.525 z-0.400
x16.662 y-17.545 z-0.400
x16.624 y-17.550 z-0.400
x16.593 y-17.555 z-0.400
x16.328 y-17.612 z-0.400
x16.287 y-17.623 z-0.400
x16.256 y-17.633 z-0.400
x16.002 y-17.728 z-0.400
x15.965 y-17.744 z-0.400
x15.937 y-17.758 z-0.400
x15.699 y-17.889 z-0.400
x15.666 y-17.908 z-0.400
x15.448 y-17.690 z-0.400
x15.448 y-11.681 z-0.400
x18.638 y-11.681 z-0.400
x18.670 y-11.679 z-0.400
x18.702 y-11.675 z-0.400
x18.733 y-11.669 z-0.400
x18.764 y-11.661 z-0.400
x18.794 y-11.651 z-0.400
x18.824 y-11.639 z-0.400
x18.853 y-11.625 z-0.400
x18.881 y-11.610 z-0.400
x18.908 y-11.593 z-0.400
x18.934 y-11.574 z-0.400
x18.982 y-11.532 z-0.400
x21.014 y-9.500 z-0.400
x21.026 y-9.487 z-0.400
x21.047 y-9.463 z-0.400
x21.066 y-9.438 z-0.400
x21.084 y-9.411 z-0.400
x21.100 y-9.384 z-0.400
x21.115 y-9.355 z-0.400
x21.127 y-9.326 z-0.400
x21.138 y-9.296 z-0.400
x21.147 y-9.265 z-0.400
x21.154 y-9.234 z-0.400
x21.159 y-9.203 z-0.400
x21.162 y-9.171 z-0.400
x21.163 y-9.139 z-0.400
x21.163 y-6.853 z-0.400
x21.162 y-6.816 z-0.400
x21.158 y-6.784 z-0.400
x21.153 y-6.753 z-0.400
x21.146 y-6.721 z-0.400
x21.137 y-6.691 z-0.400
x21.125 y-6.661 z-0.400
x21.113 y-6.632 z-0.400
x21.098 y-6.603 z-0.400
x21.081 y-6.576 z-0.400
x21.063 y-6.550 z-0.400
x21.043 y-6.525 z-0.400
x21.022 y-6.501 z-0.400
x20.999 y-6.479 z-0.400
x20.975 y-6.458 z-0.400
x20.950 y-6.438 z-0.400
x20.923 y-6.420 z-0.400
x20.896 y-6.404 z-0.400
x20.867 y-6.390 z-0.400
x20.838 y-6.378 z-0.400
x20.808 y-6.367 z-0.400
x20.777 y-6.358 z-0.400
x20.746 y-6.351 z-0.400
x20.714 y-6.347 z-0.400
x20.682 y-6.344 z-0.400
x20.650 y-6.343 z-0.400
x20.618 y-6.344 z-0.400
x20.587 y-6.347 z-0.400
x20.555 y-6.352 z-0.400
x20.524 y-6.360 z-0.400
x20.493 y-6.369 z-0.400
x20.463 y-6.380 z-0.400
x20.434 y-6.392 z-0.400
x20.406 y-6.407 z-0.400
x20.378 y-6.423 z-0.400
x20.352 y-6.441 z-0.400
x20.327 y-6.461 z-0.400
x20.303 y-6.482 z-0.400
x20.280 y-6.505 z-0.400
x20.259 y-6.529 z-0.400
x20.240 y-6.554 z-0.400
x20.222 y-6.581 z-0.400
x20.206 y-6.608 z-0.400
x20.191 y-6.637 z-0.400
x20.179 y-6.666 z-0.400
x20.168 y-6.696 z-0.400
x20.159 y-6.727 z-0.400
x20.152 y-6.758 z-0.400
x20.147 y-6.789 z-0.400
x20.144 y-6.821 z-0.400
x20.143 y-6.853 z-0.400
x20.143 y-8.927 z-0.400
x18.409 y-10.661 z-0.400
x15.448 y-10.661 z-0.400
x15.447 y-10.626 z-0.400
x15.443 y-10.594 z-0.400
x15.438 y-10.563 z-0.400
x15.431 y-10.531 z-0.400
x15.422 y-10.501 z-0.400
x15.410 y-10.471 z-0.400
x15.398 y-10.442 z-0.400
x15.383 y-10.413 z-0.400
x15.366 y-10.386 z-0.400
x15.348 y-10.360 z-0.400
x15.328 y-10.335 z-0.400
x15.307 y-10.311 z-0.400
x15.284 y-10.289 z-0.400
x15.260 y-10.268 z-0.400
x15.235 y-10.248 z-0.400
x15.208 y-10.230 z-0.400
x15.181 y-10.214 z-0.400
x15.152 y-10.200 z-0.400
x15.123 y-10.188 z-0.400
x15.093 y-10.177 z-0.400
x15.062 y-10.168 z-0.400
x15.031 y-10.161 z-0.400
x14.999 y-10.157 z-0.400
x14.967 y-10.154 z-0.400
x14.935 y-10.153 z-0.400
x14.903 y-10.154 z-0.400
x14.872 y-10.157 z-0.400
x14.840 y-10.162 z-0.400
x14.809 y-10.170 z-0.400
x14.778 y-10.179 z-0.400
x14.748 y-10.190 z-0.400
x14.719 y-10.202 z-0.400
x14.691 y-10.217 z-0.400
x14.663 y-10.233 z-0.400
x14.637 y-10.251 z-0.400
x14.612 y-10.271 z-0.400
x14.588 y-10.292 z-0.400
x14.565 y-10.315 z-0.400
x14.544 y-10.339 z-0.400
x14.525 y-10.364 z-0.400
x14.507 y-10.391 z-0.400
x14.491 y-10.418 z-0.400
x14.476 y-10.447 z-0.400
x14.464 y-10.476 z-0.400
x14.453 y-10.506 z-0.400
x14.444 y-10.537 z-0.400
x14.437 y-10.568 z-0.400
x14.432 y-10.599 z-0.400
x14.429 y-10.631 z-0.400
x14.428 y-10.663 z-0.400
x14.428 y-17.919 z-0.400
x14.430 y-17.951 z-0.400
x14.434 y-17.983 z-0.400
x14.440 y-18.014 z-0.400
x14.448 y-18.045 z-0.400
x14.458 y-18.075 z-0.400
x14.470 y-18.105 z-0.400
x14.484 y-18.134 z-0.400
x14.499 y-18.162 z-0.400
x14.516 y-18.189 z-0.400
x14.535 y-18.215 z-0.400
x14.577 y-18.263 z-0.400
x14.944 y-18.630 z-0.400
x14.941 y-18.635 z-0.400
x14.924 y-18.663 z-0.400
x14.794 y-18.901 z-0.400
x14.776 y-18.937 z-0.400
x14.764 y-18.966 z-0.400
x14.669 y-19.220 z-0.400
x14.656 y-19.261 z-0.400
x14.648 y-19.292 z-0.400
x14.591 y-19.557 z-0.400
x14.585 y-19.595 z-0.400
x14.581 y-19.626 z-0.400
x14.561 y-19.896 z-0.400
x14.560 y-19.934 z-0.400
x14.561 y-19.965 z-0.400
x14.561 y-19.972 z-0.400
x14.581 y-20.242 z-0.400
x14.586 y-20.280 z-0.400
x14.591 y-20.311 z-0.400
x14.648 y-20.576 z-0.400
x14.659 y-20.617 z-0.400
x14.669 y-20.648 z-0.400
x14.764 y-20.902 z-0.400
x14.780 y-20.938 z-0.400
x14.794 y-20.967 z-0.400
x14.924 y-21.205 z-0.400
x14.946 y-21.241 z-0.400
x14.964 y-21.267 z-0.400
x15.127 y-21.484 z-0.400
x15.153 y-21.515 z-0.400
x15.174 y-21.539 z-0.400
x15.365 y-21.730 z-0.400
x15.395 y-21.757 z-0.400
x15.420 y-21.777 z-0.400
x15.637 y-21.939 z-0.400
x15.671 y-21.963 z-0.400
x15.699 y-21.979 z-0.400
x15.937 y-22.110 z-0.400
x15.973 y-22.128 z-0.400
x16.002 y-22.140 z-0.400
x16.256 y-22.235 z-0.400
x16.297 y-22.248 z-0.400
x16.328 y-22.256 z-0.400
x16.593 y-22.313 z-0.400
x16.631 y-22.319 z-0.400
x16.662 y-22.323 z-0.400
x16.932 y-22.343 z-0.400
x16.976 y-22.344 z-0.400

( Lift to 5.000 )
F2000 z5.000

( Percurso da ferramenta 5 )
( ------------------------- )

( Spindle on )
M3
S500

( Current depth = -0.400 )

( MoveToStartpoint2 )
F2000 G90 z5.000
F2000 x8.207 y-24.000 z5.000
F2000 x8.207 y-24.000 z0.000

( Loop )
G90 F500
x8.207 y-24.000 z-0.400
F500
x18.638 y-24.000 z-0.400
x18.670 y-23.998 z-0.400
x18.702 y-23.993 z-0.400
x18.733 y-23.988 z-0.400
x18.764 y-23.980 z-0.400
x18.824 y-23.958 z-0.400
x18.853 y-23.944 z-0.400
x18.881 y-23.929 z-0.400
x18.908 y-23.912 z-0.400
x18.934 y-23.893 z-0.400
x18.982 y-23.851 z-0.400
x20.252 y-22.581 z-0.400
x20.264 y-22.568 z-0.400
x20.285 y-22.544 z-0.400
x20.304 y-22.519 z-0.400
x20.322 y-22.492 z-0.400
x20.338 y-22.465 z-0.400
x20.353 y-22.436 z-0.400
x20.365 y-22.407 z-0.400
x20.376 y-22.377 z-0.400
x20.385 y-22.346 z-0.400
x20.392 y-22.315 z-0.400
x20.397 y-22.284 z-0.400
x20.400 y-22.252 z-0.400
x20.401 y-22.220 z-0.400
x20.401 y-17.606 z-0.400
x21.014 y-16.993 z-0.400
x21.026 y-16.980 z-0.400
x21.047 y-16.956 z-0.400
x21.066 y-16.931 z-0.400
x21.084 y-16.904 z-0.400
x21.100 y-16.877 z-0.400
x21.115 y-16.848 z-0.400
x21.127 y-16.819 z-0.400
x21.138 y-16.789 z-0.400
x21.147 y-16.758 z-0.400
x21.154 y-16.727 z-0.400
x21.159 y-16.696 z-0.400
x21.162 y-16.664 z-0.400
x21.163 y-16.632 z-0.400
x21.163 y-14.473 z-0.400
x21.162 y-14.436 z-0.400
x21.158 y-14.404 z-0.400
x21.153 y-14.373 z-0.400
x21.146 y-14.341 z-0.400
x21.137 y-14.311 z-0.400
x21.125 y-14.281 z-0.400
x21.113 y-14.252 z-0.400
x21.098 y-14.223 z-0.400
x21.081 y-14.196 z-0.400
x21.063 y-14.170 z-0.400
x21.043 y-14.145 z-0.400
x21.022 y-14.121 z-0.400
x20.999 y-14.099 z-0.400
x20.975 y-14.078 z-0.400
x20.950 y-14.058 z-0.400
x20.923 y-14.040 z-0.400
x20.896 y-14.024 z-0.400
x20.867 y-14.010 z-0.400
x20.838 y-13.998 z-0.400
x20.808 y-13.987 z-0.400
x20.777 y-13.978 z-0.400
x20.746 y-13.971 z-0.400
x20.714 y-13.967 z-0.400
x20.682 y-13.964 z-0.400
x20.650 y-13.963 z-0.400
x20.618 y-13.964 z-0.400
x20.587 y-13.967 z-0.400
x20.555 y-13.972 z-0.400
x20.524 y-13.980 z-0.400
x20.493 y-13.989 z-0.400
x20.463 y-14.000 z-0.400
x20.434 y-14.012 z-0.400
x20.406 y-14.027 z-0.400
x20.378 y-14.043 z-0.400
x20.352 y-14.061 z-0.400
x20.327 y-14.081 z-0.400
x20.303 y-14.102 z-0.400
x20.280 y-14.125 z-0.400
x20.259 y-14.149 z-0.400
x20.240 y-14.174 z-0.400
x20.222 y-14.201 z-0.400
x20.206 y-14.228 z-0.400
x20.191 y-14.257 z-0.400
x20.179 y-14.286 z-0.400
x20.168 y-14.316 z-0.400
x20.159 y-14.347 z-0.400
x20.152 y-14.378 z-0.400
x20.147 y-14.409 z-0.400
x20.144 y-14.441 z-0.400
x20.143 y-14.473 z-0.400
x20.143 y-16.420 z-0.400
x19.530 y-17.033 z-0.400
x19.518 y-17.046 z-0.400
x19.497 y-17.070 z-0.400
x19.478 y-17.095 z-0.400
x19.460 y-17.122 z-0.400
x19.444 y-17.149 z-0.400
x19.429 y-17.178 z-0.400
x19.417 y-17.207 z-0.400
x19.406 y-17.237 z-0.400
x19.397 y-17.268 z-0.400
x19.390 y-17.299 z-0.400
x19.385 y-17.330 z-0.400
x19.382 y-17.362 z-0.400
x19.381 y-17.394 z-0.400
x19.381 y-22.008 z-0.400
x18.409 y-22.980 z-0.400
x8.419 y-22.980 z-0.400
x4.399 y-18.960 z-0.400
x4.399 y-16.590 z-0.400
x5.139 y-15.851 z-0.400
x5.164 y-15.822 z-0.400
x5.184 y-15.798 z-0.400
x5.203 y-15.772 z-0.400
x5.235 y-15.716 z-0.400
x5.248 y-15.687 z-0.400
x5.259 y-15.657 z-0.400
x5.269 y-15.627 z-0.400
x5.277 y-15.596 z-0.400
x5.282 y-15.565 z-0.400
x5.286 y-15.533 z-0.400
x5.288 y-15.501 z-0.400
x5.288 y-15.469 z-0.400
x5.285 y-15.437 z-0.400
x5.281 y-15.406 z-0.400
x5.275 y-15.374 z-0.400
x5.267 y-15.343 z-0.400
x5.257 y-15.313 z-0.400
x5.245 y-15.283 z-0.400
x5.231 y-15.255 z-0.400
x5.215 y-15.227 z-0.400
x5.198 y-15.200 z-0.400
x5.179 y-15.174 z-0.400
x5.159 y-15.150 z-0.400
x5.137 y-15.127 z-0.400
x5.113 y-15.105 z-0.400
x5.089 y-15.085 z-0.400
x5.063 y-15.066 z-0.400
x5.036 y-15.049 z-0.400
x5.008 y-15.034 z-0.400
x4.979 y-15.020 z-0.400
x4.949 y-15.009 z-0.400
x4.919 y-14.999 z-0.400
x4.888 y-14.991 z-0.400
x4.856 y-14.985 z-0.400
x4.825 y-14.981 z-0.400
x4.793 y-14.979 z-0.400
x4.761 y-14.979 z-0.400
x4.729 y-14.981 z-0.400
x4.697 y-14.985 z-0.400
x4.666 y-14.991 z-0.400
x4.635 y-14.999 z-0.400
x4.605 y-15.009 z-0.400
x4.575 y-15.021 z-0.400
x4.546 y-15.035 z-0.400
x4.518 y-15.050 z-0.400
x4.491 y-15.067 z-0.400
x4.465 y-15.086 z-0.400
x4.417 y-15.128 z-0.400
x3.528 y-16.017 z-0.400
x3.516 y-16.030 z-0.400
x3.495 y-16.054 z-0.400
x3.476 y-16.079 z-0.400
x3.458 y-16.106 z-0.400
x3.442 y-16.133 z-0.400
x3.427 y-16.162 z-0.400
x3.415 y-16.191 z-0.400
x3.404 y-16.221 z-0.400
x3.395 y-16.252 z-0.400
x3.388 y-16.283 z-0.400
x3.383 y-16.314 z-0.400
x3.380 y-16.346 z-0.400
x3.379 y-16.378 z-0.400
x3.379 y-19.189 z-0.400
x3.381 y-19.221 z-0.400
x3.385 y-19.253 z-0.400
x3.391 y-19.284 z-0.400
x3.399 y-19.315 z-0.400
x3.409 y-19.345 z-0.400
x3.421 y-19.375 z-0.400
x3.435 y-19.404 z-0.400
x3.450 y-19.432 z-0.400
x3.467 y-19.459 z-0.400
x3.486 y-19.485 z-0.400
x3.528 y-19.533 z-0.400
x7.846 y-23.851 z-0.400
x7.859 y-23.863 z-0.400
x7.883 y-23.884 z-0.400
x7.908 y-23.903 z-0.400
x7.935 y-23.921 z-0.400
x7.962 y-23.937 z-0.400
x7.991 y-23.952 z-0.400
x8.020 y-23.964 z-0.400
x8.050 y-23.975 z-0.400
x8.081 y-23.984 z-0.400
x8.112 y-23.991 z-0.400
x8.143 y-23.996 z-0.400
x8.175 y-23.999 z-0.400
x8.207 y-24.000 z-0.400

( Lift to 5.000 )
F2000 z5.000

( Percurso da ferramenta 2 )
( ------------------------- )

( Spindle on )
M3
S500

( Current depth = -0.400 )

( MoveToStartpoint2 )
F2000 G90 z5.000
F2000 x7.572 y-25.524 z5.000
F2000 x7.572 y-25.524 z0.000

( Loop )
G90 F500
x7.572 y-25.524 z-0.400
F500
x33.116 y-25.524 z-0.400
x33.148 y-25.522 z-0.400
x33.180 y-25.518 z-0.400
x33.211 y-25.512 z-0.400
x33.242 y-25.504 z-0.400
x33.272 y-25.494 z-0.400
x33.302 y-25.482 z-0.400
x33.331 y-25.468 z-0.400
x33.359 y-25.453 z-0.400
x33.386 y-25.436 z-0.400
x33.412 y-25.417 z-0.400
x33.460 y-25.375 z-0.400
x35.492 y-23.343 z-0.400
x35.505 y-23.339 z-0.400
x35.535 y-23.328 z-0.400
x35.564 y-23.316 z-0.400
x35.592 y-23.301 z-0.400
x35.620 y-23.285 z-0.400
x35.646 y-23.267 z-0.400
x35.671 y-23.247 z-0.400
x35.695 y-23.226 z-0.400
x35.718 y-23.203 z-0.400
x35.739 y-23.179 z-0.400
x35.758 y-23.154 z-0.400
x35.776 y-23.127 z-0.400
x35.792 y-23.100 z-0.400
x35.807 y-23.071 z-0.400
x35.819 y-23.042 z-0.400
x35.830 y-23.012 z-0.400
x35.839 y-22.981 z-0.400
x35.846 y-22.950 z-0.400
x35.851 y-22.919 z-0.400
x35.854 y-22.887 z-0.400
x35.855 y-22.855 z-0.400
x35.855 y-14.473 z-0.400
x35.854 y-14.436 z-0.400
x35.850 y-14.404 z-0.400
x35.845 y-14.373 z-0.400
x35.838 y-14.341 z-0.400
x35.829 y-14.311 z-0.400
x35.817 y-14.281 z-0.400
x35.805 y-14.252 z-0.400
x35.790 y-14.223 z-0.400
x35.773 y-14.196 z-0.400
x35.755 y-14.170 z-0.400
x35.735 y-14.145 z-0.400
x35.714 y-14.121 z-0.400
x35.691 y-14.099 z-0.400
x35.667 y-14.078 z-0.400
x35.642 y-14.058 z-0.400
x35.615 y-14.040 z-0.400
x35.588 y-14.024 z-0.400
x35.559 y-14.010 z-0.400
x35.530 y-13.998 z-0.400
x35.500 y-13.987 z-0.400
x35.469 y-13.978 z-0.400
x35.438 y-13.971 z-0.400
x35.406 y-13.967 z-0.400
x35.374 y-13.964 z-0.400
x35.342 y-13.963 z-0.400
x35.310 y-13.964 z-0.400
x35.279 y-13.967 z-0.400
x35.247 y-13.972 z-0.400
x35.216 y-13.980 z-0.400
x35.185 y-13.989 z-0.400
x35.155 y-14.000 z-0.400
x35.126 y-14.012 z-0.400
x35.098 y-14.027 z-0.400
x35.070 y-14.043 z-0.400
x35.044 y-14.061 z-0.400
x35.019 y-14.081 z-0.400
x34.995 y-14.102 z-0.400
x34.972 y-14.125 z-0.400
x34.951 y-14.149 z-0.400
x34.932 y-14.174 z-0.400
x34.914 y-14.201 z-0.400
x34.898 y-14.228 z-0.400
x34.883 y-14.257 z-0.400
x34.871 y-14.286 z-0.400
x34.860 y-14.316 z-0.400
x34.851 y-14.347 z-0.400
x34.844 y-14.378 z-0.400
x34.839 y-14.409 z-0.400
x34.836 y-14.441 z-0.400
x34.835 y-14.473 z-0.400
x34.835 y-22.556 z-0.400
x32.887 y-24.504 z-0.400
x7.784 y-24.504 z-0.400
x2.902 y-19.622 z-0.400
x2.902 y-13.389 z-0.400
x4.631 y-11.659 z-0.400
x4.637 y-11.661 z-0.400
x4.668 y-11.669 z-0.400
x4.700 y-11.675 z-0.400
x4.731 y-11.679 z-0.400
x4.763 y-11.681 z-0.400
x4.795 y-11.681 z-0.400
x4.827 y-11.679 z-0.400
x4.859 y-11.675 z-0.400
x4.890 y-11.669 z-0.400
x4.921 y-11.661 z-0.400
x4.951 y-11.651 z-0.400
x4.981 y-11.639 z-0.400
x5.010 y-11.625 z-0.400
x5.038 y-11.610 z-0.400
x5.065 y-11.593 z-0.400
x5.091 y-11.574 z-0.400
x5.139 y-11.532 z-0.400
x9.943 y-6.728 z-0.400
x14.908 y-6.728 z-0.400
x14.945 y-6.727 z-0.400
x14.977 y-6.723 z-0.400
x15.008 y-6.718 z-0.400
x15.040 y-6.711 z-0.400
x15.070 y-6.702 z-0.400
x15.100 y-6.690 z-0.400
x15.129 y-6.678 z-0.400
x15.158 y-6.663 z-0.400
x15.185 y-6.646 z-0.400
x15.211 y-6.628 z-0.400
x15.236 y-6.608 z-0.400
x15.260 y-6.587 z-0.400
x15.282 y-6.564 z-0.400
x15.303 y-6.540 z-0.400
x15.323 y-6.515 z-0.400
x15.341 y-6.488 z-0.400
x15.357 y-6.461 z-0.400
x15.371 y-6.432 z-0.400
x15.383 y-6.403 z-0.400
x15.394 y-6.373 z-0.400
x15.403 y-6.342 z-0.400
x15.410 y-6.311 z-0.400
x15.414 y-6.279 z-0.400
x15.417 y-6.247 z-0.400
x15.418 y-6.215 z-0.400
x15.417 y-6.183 z-0.400
x15.414 y-6.152 z-0.400
x15.409 y-6.120 z-0.400
x15.401 y-6.089 z-0.400
x15.392 y-6.058 z-0.400
x15.381 y-6.028 z-0.400
x15.369 y-5.999 z-0.400
x15.354 y-5.971 z-0.400
x15.338 y-5.943 z-0.400
x15.320 y-5.917 z-0.400
x15.300 y-5.892 z-0.400
x15.279 y-5.868 z-0.400
x15.256 y-5.845 z-0.400
x15.232 y-5.824 z-0.400
x15.207 y-5.805 z-0.400
x15.180 y-5.787 z-0.400
x15.153 y-5.771 z-0.400
x15.124 y-5.756 z-0.400
x15.095 y-5.744 z-0.400
x15.065 y-5.733 z-0.400
x15.034 y-5.724 z-0.400
x15.003 y-5.717 z-0.400
x14.972 y-5.712 z-0.400
x14.940 y-5.709 z-0.400
x14.908 y-5.708 z-0.400
x9.714 y-5.708 z-0.400
x9.682 y-5.710 z-0.400
x9.650 y-5.714 z-0.400
x9.619 y-5.720 z-0.400
x9.588 y-5.728 z-0.400
x9.558 y-5.738 z-0.400
x9.528 y-5.750 z-0.400
x9.499 y-5.764 z-0.400
x9.471 y-5.779 z-0.400
x9.444 y-5.796 z-0.400
x9.418 y-5.815 z-0.400
x9.370 y-5.857 z-0.400
x4.925 y-10.302 z-0.400
x4.918 y-10.300 z-0.400
x4.888 y-10.292 z-0.400
x4.856 y-10.286 z-0.400
x4.824 y-10.282 z-0.400
x4.793 y-10.280 z-0.400
x4.761 y-10.280 z-0.400
x4.729 y-10.282 z-0.400
x4.697 y-10.286 z-0.400
x4.666 y-10.293 z-0.400
x4.635 y-10.301 z-0.400
x4.604 y-10.310 z-0.400
x4.575 y-10.322 z-0.400
x4.546 y-10.336 z-0.400
x4.518 y-10.351 z-0.400
x4.491 y-10.368 z-0.400
x4.465 y-10.387 z-0.400
x4.417 y-10.429 z-0.400
x2.031 y-12.816 z-0.400
x2.019 y-12.829 z-0.400
x1.998 y-12.853 z-0.400
x1.979 y-12.878 z-0.400
x1.961 y-12.905 z-0.400
x1.945 y-12.932 z-0.400
x1.930 y-12.961 z-0.400
x1.918 y-12.990 z-0.400
x1.907 y-13.020 z-0.400
x1.898 y-13.051 z-0.400
x1.891 y-13.082 z-0.400
x1.886 y-13.113 z-0.400
x1.883 y-13.145 z-0.400
x1.882 y-13.177 z-0.400
x1.882 y-19.851 z-0.400
x1.884 y-19.883 z-0.400
x1.888 y-19.915 z-0.400
x1.894 y-19.946 z-0.400
x1.902 y-19.977 z-0.400
x1.912 y-20.007 z-0.400
x1.924 y-20.037 z-0.400
x1.938 y-20.066 z-0.400
x1.953 y-20.094 z-0.400
x1.970 y-20.121 z-0.400
x1.989 y-20.147 z-0.400
x2.031 y-20.195 z-0.400
x7.211 y-25.375 z-0.400
x7.224 y-25.387 z-0.400
x7.248 y-25.408 z-0.400
x7.273 y-25.427 z-0.400
x7.300 y-25.445 z-0.400
x7.327 y-25.461 z-0.400
x7.356 y-25.476 z-0.400
x7.385 y-25.488 z-0.400
x7.415 y-25.499 z-0.400
x7.446 y-25.508 z-0.400
x7.477 y-25.515 z-0.400
x7.508 y-25.520 z-0.400
x7.540 y-25.523 z-0.400
x7.572 y-25.524 z-0.400

( Lift to 5.000 )
F2000 z5.000

( Program end, back to origin )
G90 F2000 z5.000

( Spindle off )
M5
F2000 x0.000 y0.000 z5.000
