( Created by GrblGru )
( 19.03.2024 11:54:26 )



( Additional commands from settings )
G1 F200 Z25
G4 P2

( Job: Job Percurso da ferramenta 1 + 32 -> None 3.175mm )
( ------------------------------- )

( Job mode = 0, CUT )
( Type of tool = 0, SPINDLE )

( TransformationTyp = NONE )
( Plano de segurança = 5 )
( Soma da profundidade = 0.7 )
( Profundidade por passo = 0.7 )
( Rampa de Mergulho = 0 )
( Tamanho de partição = 2 )
( Avanço de corte = 500 )
( Avanço rápido = 2000 )
( Avanço de mergulho = 500 )
( Tool = V-carve 60° x 10 )
( Tool diameter = 10 )



G1 G90 F100

( Percurso da ferramenta 1 )
( ------------------------- )

( Spindle on )
M3
S500

( Current depth = -0.700 )

( MoveToStartpoint2 )
F2000 G90 z5.000
F2000 x4.228 y-9.960 z5.000
F2000 x4.228 y-9.960 z0.000

( Loop )
G90 F500
x4.228 y-9.960 z-0.700
F500
x4.228 y-9.960 z-0.700
x5.032 y-9.960 z-0.700
x5.032 y-7.267 z-0.700
x5.960 y-7.267 z-0.700
x6.021 y-7.267 z-0.700
x6.078 y-7.268 z-0.700
x6.131 y-7.270 z-0.700
x6.181 y-7.272 z-0.700
x6.227 y-7.274 z-0.700
x6.270 y-7.278 z-0.700
x6.309 y-7.281 z-0.700
x6.345 y-7.285 z-0.700
x6.378 y-7.290 z-0.700
x6.406 y-7.295 z-0.700
x6.444 y-7.305 z-0.700
x6.481 y-7.317 z-0.700
x6.518 y-7.329 z-0.700
x6.555 y-7.344 z-0.700
x6.591 y-7.359 z-0.700
x6.628 y-7.376 z-0.700
x6.664 y-7.394 z-0.700
x6.700 y-7.413 z-0.700
x6.736 y-7.434 z-0.700
x6.772 y-7.456 z-0.700
x6.808 y-7.481 z-0.700
x6.846 y-7.510 z-0.700
x6.884 y-7.541 z-0.700
x6.923 y-7.577 z-0.700
x6.964 y-7.615 z-0.700
x7.005 y-7.658 z-0.700
x7.047 y-7.703 z-0.700
x7.090 y-7.752 z-0.700
x7.134 y-7.805 z-0.700
x7.180 y-7.861 z-0.700
x7.226 y-7.922 z-0.700
x7.275 y-7.987 z-0.700
x7.327 y-8.058 z-0.700
x7.381 y-8.134 z-0.700
x7.438 y-8.215 z-0.700
x7.497 y-8.301 z-0.700
x7.558 y-8.393 z-0.700
x7.622 y-8.489 z-0.700
x7.688 y-8.591 z-0.700
x7.757 y-8.698 z-0.700
x8.558 y-9.960 z-0.700
x9.560 y-9.960 z-0.700
x8.512 y-8.309 z-0.700
x8.449 y-8.213 z-0.700
x8.386 y-8.121 z-0.700
x8.321 y-8.032 z-0.700
x8.256 y-7.947 z-0.700
x8.190 y-7.864 z-0.700
x8.123 y-7.785 z-0.700
x8.056 y-7.709 z-0.700
x7.988 y-7.637 z-0.700
x7.918 y-7.567 z-0.700
x7.849 y-7.501 z-0.700
x7.814 y-7.472 z-0.700
x7.776 y-7.442 z-0.700
x7.736 y-7.412 z-0.700
x7.692 y-7.382 z-0.700
x7.645 y-7.352 z-0.700
x7.595 y-7.321 z-0.700
x7.542 y-7.291 z-0.700
x7.486 y-7.260 z-0.700
x7.427 y-7.230 z-0.700
x7.365 y-7.200 z-0.700
x7.534 y-7.172 z-0.700
x7.695 y-7.138 z-0.700
x7.847 y-7.098 z-0.700
x7.989 y-7.052 z-0.700
x8.123 y-6.999 z-0.700
x8.247 y-6.940 z-0.700
x8.362 y-6.874 z-0.700
x8.468 y-6.802 z-0.700
x8.565 y-6.723 z-0.700
x8.653 y-6.638 z-0.700
x8.732 y-6.547 z-0.700
x8.803 y-6.453 z-0.700
x8.866 y-6.354 z-0.700
x8.920 y-6.251 z-0.700
x8.966 y-6.145 z-0.700
x9.004 y-6.034 z-0.700
x9.033 y-5.919 z-0.700
x9.054 y-5.800 z-0.700
x9.066 y-5.677 z-0.700
x9.071 y-5.550 z-0.700
x9.068 y-5.451 z-0.700
x9.061 y-5.353 z-0.700
x9.048 y-5.258 z-0.700
x9.031 y-5.164 z-0.700
x9.008 y-5.072 z-0.700
x8.980 y-4.981 z-0.700
x8.948 y-4.892 z-0.700
x8.910 y-4.806 z-0.700
x8.867 y-4.720 z-0.700
x8.819 y-4.637 z-0.700
x8.767 y-4.557 z-0.700
x8.712 y-4.482 z-0.700
x8.653 y-4.412 z-0.700
x8.591 y-4.347 z-0.700
x8.525 y-4.287 z-0.700
x8.456 y-4.231 z-0.700
x8.384 y-4.181 z-0.700
x8.308 y-4.136 z-0.700
x8.229 y-4.096 z-0.700
x8.146 y-4.061 z-0.700
x8.058 y-4.030 z-0.700
x7.962 y-4.002 z-0.700
x7.859 y-3.978 z-0.700
x7.747 y-3.957 z-0.700
x7.628 y-3.939 z-0.700
x7.501 y-3.924 z-0.700
x7.366 y-3.912 z-0.700
x7.223 y-3.904 z-0.700
x7.073 y-3.899 z-0.700
x6.914 y-3.897 z-0.700
x4.228 y-3.897 z-0.700
x4.228 y-9.960 z-0.700

( Lift to 5.000 )
F2000 z5.000

( Percurso da ferramenta 10 )
( ------------------------- )

( Spindle on )
M3
S500

( Current depth = -0.700 )

( MoveToStartpoint2 )
F2000 G90 z5.000
F2000 x34.328 y-7.581 z5.000
F2000 x34.328 y-7.581 z0.000

( Loop )
G90 F500
x34.328 y-7.581 z-0.700
F500
x34.328 y-7.580 z-0.700
x36.106 y-7.580 z-0.700
x36.106 y-8.716 z-0.700
x36.053 y-8.762 z-0.700
x35.994 y-8.807 z-0.700
x35.931 y-8.852 z-0.700
x35.863 y-8.896 z-0.700
x35.791 y-8.939 z-0.700
x35.713 y-8.982 z-0.700
x35.631 y-9.024 z-0.700
x35.544 y-9.066 z-0.700
x35.452 y-9.107 z-0.700
x35.356 y-9.148 z-0.700
x35.256 y-9.186 z-0.700
x35.156 y-9.221 z-0.700
x35.056 y-9.251 z-0.700
x34.955 y-9.277 z-0.700
x34.854 y-9.299 z-0.700
x34.752 y-9.318 z-0.700
x34.650 y-9.332 z-0.700
x34.547 y-9.342 z-0.700
x34.443 y-9.348 z-0.700
x34.340 y-9.350 z-0.700
x34.220 y-9.347 z-0.700
x34.103 y-9.339 z-0.700
x33.986 y-9.326 z-0.700
x33.871 y-9.307 z-0.700
x33.757 y-9.283 z-0.700
x33.645 y-9.254 z-0.700
x33.534 y-9.220 z-0.700
x33.424 y-9.180 z-0.700
x33.315 y-9.135 z-0.700
x33.208 y-9.085 z-0.700
x33.104 y-9.029 z-0.700
x33.005 y-8.968 z-0.700
x32.912 y-8.900 z-0.700
x32.823 y-8.828 z-0.700
x32.739 y-8.749 z-0.700
x32.661 y-8.665 z-0.700
x32.587 y-8.576 z-0.700
x32.518 y-8.481 z-0.700
x32.455 y-8.380 z-0.700
x32.397 y-8.273 z-0.700
x32.344 y-8.161 z-0.700
x32.297 y-8.043 z-0.700
x32.255 y-7.921 z-0.700
x32.219 y-7.793 z-0.700
x32.188 y-7.659 z-0.700
x32.163 y-7.521 z-0.700
x32.144 y-7.377 z-0.700
x32.130 y-7.227 z-0.700
x32.121 y-7.073 z-0.700
x32.119 y-6.913 z-0.700
x32.121 y-6.782 z-0.700
x32.128 y-6.654 z-0.700
x32.139 y-6.527 z-0.700
x32.156 y-6.402 z-0.700
x32.177 y-6.279 z-0.700
x32.202 y-6.157 z-0.700
x32.232 y-6.038 z-0.700
x32.267 y-5.921 z-0.700
x32.306 y-5.805 z-0.700
x32.350 y-5.691 z-0.700
x32.378 y-5.626 z-0.700
x32.408 y-5.563 z-0.700
x32.441 y-5.500 z-0.700
x32.476 y-5.438 z-0.700
x32.513 y-5.378 z-0.700
x32.552 y-5.318 z-0.700
x32.593 y-5.260 z-0.700
x32.637 y-5.203 z-0.700
x32.683 y-5.146 z-0.700
x32.731 y-5.091 z-0.700
x32.782 y-5.037 z-0.700
x32.836 y-4.986 z-0.700
x32.893 y-4.936 z-0.700
x32.953 y-4.889 z-0.700
x33.016 y-4.843 z-0.700
x33.082 y-4.800 z-0.700
x33.151 y-4.759 z-0.700
x33.223 y-4.721 z-0.700
x33.299 y-4.684 z-0.700
x33.377 y-4.650 z-0.700
x33.459 y-4.618 z-0.700
x33.544 y-4.589 z-0.700
x33.631 y-4.564 z-0.700
x33.722 y-4.542 z-0.700
x33.816 y-4.524 z-0.700
x33.912 y-4.509 z-0.700
x34.011 y-4.497 z-0.700
x34.114 y-4.488 z-0.700
x34.219 y-4.483 z-0.700
x34.327 y-4.482 z-0.700
x34.418 y-4.483 z-0.700
x34.507 y-4.488 z-0.700
x34.595 y-4.496 z-0.700
x34.681 y-4.507 z-0.700
x34.765 y-4.522 z-0.700
x34.848 y-4.539 z-0.700
x34.928 y-4.560 z-0.700
x35.008 y-4.584 z-0.700
x35.085 y-4.611 z-0.700
x35.161 y-4.641 z-0.700
x35.234 y-4.674 z-0.700
x35.304 y-4.709 z-0.700
x35.371 y-4.746 z-0.700
x35.434 y-4.785 z-0.700
x35.493 y-4.826 z-0.700
x35.550 y-4.870 z-0.700
x35.602 y-4.915 z-0.700
x35.651 y-4.963 z-0.700
x35.697 y-5.013 z-0.700
x35.739 y-5.064 z-0.700
x35.779 y-5.120 z-0.700
x35.817 y-5.179 z-0.700
x35.854 y-5.242 z-0.700
x35.890 y-5.309 z-0.700
x35.925 y-5.380 z-0.700
x35.958 y-5.455 z-0.700
x35.990 y-5.533 z-0.700
x36.020 y-5.616 z-0.700
x36.050 y-5.702 z-0.700
x36.078 y-5.793 z-0.700
x36.802 y-5.595 z-0.700
x36.769 y-5.475 z-0.700
x36.734 y-5.359 z-0.700
x36.695 y-5.249 z-0.700
x36.654 y-5.142 z-0.700
x36.609 y-5.041 z-0.700
x36.562 y-4.944 z-0.700
x36.512 y-4.851 z-0.700
x36.459 y-4.763 z-0.700
x36.402 y-4.680 z-0.700
x36.343 y-4.602 z-0.700
x36.281 y-4.527 z-0.700
x36.214 y-4.457 z-0.700
x36.142 y-4.389 z-0.700
x36.066 y-4.325 z-0.700
x35.985 y-4.264 z-0.700
x35.899 y-4.206 z-0.700
x35.809 y-4.152 z-0.700
x35.714 y-4.101 z-0.700
x35.615 y-4.053 z-0.700
x35.511 y-4.009 z-0.700
x35.403 y-3.968 z-0.700
x35.293 y-3.932 z-0.700
x35.181 y-3.900 z-0.700
x35.066 y-3.872 z-0.700
x34.948 y-3.849 z-0.700
x34.828 y-3.830 z-0.700
x34.705 y-3.815 z-0.700
x34.580 y-3.804 z-0.700
x34.453 y-3.798 z-0.700
x34.323 y-3.796 z-0.700
x34.144 y-3.800 z-0.700
x33.969 y-3.811 z-0.700
x33.798 y-3.829 z-0.700
x33.632 y-3.855 z-0.700
x33.470 y-3.889 z-0.700
x33.312 y-3.930 z-0.700
x33.158 y-3.978 z-0.700
x33.009 y-4.034 z-0.700
x32.863 y-4.098 z-0.700
x32.722 y-4.168 z-0.700
x32.587 y-4.246 z-0.700
x32.458 y-4.332 z-0.700
x32.335 y-4.426 z-0.700
x32.219 y-4.528 z-0.700
x32.109 y-4.638 z-0.700
x32.006 y-4.756 z-0.700
x31.910 y-4.881 z-0.700
x31.819 y-5.015 z-0.700
x31.736 y-5.156 z-0.700
x31.658 y-5.306 z-0.700
x31.588 y-5.461 z-0.700
x31.525 y-5.618 z-0.700
x31.470 y-5.777 z-0.700
x31.422 y-5.939 z-0.700
x31.381 y-6.103 z-0.700
x31.348 y-6.269 z-0.700
x31.322 y-6.438 z-0.700
x31.303 y-6.609 z-0.700
x31.292 y-6.782 z-0.700
x31.289 y-6.958 z-0.700
x31.292 y-7.135 z-0.700
x31.304 y-7.308 z-0.700
x31.322 y-7.478 z-0.700
x31.348 y-7.645 z-0.700
x31.382 y-7.808 z-0.700
x31.423 y-7.968 z-0.700
x31.471 y-8.124 z-0.700
x31.527 y-8.278 z-0.700
x31.591 y-8.427 z-0.700
x31.661 y-8.574 z-0.700
x31.739 y-8.715 z-0.700
x31.824 y-8.849 z-0.700
x31.916 y-8.977 z-0.700
x32.016 y-9.098 z-0.700
x32.122 y-9.212 z-0.700
x32.236 y-9.319 z-0.700
x32.357 y-9.419 z-0.700
x32.485 y-9.513 z-0.700
x32.620 y-9.599 z-0.700
x32.762 y-9.679 z-0.700
x32.910 y-9.752 z-0.700
x33.060 y-9.817 z-0.700
x33.215 y-9.874 z-0.700
x33.372 y-9.924 z-0.700
x33.533 y-9.966 z-0.700
x33.696 y-10.000 z-0.700
x33.864 y-10.027 z-0.700
x34.034 y-10.046 z-0.700
x34.208 y-10.057 z-0.700
x34.385 y-10.061 z-0.700
x34.516 y-10.059 z-0.700
x34.648 y-10.052 z-0.700
x34.778 y-10.040 z-0.700
x34.908 y-10.023 z-0.700
x35.038 y-10.002 z-0.700
x35.166 y-9.976 z-0.700
x35.294 y-9.945 z-0.700
x35.422 y-9.909 z-0.700
x35.548 y-9.869 z-0.700
x35.675 y-9.824 z-0.700
x35.800 y-9.774 z-0.700
x35.924 y-9.720 z-0.700
x36.048 y-9.661 z-0.700
x36.171 y-9.597 z-0.700
x36.294 y-9.528 z-0.700
x36.415 y-9.455 z-0.700
x36.536 y-9.377 z-0.700
x36.656 y-9.295 z-0.700
x36.775 y-9.207 z-0.700
x36.894 y-9.116 z-0.700
x36.894 y-6.869 z-0.700
x34.328 y-6.869 z-0.700
x34.328 y-7.581 z-0.700

( Lift to 5.000 )
F2000 z5.000

( Percurso da ferramenta 11 )
( ------------------------- )

( Spindle on )
M3
S500

( Current depth = -0.700 )

( MoveToStartpoint2 )
F2000 G90 z5.000
F2000 x37.832 y-7.009 z5.000
F2000 x37.832 y-7.009 z0.000

( Loop )
G90 F500
x37.832 y-7.009 z-0.700
F500
x37.832 y-7.009 z-0.700
x37.836 y-7.168 z-0.700
x37.846 y-7.325 z-0.700
x37.863 y-7.480 z-0.700
x37.888 y-7.634 z-0.700
x37.919 y-7.786 z-0.700
x37.957 y-7.936 z-0.700
x38.002 y-8.085 z-0.700
x38.054 y-8.232 z-0.700
x38.113 y-8.377 z-0.700
x38.179 y-8.520 z-0.700
x38.252 y-8.660 z-0.700
x38.331 y-8.794 z-0.700
x38.417 y-8.922 z-0.700
x38.510 y-9.044 z-0.700
x38.609 y-9.160 z-0.700
x38.714 y-9.269 z-0.700
x38.826 y-9.373 z-0.700
x38.945 y-9.471 z-0.700
x39.069 y-9.562 z-0.700
x39.201 y-9.648 z-0.700
x39.338 y-9.726 z-0.700
x39.478 y-9.796 z-0.700
x39.622 y-9.858 z-0.700
x39.770 y-9.912 z-0.700
x39.921 y-9.958 z-0.700
x40.076 y-9.995 z-0.700
x40.234 y-10.024 z-0.700
x40.396 y-10.045 z-0.700
x40.562 y-10.057 z-0.700
x40.732 y-10.061 z-0.700
x40.889 y-10.057 z-0.700
x41.044 y-10.046 z-0.700
x41.196 y-10.028 z-0.700
x41.347 y-10.002 z-0.700
x41.495 y-9.968 z-0.700
x41.641 y-9.927 z-0.700
x41.785 y-9.878 z-0.700
x41.927 y-9.822 z-0.700
x42.067 y-9.758 z-0.700
x42.205 y-9.687 z-0.700
x42.338 y-9.609 z-0.700
x42.465 y-9.524 z-0.700
x42.586 y-9.432 z-0.700
x42.701 y-9.332 z-0.700
x42.809 y-9.226 z-0.700
x42.912 y-9.112 z-0.700
x43.008 y-8.991 z-0.700
x43.098 y-8.864 z-0.700
x43.182 y-8.729 z-0.700
x43.259 y-8.587 z-0.700
x43.330 y-8.439 z-0.700
x43.393 y-8.288 z-0.700
x43.449 y-8.133 z-0.700
x43.498 y-7.974 z-0.700
x43.539 y-7.811 z-0.700
x43.572 y-7.644 z-0.700
x43.598 y-7.474 z-0.700
x43.617 y-7.299 z-0.700
x43.628 y-7.121 z-0.700
x43.632 y-6.938 z-0.700
x43.628 y-6.759 z-0.700
x43.618 y-6.583 z-0.700
x43.600 y-6.411 z-0.700
x43.575 y-6.243 z-0.700
x43.543 y-6.078 z-0.700
x43.504 y-5.918 z-0.700
x43.458 y-5.761 z-0.700
x43.405 y-5.608 z-0.700
x43.345 y-5.459 z-0.700
x43.278 y-5.314 z-0.700
x43.204 y-5.174 z-0.700
x43.123 y-5.040 z-0.700
x43.037 y-4.912 z-0.700
x42.943 y-4.791 z-0.700
x42.844 y-4.676 z-0.700
x42.738 y-4.567 z-0.700
x42.626 y-4.465 z-0.700
x42.507 y-4.369 z-0.700
x42.382 y-4.280 z-0.700
x42.250 y-4.197 z-0.700
x42.114 y-4.121 z-0.700
x41.974 y-4.053 z-0.700
x41.831 y-3.992 z-0.700
x41.684 y-3.940 z-0.700
x41.535 y-3.896 z-0.700
x41.382 y-3.860 z-0.700
x41.225 y-3.832 z-0.700
x41.066 y-3.812 z-0.700
x40.903 y-3.800 z-0.700
x40.736 y-3.796 z-0.700
x40.484 y-3.804 z-0.700
x40.242 y-3.830 z-0.700
x40.009 y-3.872 z-0.700
x39.786 y-3.932 z-0.700
x39.572 y-4.009 z-0.700
x39.367 y-4.102 z-0.700
x39.172 y-4.213 z-0.700
x38.987 y-4.341 z-0.700
x38.810 y-4.486 z-0.700
x38.644 y-4.648 z-0.700
x38.489 y-4.825 z-0.700
x38.352 y-5.016 z-0.700
x38.230 y-5.219 z-0.700
x38.124 y-5.435 z-0.700
x38.035 y-5.665 z-0.700
x37.962 y-5.908 z-0.700
x37.905 y-6.163 z-0.700
x37.865 y-6.432 z-0.700
x37.840 y-6.714 z-0.700
x37.832 y-7.009 z-0.700

( Lift to 5.000 )
F2000 z5.000

( Percurso da ferramenta 12 )
( ------------------------- )

( Spindle on )
M3
S500

( Current depth = -0.700 )

( MoveToStartpoint2 )
F2000 G90 z5.000
F2000 x38.662 y-7.023 z5.000
F2000 x38.662 y-7.023 z0.000

( Loop )
G90 F500
x38.662 y-7.023 z-0.700
F500
x38.668 y-7.237 z-0.700
x38.685 y-7.442 z-0.700
x38.715 y-7.638 z-0.700
x38.756 y-7.824 z-0.700
x38.809 y-8.001 z-0.700
x38.874 y-8.169 z-0.700
x38.950 y-8.327 z-0.700
x39.038 y-8.476 z-0.700
x39.138 y-8.616 z-0.700
x39.250 y-8.746 z-0.700
x39.371 y-8.865 z-0.700
x39.498 y-8.972 z-0.700
x39.630 y-9.067 z-0.700
x39.769 y-9.149 z-0.700
x39.914 y-9.218 z-0.700
x40.065 y-9.275 z-0.700
x40.221 y-9.319 z-0.700
x40.384 y-9.350 z-0.700
x40.553 y-9.369 z-0.700
x40.728 y-9.375 z-0.700
x40.906 y-9.369 z-0.700
x41.077 y-9.350 z-0.700
x41.242 y-9.318 z-0.700
x41.401 y-9.274 z-0.700
x41.553 y-9.217 z-0.700
x41.698 y-9.147 z-0.700
x41.838 y-9.064 z-0.700
x41.971 y-8.969 z-0.700
x42.097 y-8.861 z-0.700
x42.218 y-8.740 z-0.700
x42.329 y-8.608 z-0.700
x42.428 y-8.465 z-0.700
x42.516 y-8.311 z-0.700
x42.592 y-8.147 z-0.700
x42.656 y-7.972 z-0.700
x42.709 y-7.786 z-0.700
x42.750 y-7.590 z-0.700
x42.779 y-7.383 z-0.700
x42.796 y-7.165 z-0.700
x42.802 y-6.937 z-0.700
x42.800 y-6.791 z-0.700
x42.792 y-6.649 z-0.700
x42.780 y-6.511 z-0.700
x42.762 y-6.376 z-0.700
x42.740 y-6.245 z-0.700
x42.712 y-6.118 z-0.700
x42.680 y-5.995 z-0.700
x42.642 y-5.875 z-0.700
x42.600 y-5.759 z-0.700
x42.552 y-5.647 z-0.700
x42.500 y-5.540 z-0.700
x42.443 y-5.437 z-0.700
x42.382 y-5.339 z-0.700
x42.315 y-5.246 z-0.700
x42.245 y-5.158 z-0.700
x42.169 y-5.076 z-0.700
x42.089 y-4.998 z-0.700
x42.004 y-4.925 z-0.700
x41.915 y-4.857 z-0.700
x41.821 y-4.794 z-0.700
x41.724 y-4.736 z-0.700
x41.624 y-4.684 z-0.700
x41.521 y-4.639 z-0.700
x41.417 y-4.600 z-0.700
x41.310 y-4.566 z-0.700
x41.201 y-4.539 z-0.700
x41.089 y-4.517 z-0.700
x40.975 y-4.502 z-0.700
x40.859 y-4.493 z-0.700
x40.740 y-4.490 z-0.700
x40.573 y-4.496 z-0.700
x40.410 y-4.513 z-0.700
x40.251 y-4.543 z-0.700
x40.098 y-4.584 z-0.700
x39.949 y-4.636 z-0.700
x39.805 y-4.700 z-0.700
x39.665 y-4.776 z-0.700
x39.531 y-4.864 z-0.700
x39.401 y-4.963 z-0.700
x39.276 y-5.074 z-0.700
x39.159 y-5.199 z-0.700
x39.055 y-5.339 z-0.700
x38.963 y-5.495 z-0.700
x38.883 y-5.666 z-0.700
x38.815 y-5.853 z-0.700
x38.760 y-6.056 z-0.700
x38.717 y-6.274 z-0.700
x38.686 y-6.508 z-0.700
x38.668 y-6.758 z-0.700
x38.662 y-7.023 z-0.700
x38.662 y-7.023 z-0.700

( Lift to 5.000 )
F2000 z5.000

( Percurso da ferramenta 13 )
( ------------------------- )

( Spindle on )
M3
S500

( Current depth = -0.700 )

( MoveToStartpoint2 )
F2000 G90 z5.000
F2000 x47.033 y-9.960 z5.000
F2000 x47.033 y-9.960 z0.000

( Loop )
G90 F500
x47.033 y-9.960 z-0.700
F500
x47.033 y-9.960 z-0.700
x51.554 y-9.960 z-0.700
x51.554 y-9.248 z-0.700
x47.837 y-9.248 z-0.700
x47.837 y-7.183 z-0.700
x51.181 y-7.183 z-0.700
x51.181 y-6.471 z-0.700
x47.837 y-6.471 z-0.700
x47.837 y-4.609 z-0.700
x51.410 y-4.609 z-0.700
x51.410 y-3.897 z-0.700
x47.033 y-3.897 z-0.700
x47.033 y-9.960 z-0.700

( Lift to 5.000 )
F2000 z5.000

( Percurso da ferramenta 14 )
( ------------------------- )

( Spindle on )
M3
S500

( Current depth = -0.700 )

( MoveToStartpoint2 )
F2000 G90 z5.000
F2000 x56.572 y-9.960 z5.000
F2000 x56.572 y-9.960 z0.000

( Loop )
G90 F500
x56.572 y-9.960 z-0.700
F500
x56.572 y-9.960 z-0.700
x57.376 y-9.960 z-0.700
x57.376 y-7.391 z-0.700
x59.798 y-3.897 z-0.700
x58.862 y-3.897 z-0.700
x57.688 y-5.684 z-0.700
x57.611 y-5.801 z-0.700
x57.536 y-5.916 z-0.700
x57.463 y-6.029 z-0.700
x57.392 y-6.139 z-0.700
x57.324 y-6.247 z-0.700
x57.258 y-6.353 z-0.700
x57.195 y-6.456 z-0.700
x57.133 y-6.557 z-0.700
x57.074 y-6.656 z-0.700
x57.018 y-6.752 z-0.700
x56.960 y-6.650 z-0.700
x56.902 y-6.548 z-0.700
x56.843 y-6.446 z-0.700
x56.782 y-6.344 z-0.700
x56.721 y-6.242 z-0.700
x56.658 y-6.140 z-0.700
x56.595 y-6.038 z-0.700
x56.530 y-5.936 z-0.700
x56.465 y-5.834 z-0.700
x56.398 y-5.732 z-0.700
x55.200 y-3.897 z-0.700
x54.235 y-3.897 z-0.700
x56.572 y-7.391 z-0.700
x56.572 y-9.960 z-0.700

( Lift to 5.000 )
F2000 z5.000

( Percurso da ferramenta 15 )
( ------------------------- )

( Spindle on )
M3
S500

( Current depth = -0.700 )

( MoveToStartpoint2 )
F2000 G90 z5.000
F2000 x64.481 y-3.897 z5.000
F2000 x64.481 y-3.897 z0.000

( Loop )
G90 F500
x64.481 y-3.897 z-0.700
F500
x64.481 y-3.897 z-0.700
x64.481 y-7.397 z-0.700
x64.477 y-7.618 z-0.700
x64.466 y-7.824 z-0.700
x64.447 y-8.016 z-0.700
x64.421 y-8.192 z-0.700
x64.388 y-8.354 z-0.700
x64.347 y-8.501 z-0.700
x64.298 y-8.633 z-0.700
x64.242 y-8.750 z-0.700
x64.178 y-8.853 z-0.700
x64.107 y-8.941 z-0.700
x64.027 y-9.017 z-0.700
x63.937 y-9.085 z-0.700
x63.837 y-9.145 z-0.700
x63.726 y-9.197 z-0.700
x63.606 y-9.241 z-0.700
x63.475 y-9.277 z-0.700
x63.334 y-9.305 z-0.700
x63.183 y-9.325 z-0.700
x63.022 y-9.337 z-0.700
x62.851 y-9.341 z-0.700
x62.750 y-9.339 z-0.700
x62.652 y-9.333 z-0.700
x62.557 y-9.323 z-0.700
x62.465 y-9.309 z-0.700
x62.376 y-9.291 z-0.700
x62.291 y-9.268 z-0.700
x62.208 y-9.242 z-0.700
x62.129 y-9.211 z-0.700
x62.053 y-9.177 z-0.700
x61.981 y-9.138 z-0.700
x61.911 y-9.096 z-0.700
x61.846 y-9.051 z-0.700
x61.785 y-9.002 z-0.700
x61.729 y-8.949 z-0.700
x61.676 y-8.893 z-0.700
x61.628 y-8.834 z-0.700
x61.585 y-8.771 z-0.700
x61.545 y-8.704 z-0.700
x61.509 y-8.634 z-0.700
x61.478 y-8.561 z-0.700
x61.450 y-8.482 z-0.700
x61.426 y-8.395 z-0.700
x61.404 y-8.300 z-0.700
x61.384 y-8.196 z-0.700
x61.368 y-8.083 z-0.700
x61.355 y-7.963 z-0.700
x61.345 y-7.834 z-0.700
x61.337 y-7.696 z-0.700
x61.333 y-7.551 z-0.700
x61.331 y-7.397 z-0.700
x61.331 y-3.897 z-0.700
x60.527 y-3.897 z-0.700
x60.527 y-7.398 z-0.700
x60.529 y-7.587 z-0.700
x60.536 y-7.767 z-0.700
x60.548 y-7.940 z-0.700
x60.564 y-8.104 z-0.700
x60.585 y-8.260 z-0.700
x60.611 y-8.408 z-0.700
x60.641 y-8.548 z-0.700
x60.675 y-8.679 z-0.700
x60.715 y-8.803 z-0.700
x60.759 y-8.918 z-0.700
x60.808 y-9.027 z-0.700
x60.863 y-9.130 z-0.700
x60.925 y-9.228 z-0.700
x60.993 y-9.321 z-0.700
x61.067 y-9.409 z-0.700
x61.147 y-9.491 z-0.700
x61.233 y-9.568 z-0.700
x61.326 y-9.640 z-0.700
x61.425 y-9.706 z-0.700
x61.530 y-9.768 z-0.700
x61.641 y-9.824 z-0.700
x61.759 y-9.874 z-0.700
x61.882 y-9.918 z-0.700
x62.012 y-9.956 z-0.700
x62.148 y-9.988 z-0.700
x62.290 y-10.014 z-0.700
x62.439 y-10.035 z-0.700
x62.593 y-10.050 z-0.700
x62.754 y-10.058 z-0.700
x62.920 y-10.061 z-0.700
x63.092 y-10.058 z-0.700
x63.257 y-10.048 z-0.700
x63.415 y-10.031 z-0.700
x63.567 y-10.007 z-0.700
x63.711 y-9.977 z-0.700
x63.849 y-9.940 z-0.700
x63.981 y-9.896 z-0.700
x64.105 y-9.845 z-0.700
x64.223 y-9.788 z-0.700
x64.334 y-9.724 z-0.700
x64.439 y-9.655 z-0.700
x64.536 y-9.581 z-0.700
x64.627 y-9.504 z-0.700
x64.712 y-9.422 z-0.700
x64.789 y-9.337 z-0.700
x64.861 y-9.248 z-0.700
x64.925 y-9.154 z-0.700
x64.983 y-9.057 z-0.700
x65.035 y-8.956 z-0.700
x65.079 y-8.851 z-0.700
x65.118 y-8.739 z-0.700
x65.153 y-8.620 z-0.700
x65.184 y-8.494 z-0.700
x65.211 y-8.360 z-0.700
x65.234 y-8.219 z-0.700
x65.252 y-8.070 z-0.700
x65.267 y-7.913 z-0.700
x65.277 y-7.749 z-0.700
x65.283 y-7.578 z-0.700
x65.285 y-7.398 z-0.700
x65.285 y-3.897 z-0.700
x64.481 y-3.897 z-0.700

( Lift to 5.000 )
F2000 z5.000

( Percurso da ferramenta 16 )
( ------------------------- )

( Spindle on )
M3
S500

( Current depth = -0.700 )

( MoveToStartpoint2 )
F2000 G90 z5.000
F2000 x66.642 y-9.960 z5.000
F2000 x66.642 y-9.960 z0.000

( Loop )
G90 F500
x66.642 y-9.960 z-0.700
F500
x66.642 y-9.960 z-0.700
x67.446 y-9.960 z-0.700
x67.446 y-7.267 z-0.700
x68.374 y-7.267 z-0.700
x68.435 y-7.267 z-0.700
x68.492 y-7.268 z-0.700
x68.545 y-7.270 z-0.700
x68.595 y-7.272 z-0.700
x68.641 y-7.274 z-0.700
x68.684 y-7.278 z-0.700
x68.723 y-7.281 z-0.700
x68.759 y-7.285 z-0.700
x68.791 y-7.290 z-0.700
x68.820 y-7.295 z-0.700
x68.857 y-7.305 z-0.700
x68.895 y-7.317 z-0.700
x68.932 y-7.329 z-0.700
x68.968 y-7.344 z-0.700
x69.005 y-7.359 z-0.700
x69.042 y-7.376 z-0.700
x69.078 y-7.394 z-0.700
x69.114 y-7.413 z-0.700
x69.150 y-7.434 z-0.700
x69.186 y-7.456 z-0.700
x69.222 y-7.481 z-0.700
x69.260 y-7.510 z-0.700
x69.298 y-7.541 z-0.700
x69.337 y-7.577 z-0.700
x69.377 y-7.615 z-0.700
x69.419 y-7.658 z-0.700
x69.461 y-7.703 z-0.700
x69.504 y-7.752 z-0.700
x69.548 y-7.805 z-0.700
x69.594 y-7.861 z-0.700
x69.640 y-7.922 z-0.700
x69.689 y-7.987 z-0.700
x69.741 y-8.058 z-0.700
x69.795 y-8.134 z-0.700
x69.851 y-8.215 z-0.700
x69.910 y-8.301 z-0.700
x69.972 y-8.393 z-0.700
x70.036 y-8.489 z-0.700
x70.102 y-8.591 z-0.700
x70.171 y-8.698 z-0.700
x70.972 y-9.960 z-0.700
x71.974 y-9.960 z-0.700
x70.926 y-8.309 z-0.700
x70.863 y-8.213 z-0.700
x70.799 y-8.121 z-0.700
x70.735 y-8.032 z-0.700
x70.670 y-7.947 z-0.700
x70.604 y-7.864 z-0.700
x70.537 y-7.785 z-0.700
x70.470 y-7.709 z-0.700
x70.401 y-7.637 z-0.700
x70.332 y-7.567 z-0.700
x70.262 y-7.501 z-0.700
x70.228 y-7.472 z-0.700
x70.190 y-7.442 z-0.700
x70.150 y-7.412 z-0.700
x70.106 y-7.382 z-0.700
x70.059 y-7.352 z-0.700
x70.009 y-7.321 z-0.700
x69.956 y-7.291 z-0.700
x69.900 y-7.260 z-0.700
x69.841 y-7.230 z-0.700
x69.778 y-7.200 z-0.700
x69.948 y-7.172 z-0.700
x70.109 y-7.138 z-0.700
x70.261 y-7.098 z-0.700
x70.403 y-7.052 z-0.700
x70.536 y-6.999 z-0.700
x70.661 y-6.940 z-0.700
x70.776 y-6.874 z-0.700
x70.882 y-6.802 z-0.700
x70.979 y-6.723 z-0.700
x71.067 y-6.638 z-0.700
x71.146 y-6.547 z-0.700
x71.217 y-6.453 z-0.700
x71.280 y-6.354 z-0.700
x71.334 y-6.251 z-0.700
x71.380 y-6.145 z-0.700
x71.417 y-6.034 z-0.700
x71.447 y-5.919 z-0.700
x71.468 y-5.800 z-0.700
x71.480 y-5.677 z-0.700
x71.484 y-5.550 z-0.700
x71.482 y-5.451 z-0.700
x71.474 y-5.353 z-0.700
x71.462 y-5.258 z-0.700
x71.444 y-5.164 z-0.700
x71.422 y-5.072 z-0.700
x71.394 y-4.981 z-0.700
x71.362 y-4.892 z-0.700
x71.324 y-4.806 z-0.700
x71.281 y-4.720 z-0.700
x71.233 y-4.637 z-0.700
x71.181 y-4.557 z-0.700
x71.126 y-4.482 z-0.700
x71.067 y-4.412 z-0.700
x71.005 y-4.347 z-0.700
x70.939 y-4.287 z-0.700
x70.870 y-4.231 z-0.700
x70.798 y-4.181 z-0.700
x70.722 y-4.136 z-0.700
x70.643 y-4.096 z-0.700
x70.560 y-4.061 z-0.700
x70.472 y-4.030 z-0.700
x70.376 y-4.002 z-0.700
x70.272 y-3.978 z-0.700
x70.161 y-3.957 z-0.700
x70.042 y-3.939 z-0.700
x69.914 y-3.924 z-0.700
x69.780 y-3.912 z-0.700
x69.637 y-3.904 z-0.700
x69.486 y-3.899 z-0.700
x69.328 y-3.897 z-0.700
x66.642 y-3.897 z-0.700
x66.642 y-9.960 z-0.700

( Lift to 5.000 )
F2000 z5.000

( Percurso da ferramenta 17 )
( ------------------------- )

( Spindle on )
M3
S500

( Current depth = -0.700 )

( MoveToStartpoint2 )
F2000 G90 z5.000
F2000 x67.446 y-6.573 z5.000
F2000 x67.446 y-6.573 z0.000

( Loop )
G90 F500
x67.446 y-6.573 z-0.700
F500
x69.167 y-6.573 z-0.700
x69.275 y-6.572 z-0.700
x69.378 y-6.568 z-0.700
x69.476 y-6.563 z-0.700
x69.569 y-6.555 z-0.700
x69.657 y-6.544 z-0.700
x69.740 y-6.532 z-0.700
x69.818 y-6.517 z-0.700
x69.892 y-6.500 z-0.700
x69.961 y-6.480 z-0.700
x70.025 y-6.459 z-0.700
x70.086 y-6.435 z-0.700
x70.143 y-6.408 z-0.700
x70.197 y-6.379 z-0.700
x70.249 y-6.347 z-0.700
x70.297 y-6.312 z-0.700
x70.343 y-6.274 z-0.700
x70.385 y-6.233 z-0.700
x70.424 y-6.190 z-0.700
x70.461 y-6.144 z-0.700
x70.494 y-6.095 z-0.700
x70.524 y-6.044 z-0.700
x70.552 y-5.993 z-0.700
x70.576 y-5.941 z-0.700
x70.597 y-5.888 z-0.700
x70.614 y-5.834 z-0.700
x70.629 y-5.779 z-0.700
x70.640 y-5.724 z-0.700
x70.648 y-5.667 z-0.700
x70.653 y-5.610 z-0.700
x70.655 y-5.551 z-0.700
x70.652 y-5.467 z-0.700
x70.642 y-5.385 z-0.700
x70.627 y-5.307 z-0.700
x70.605 y-5.231 z-0.700
x70.577 y-5.159 z-0.700
x70.543 y-5.090 z-0.700
x70.503 y-5.023 z-0.700
x70.456 y-4.960 z-0.700
x70.403 y-4.900 z-0.700
x70.344 y-4.843 z-0.700
x70.278 y-4.790 z-0.700
x70.205 y-4.743 z-0.700
x70.125 y-4.702 z-0.700
x70.038 y-4.666 z-0.700
x69.943 y-4.635 z-0.700
x69.841 y-4.610 z-0.700
x69.732 y-4.591 z-0.700
x69.616 y-4.577 z-0.700
x69.493 y-4.569 z-0.700
x69.362 y-4.566 z-0.700
x67.446 y-4.566 z-0.700
x67.446 y-6.573 z-0.700
x67.446 y-6.573 z-0.700

( Lift to 5.000 )
F2000 z5.000

( Percurso da ferramenta 18 )
( ------------------------- )

( Spindle on )
M3
S500

( Current depth = -0.700 )

( MoveToStartpoint2 )
F2000 G90 z5.000
F2000 x72.874 y-9.960 z5.000
F2000 x72.874 y-9.960 z0.000

( Loop )
G90 F500
x72.874 y-9.960 z-0.700
F500
x72.874 y-9.960 z-0.700
x73.679 y-9.960 z-0.700
x73.679 y-3.897 z-0.700
x72.874 y-3.897 z-0.700
x72.874 y-9.960 z-0.700

( Lift to 5.000 )
F2000 z5.000

( Percurso da ferramenta 19 )
( ------------------------- )

( Spindle on )
M3
S500

( Current depth = -0.700 )

( MoveToStartpoint2 )
F2000 G90 z5.000
F2000 x77.435 y-9.960 z5.000
F2000 x77.435 y-9.960 z0.000

( Loop )
G90 F500
x77.435 y-9.960 z-0.700
F500
x77.435 y-9.960 z-0.700
x78.206 y-9.960 z-0.700
x78.206 y-5.201 z-0.700
x81.386 y-9.960 z-0.700
x82.210 y-9.960 z-0.700
x82.210 y-3.897 z-0.700
x81.440 y-3.897 z-0.700
x81.440 y-8.656 z-0.700
x78.259 y-3.897 z-0.700
x77.435 y-3.897 z-0.700
x77.435 y-9.960 z-0.700

( Lift to 5.000 )
F2000 z5.000

( Percurso da ferramenta 2 )
( ------------------------- )

( Spindle on )
M3
S500

( Current depth = -0.700 )

( MoveToStartpoint2 )
F2000 G90 z5.000
F2000 x5.032 y-6.573 z5.000
F2000 x5.032 y-6.573 z0.000

( Loop )
G90 F500
x5.032 y-6.573 z-0.700
F500
x6.754 y-6.573 z-0.700
x6.861 y-6.572 z-0.700
x6.964 y-6.568 z-0.700
x7.062 y-6.563 z-0.700
x7.155 y-6.555 z-0.700
x7.243 y-6.544 z-0.700
x7.326 y-6.532 z-0.700
x7.405 y-6.517 z-0.700
x7.478 y-6.500 z-0.700
x7.547 y-6.480 z-0.700
x7.611 y-6.459 z-0.700
x7.672 y-6.435 z-0.700
x7.729 y-6.408 z-0.700
x7.784 y-6.379 z-0.700
x7.835 y-6.347 z-0.700
x7.883 y-6.312 z-0.700
x7.929 y-6.274 z-0.700
x7.971 y-6.233 z-0.700
x8.010 y-6.190 z-0.700
x8.047 y-6.144 z-0.700
x8.080 y-6.095 z-0.700
x8.111 y-6.044 z-0.700
x8.138 y-5.993 z-0.700
x8.162 y-5.941 z-0.700
x8.183 y-5.888 z-0.700
x8.201 y-5.834 z-0.700
x8.215 y-5.779 z-0.700
x8.226 y-5.724 z-0.700
x8.234 y-5.667 z-0.700
x8.239 y-5.610 z-0.700
x8.241 y-5.551 z-0.700
x8.238 y-5.467 z-0.700
x8.229 y-5.385 z-0.700
x8.213 y-5.307 z-0.700
x8.191 y-5.231 z-0.700
x8.163 y-5.159 z-0.700
x8.129 y-5.090 z-0.700
x8.089 y-5.023 z-0.700
x8.042 y-4.960 z-0.700
x7.990 y-4.900 z-0.700
x7.930 y-4.843 z-0.700
x7.865 y-4.790 z-0.700
x7.792 y-4.743 z-0.700
x7.711 y-4.702 z-0.700
x7.624 y-4.666 z-0.700
x7.529 y-4.635 z-0.700
x7.428 y-4.610 z-0.700
x7.318 y-4.591 z-0.700
x7.202 y-4.577 z-0.700
x7.079 y-4.569 z-0.700
x6.948 y-4.566 z-0.700
x5.032 y-4.566 z-0.700
x5.032 y-6.573 z-0.700
x5.032 y-6.573 z-0.700

( Lift to 5.000 )
F2000 z5.000

( Percurso da ferramenta 20 )
( ------------------------- )

( Spindle on )
M3
S500

( Current depth = -0.700 )

( MoveToStartpoint2 )
F2000 G90 z5.000
F2000 x83.312 y-7.009 z5.000
F2000 x83.312 y-7.009 z0.000

( Loop )
G90 F500
x83.312 y-7.009 z-0.700
F500
x83.312 y-7.009 z-0.700
x83.316 y-7.168 z-0.700
x83.326 y-7.325 z-0.700
x83.344 y-7.480 z-0.700
x83.368 y-7.634 z-0.700
x83.399 y-7.786 z-0.700
x83.437 y-7.936 z-0.700
x83.482 y-8.085 z-0.700
x83.535 y-8.232 z-0.700
x83.594 y-8.377 z-0.700
x83.660 y-8.520 z-0.700
x83.732 y-8.660 z-0.700
x83.812 y-8.794 z-0.700
x83.897 y-8.922 z-0.700
x83.990 y-9.044 z-0.700
x84.089 y-9.160 z-0.700
x84.194 y-9.269 z-0.700
x84.306 y-9.373 z-0.700
x84.425 y-9.471 z-0.700
x84.550 y-9.562 z-0.700
x84.681 y-9.648 z-0.700
x84.818 y-9.726 z-0.700
x84.958 y-9.796 z-0.700
x85.102 y-9.858 z-0.700
x85.250 y-9.912 z-0.700
x85.401 y-9.958 z-0.700
x85.556 y-9.995 z-0.700
x85.715 y-10.024 z-0.700
x85.877 y-10.045 z-0.700
x86.043 y-10.057 z-0.700
x86.212 y-10.061 z-0.700
x86.369 y-10.057 z-0.700
x86.524 y-10.046 z-0.700
x86.676 y-10.028 z-0.700
x86.827 y-10.002 z-0.700
x86.975 y-9.968 z-0.700
x87.122 y-9.927 z-0.700
x87.266 y-9.878 z-0.700
x87.408 y-9.822 z-0.700
x87.548 y-9.758 z-0.700
x87.686 y-9.687 z-0.700
x87.819 y-9.609 z-0.700
x87.946 y-9.524 z-0.700
x88.067 y-9.432 z-0.700
x88.181 y-9.332 z-0.700
x88.290 y-9.226 z-0.700
x88.392 y-9.112 z-0.700
x88.488 y-8.991 z-0.700
x88.578 y-8.864 z-0.700
x88.662 y-8.729 z-0.700
x88.740 y-8.587 z-0.700
x88.810 y-8.439 z-0.700
x88.874 y-8.288 z-0.700
x88.930 y-8.133 z-0.700
x88.978 y-7.974 z-0.700
x89.019 y-7.811 z-0.700
x89.052 y-7.644 z-0.700
x89.079 y-7.474 z-0.700
x89.097 y-7.299 z-0.700
x89.108 y-7.121 z-0.700
x89.112 y-6.938 z-0.700
x89.109 y-6.759 z-0.700
x89.098 y-6.583 z-0.700
x89.080 y-6.411 z-0.700
x89.055 y-6.243 z-0.700
x89.023 y-6.078 z-0.700
x88.984 y-5.918 z-0.700
x88.938 y-5.761 z-0.700
x88.885 y-5.608 z-0.700
x88.825 y-5.459 z-0.700
x88.758 y-5.314 z-0.700
x88.684 y-5.174 z-0.700
x88.604 y-5.040 z-0.700
x88.517 y-4.912 z-0.700
x88.424 y-4.791 z-0.700
x88.324 y-4.676 z-0.700
x88.218 y-4.567 z-0.700
x88.106 y-4.465 z-0.700
x87.987 y-4.369 z-0.700
x87.862 y-4.280 z-0.700
x87.731 y-4.197 z-0.700
x87.594 y-4.121 z-0.700
x87.454 y-4.053 z-0.700
x87.311 y-3.992 z-0.700
x87.165 y-3.940 z-0.700
x87.015 y-3.896 z-0.700
x86.862 y-3.860 z-0.700
x86.706 y-3.832 z-0.700
x86.546 y-3.812 z-0.700
x86.383 y-3.800 z-0.700
x86.217 y-3.796 z-0.700
x85.965 y-3.804 z-0.700
x85.722 y-3.830 z-0.700
x85.489 y-3.872 z-0.700
x85.266 y-3.932 z-0.700
x85.052 y-4.009 z-0.700
x84.848 y-4.102 z-0.700
x84.653 y-4.213 z-0.700
x84.467 y-4.341 z-0.700
x84.291 y-4.486 z-0.700
x84.124 y-4.648 z-0.700
x83.970 y-4.825 z-0.700
x83.832 y-5.016 z-0.700
x83.710 y-5.219 z-0.700
x83.605 y-5.435 z-0.700
x83.515 y-5.665 z-0.700
x83.442 y-5.908 z-0.700
x83.386 y-6.163 z-0.700
x83.345 y-6.432 z-0.700
x83.321 y-6.714 z-0.700
x83.312 y-7.009 z-0.700

( Lift to 5.000 )
F2000 z5.000

( Percurso da ferramenta 21 )
( ------------------------- )

( Spindle on )
M3
S500

( Current depth = -0.700 )

( MoveToStartpoint2 )
F2000 G90 z5.000
F2000 x84.142 y-7.023 z5.000
F2000 x84.142 y-7.023 z0.000

( Loop )
G90 F500
x84.142 y-7.023 z-0.700
F500
x84.148 y-7.237 z-0.700
x84.166 y-7.442 z-0.700
x84.195 y-7.638 z-0.700
x84.236 y-7.824 z-0.700
x84.289 y-8.001 z-0.700
x84.354 y-8.169 z-0.700
x84.430 y-8.327 z-0.700
x84.519 y-8.476 z-0.700
x84.619 y-8.616 z-0.700
x84.731 y-8.746 z-0.700
x84.851 y-8.865 z-0.700
x84.978 y-8.972 z-0.700
x85.111 y-9.067 z-0.700
x85.249 y-9.149 z-0.700
x85.394 y-9.218 z-0.700
x85.545 y-9.275 z-0.700
x85.702 y-9.319 z-0.700
x85.864 y-9.350 z-0.700
x86.033 y-9.369 z-0.700
x86.208 y-9.375 z-0.700
x86.386 y-9.369 z-0.700
x86.557 y-9.350 z-0.700
x86.722 y-9.318 z-0.700
x86.881 y-9.274 z-0.700
x87.033 y-9.217 z-0.700
x87.179 y-9.147 z-0.700
x87.318 y-9.064 z-0.700
x87.451 y-8.969 z-0.700
x87.578 y-8.861 z-0.700
x87.698 y-8.740 z-0.700
x87.809 y-8.608 z-0.700
x87.908 y-8.465 z-0.700
x87.996 y-8.311 z-0.700
x88.072 y-8.147 z-0.700
x88.136 y-7.972 z-0.700
x88.189 y-7.786 z-0.700
x88.230 y-7.590 z-0.700
x88.259 y-7.383 z-0.700
x88.277 y-7.165 z-0.700
x88.282 y-6.937 z-0.700
x88.280 y-6.791 z-0.700
x88.272 y-6.649 z-0.700
x88.260 y-6.511 z-0.700
x88.242 y-6.376 z-0.700
x88.220 y-6.245 z-0.700
x88.192 y-6.118 z-0.700
x88.160 y-5.995 z-0.700
x88.123 y-5.875 z-0.700
x88.080 y-5.759 z-0.700
x88.033 y-5.647 z-0.700
x87.980 y-5.540 z-0.700
x87.923 y-5.437 z-0.700
x87.862 y-5.339 z-0.700
x87.796 y-5.246 z-0.700
x87.725 y-5.158 z-0.700
x87.649 y-5.076 z-0.700
x87.569 y-4.998 z-0.700
x87.485 y-4.925 z-0.700
x87.395 y-4.857 z-0.700
x87.302 y-4.794 z-0.700
x87.204 y-4.736 z-0.700
x87.104 y-4.684 z-0.700
x87.002 y-4.639 z-0.700
x86.897 y-4.600 z-0.700
x86.790 y-4.566 z-0.700
x86.681 y-4.539 z-0.700
x86.570 y-4.517 z-0.700
x86.456 y-4.502 z-0.700
x86.339 y-4.493 z-0.700
x86.221 y-4.490 z-0.700
x86.053 y-4.496 z-0.700
x85.890 y-4.513 z-0.700
x85.731 y-4.543 z-0.700
x85.578 y-4.584 z-0.700
x85.429 y-4.636 z-0.700
x85.285 y-4.700 z-0.700
x85.146 y-4.776 z-0.700
x85.011 y-4.864 z-0.700
x84.881 y-4.963 z-0.700
x84.756 y-5.074 z-0.700
x84.639 y-5.199 z-0.700
x84.535 y-5.339 z-0.700
x84.443 y-5.495 z-0.700
x84.363 y-5.666 z-0.700
x84.296 y-5.853 z-0.700
x84.240 y-6.056 z-0.700
x84.197 y-6.274 z-0.700
x84.167 y-6.508 z-0.700
x84.148 y-6.758 z-0.700
x84.142 y-7.023 z-0.700
x84.142 y-7.023 z-0.700

( Lift to 5.000 )
F2000 z5.000

( Percurso da ferramenta 22 )
( ------------------------- )

( Spindle on )
M3
S500

( Current depth = -0.700 )

( MoveToStartpoint2 )
F2000 G90 z5.000
F2000 x92.538 y-9.960 z5.000
F2000 x92.538 y-9.960 z0.000

( Loop )
G90 F500
x92.538 y-9.960 z-0.700
F500
x92.538 y-9.960 z-0.700
x93.343 y-9.960 z-0.700
x93.343 y-7.208 z-0.700
x96.187 y-7.208 z-0.700
x96.187 y-6.497 z-0.700
x93.343 y-6.497 z-0.700
x93.343 y-4.609 z-0.700
x96.628 y-4.609 z-0.700
x96.628 y-3.897 z-0.700
x92.538 y-3.897 z-0.700
x92.538 y-9.960 z-0.700

( Lift to 5.000 )
F2000 z5.000

( Percurso da ferramenta 23 )
( ------------------------- )

( Spindle on )
M3
S500

( Current depth = -0.700 )

( MoveToStartpoint2 )
F2000 G90 z5.000
F2000 x96.536 y-9.960 z5.000
F2000 x96.536 y-9.960 z0.000

( Loop )
G90 F500
x96.536 y-9.960 z-0.700
F500
x96.536 y-9.960 z-0.700
x97.387 y-9.960 z-0.700
x98.045 y-8.122 z-0.700
x100.597 y-8.122 z-0.700
x101.299 y-9.960 z-0.700
x102.212 y-9.960 z-0.700
x99.744 y-3.897 z-0.700
x98.862 y-3.897 z-0.700
x96.536 y-9.960 z-0.700

( Lift to 5.000 )
F2000 z5.000

( Percurso da ferramenta 24 )
( ------------------------- )

( Spindle on )
M3
S500

( Current depth = -0.700 )

( MoveToStartpoint2 )
F2000 G90 z5.000
F2000 x98.280 y-7.470 z5.000
F2000 x98.280 y-7.470 z0.000

( Loop )
G90 F500
x98.280 y-7.470 z-0.700
F500
x100.346 y-7.470 z-0.700
x99.714 y-5.790 z-0.700
x99.658 y-5.639 z-0.700
x99.605 y-5.494 z-0.700
x99.555 y-5.354 z-0.700
x99.507 y-5.219 z-0.700
x99.463 y-5.090 z-0.700
x99.421 y-4.966 z-0.700
x99.381 y-4.848 z-0.700
x99.345 y-4.734 z-0.700
x99.311 y-4.627 z-0.700
x99.279 y-4.524 z-0.700
x99.253 y-4.642 z-0.700
x99.226 y-4.760 z-0.700
x99.197 y-4.878 z-0.700
x99.166 y-4.995 z-0.700
x99.133 y-5.112 z-0.700
x99.099 y-5.228 z-0.700
x99.063 y-5.344 z-0.700
x99.025 y-5.460 z-0.700
x98.986 y-5.576 z-0.700
x98.945 y-5.691 z-0.700
x98.280 y-7.470 z-0.700
x98.280 y-7.470 z-0.700

( Lift to 5.000 )
F2000 z5.000

( Percurso da ferramenta 25 )
( ------------------------- )

( Spindle on )
M3
S500

( Current depth = -0.700 )

( MoveToStartpoint2 )
F2000 G90 z5.000
F2000 x102.814 y-9.960 z5.000
F2000 x102.814 y-9.960 z0.000

( Loop )
G90 F500
x102.814 y-9.960 z-0.700
F500
x102.814 y-9.960 z-0.700
x105.127 y-9.960 z-0.700
x105.241 y-9.959 z-0.700
x105.352 y-9.956 z-0.700
x105.459 y-9.950 z-0.700
x105.562 y-9.943 z-0.700
x105.662 y-9.934 z-0.700
x105.758 y-9.923 z-0.700
x105.850 y-9.910 z-0.700
x105.939 y-9.895 z-0.700
x106.024 y-9.877 z-0.700
x106.106 y-9.858 z-0.700
x106.184 y-9.837 z-0.700
x106.260 y-9.813 z-0.700
x106.333 y-9.788 z-0.700
x106.403 y-9.761 z-0.700
x106.471 y-9.732 z-0.700
x106.536 y-9.701 z-0.700
x106.598 y-9.669 z-0.700
x106.658 y-9.634 z-0.700
x106.715 y-9.597 z-0.700
x106.769 y-9.559 z-0.700
x106.821 y-9.517 z-0.700
x106.872 y-9.473 z-0.700
x106.921 y-9.425 z-0.700
x106.968 y-9.373 z-0.700
x107.013 y-9.318 z-0.700
x107.056 y-9.260 z-0.700
x107.098 y-9.199 z-0.700
x107.139 y-9.134 z-0.700
x107.177 y-9.066 z-0.700
x107.214 y-8.994 z-0.700
x107.248 y-8.921 z-0.700
x107.279 y-8.846 z-0.700
x107.306 y-8.769 z-0.700
x107.329 y-8.692 z-0.700
x107.349 y-8.613 z-0.700
x107.366 y-8.533 z-0.700
x107.378 y-8.452 z-0.700
x107.387 y-8.370 z-0.700
x107.393 y-8.286 z-0.700
x107.395 y-8.201 z-0.700
x107.392 y-8.097 z-0.700
x107.383 y-7.995 z-0.700
x107.368 y-7.896 z-0.700
x107.347 y-7.800 z-0.700
x107.321 y-7.707 z-0.700
x107.288 y-7.617 z-0.700
x107.249 y-7.529 z-0.700
x107.205 y-7.445 z-0.700
x107.155 y-7.363 z-0.700
x107.098 y-7.284 z-0.700
x107.037 y-7.209 z-0.700
x106.970 y-7.137 z-0.700
x106.899 y-7.071 z-0.700
x106.822 y-7.009 z-0.700
x106.740 y-6.952 z-0.700
x106.653 y-6.899 z-0.700
x106.560 y-6.851 z-0.700
x106.463 y-6.807 z-0.700
x106.361 y-6.768 z-0.700
x106.253 y-6.734 z-0.700
x106.336 y-6.690 z-0.700
x106.415 y-6.644 z-0.700
x106.489 y-6.595 z-0.700
x106.559 y-6.543 z-0.700
x106.624 y-6.489 z-0.700
x106.686 y-6.433 z-0.700
x106.743 y-6.373 z-0.700
x106.796 y-6.311 z-0.700
x106.844 y-6.246 z-0.700
x106.888 y-6.179 z-0.700
x106.928 y-6.110 z-0.700
x106.964 y-6.040 z-0.700
x106.995 y-5.969 z-0.700
x107.022 y-5.898 z-0.700
x107.045 y-5.825 z-0.700
x107.064 y-5.751 z-0.700
x107.079 y-5.677 z-0.700
x107.090 y-5.602 z-0.700
x107.096 y-5.525 z-0.700
x107.098 y-5.448 z-0.700
x107.096 y-5.365 z-0.700
x107.089 y-5.282 z-0.700
x107.077 y-5.200 z-0.700
x107.060 y-5.119 z-0.700
x107.039 y-5.039 z-0.700
x107.013 y-4.959 z-0.700
x106.982 y-4.880 z-0.700
x106.946 y-4.802 z-0.700
x106.905 y-4.725 z-0.700
x106.860 y-4.648 z-0.700
x106.810 y-4.574 z-0.700
x106.758 y-4.503 z-0.700
x106.701 y-4.436 z-0.700
x106.641 y-4.374 z-0.700
x106.577 y-4.315 z-0.700
x106.510 y-4.260 z-0.700
x106.439 y-4.209 z-0.700
x106.364 y-4.163 z-0.700
x106.286 y-4.120 z-0.700
x106.204 y-4.081 z-0.700
x106.117 y-4.046 z-0.700
x106.024 y-4.015 z-0.700
x105.926 y-3.987 z-0.700
x105.823 y-3.963 z-0.700
x105.714 y-3.943 z-0.700
x105.600 y-3.927 z-0.700
x105.481 y-3.914 z-0.700
x105.355 y-3.905 z-0.700
x105.225 y-3.899 z-0.700
x105.089 y-3.897 z-0.700
x102.814 y-3.897 z-0.700
x102.814 y-9.960 z-0.700

( Lift to 5.000 )
F2000 z5.000

( Percurso da ferramenta 26 )
( ------------------------- )

( Spindle on )
M3
S500

( Current depth = -0.700 )

( MoveToStartpoint2 )
F2000 G90 z5.000
F2000 x103.618 y-6.446 z5.000
F2000 x103.618 y-6.446 z0.000

( Loop )
G90 F500
x103.618 y-6.446 z-0.700
F500
x104.929 y-6.446 z-0.700
x105.033 y-6.445 z-0.700
x105.131 y-6.443 z-0.700
x105.222 y-6.439 z-0.700
x105.308 y-6.434 z-0.700
x105.387 y-6.428 z-0.700
x105.461 y-6.420 z-0.700
x105.528 y-6.411 z-0.700
x105.590 y-6.401 z-0.700
x105.645 y-6.389 z-0.700
x105.694 y-6.375 z-0.700
x105.754 y-6.356 z-0.700
x105.811 y-6.334 z-0.700
x105.865 y-6.310 z-0.700
x105.915 y-6.283 z-0.700
x105.963 y-6.254 z-0.700
x106.008 y-6.222 z-0.700
x106.049 y-6.188 z-0.700
x106.088 y-6.152 z-0.700
x106.123 y-6.113 z-0.700
x106.156 y-6.072 z-0.700
x106.185 y-6.029 z-0.700
x106.211 y-5.983 z-0.700
x106.235 y-5.935 z-0.700
x106.255 y-5.886 z-0.700
x106.272 y-5.834 z-0.700
x106.286 y-5.780 z-0.700
x106.297 y-5.723 z-0.700
x106.305 y-5.665 z-0.700
x106.309 y-5.604 z-0.700
x106.311 y-5.541 z-0.700
x106.309 y-5.482 z-0.700
x106.305 y-5.423 z-0.700
x106.298 y-5.366 z-0.700
x106.288 y-5.311 z-0.700
x106.275 y-5.257 z-0.700
x106.259 y-5.204 z-0.700
x106.240 y-5.153 z-0.700
x106.218 y-5.104 z-0.700
x106.193 y-5.056 z-0.700
x106.166 y-5.009 z-0.700
x106.135 y-4.965 z-0.700
x106.103 y-4.923 z-0.700
x106.068 y-4.884 z-0.700
x106.030 y-4.848 z-0.700
x105.990 y-4.815 z-0.700
x105.947 y-4.785 z-0.700
x105.902 y-4.757 z-0.700
x105.855 y-4.733 z-0.700
x105.805 y-4.712 z-0.700
x105.752 y-4.693 z-0.700
x105.694 y-4.677 z-0.700
x105.629 y-4.663 z-0.700
x105.556 y-4.650 z-0.700
x105.475 y-4.639 z-0.700
x105.387 y-4.630 z-0.700
x105.291 y-4.622 z-0.700
x105.187 y-4.616 z-0.700
x105.076 y-4.612 z-0.700
x104.957 y-4.609 z-0.700
x104.831 y-4.609 z-0.700
x103.618 y-4.609 z-0.700
x103.618 y-6.446 z-0.700
x103.618 y-6.446 z-0.700

( Lift to 5.000 )
F2000 z5.000

( Percurso da ferramenta 27 )
( ------------------------- )

( Spindle on )
M3
S500

( Current depth = -0.700 )

( MoveToStartpoint2 )
F2000 G90 z5.000
F2000 x103.618 y-9.248 z5.000
F2000 x103.618 y-9.248 z0.000

( Loop )
G90 F500
x103.618 y-9.248 z-0.700
F500
x105.128 y-9.248 z-0.700
x105.204 y-9.248 z-0.700
x105.275 y-9.247 z-0.700
x105.341 y-9.246 z-0.700
x105.403 y-9.244 z-0.700
x105.460 y-9.241 z-0.700
x105.512 y-9.238 z-0.700
x105.560 y-9.234 z-0.700
x105.603 y-9.229 z-0.700
x105.642 y-9.224 z-0.700
x105.676 y-9.219 z-0.700
x105.730 y-9.208 z-0.700
x105.782 y-9.197 z-0.700
x105.833 y-9.183 z-0.700
x105.882 y-9.169 z-0.700
x105.929 y-9.153 z-0.700
x105.975 y-9.136 z-0.700
x106.019 y-9.117 z-0.700
x106.060 y-9.098 z-0.700
x106.101 y-9.076 z-0.700
x106.139 y-9.054 z-0.700
x106.175 y-9.029 z-0.700
x106.210 y-9.003 z-0.700
x106.244 y-8.974 z-0.700
x106.277 y-8.944 z-0.700
x106.308 y-8.911 z-0.700
x106.338 y-8.876 z-0.700
x106.367 y-8.839 z-0.700
x106.394 y-8.800 z-0.700
x106.420 y-8.758 z-0.700
x106.445 y-8.715 z-0.700
x106.468 y-8.670 z-0.700
x106.488 y-8.623 z-0.700
x106.506 y-8.576 z-0.700
x106.522 y-8.526 z-0.700
x106.535 y-8.476 z-0.700
x106.546 y-8.424 z-0.700
x106.554 y-8.371 z-0.700
x106.560 y-8.316 z-0.700
x106.564 y-8.260 z-0.700
x106.565 y-8.203 z-0.700
x106.563 y-8.136 z-0.700
x106.558 y-8.070 z-0.700
x106.549 y-8.007 z-0.700
x106.537 y-7.945 z-0.700
x106.521 y-7.885 z-0.700
x106.502 y-7.827 z-0.700
x106.479 y-7.770 z-0.700
x106.453 y-7.716 z-0.700
x106.423 y-7.663 z-0.700
x106.390 y-7.612 z-0.700
x106.354 y-7.563 z-0.700
x106.315 y-7.517 z-0.700
x106.273 y-7.474 z-0.700
x106.229 y-7.434 z-0.700
x106.182 y-7.398 z-0.700
x106.133 y-7.364 z-0.700
x106.080 y-7.333 z-0.700
x106.025 y-7.305 z-0.700
x105.968 y-7.281 z-0.700
x105.907 y-7.259 z-0.700
x105.843 y-7.239 z-0.700
x105.773 y-7.222 z-0.700
x105.698 y-7.207 z-0.700
x105.618 y-7.194 z-0.700
x105.532 y-7.183 z-0.700
x105.440 y-7.173 z-0.700
x105.344 y-7.166 z-0.700
x105.242 y-7.161 z-0.700
x105.134 y-7.158 z-0.700
x105.021 y-7.157 z-0.700
x103.618 y-7.157 z-0.700
x103.618 y-9.248 z-0.700
x103.618 y-9.248 z-0.700

( Lift to 5.000 )
F2000 z5.000

( Percurso da ferramenta 28 )
( ------------------------- )

( Spindle on )
M3
S500

( Current depth = -0.700 )

( MoveToStartpoint2 )
F2000 G90 z5.000
F2000 x110.814 y-9.960 z5.000
F2000 x110.814 y-9.960 z0.000

( Loop )
G90 F500
x110.814 y-9.960 z-0.700
F500
x110.814 y-9.960 z-0.700
x114.598 y-9.960 z-0.700
x114.598 y-9.248 z-0.700
x111.618 y-9.248 z-0.700
x111.618 y-3.897 z-0.700
x110.814 y-3.897 z-0.700
x110.814 y-9.960 z-0.700

( Lift to 5.000 )
F2000 z5.000

( Percurso da ferramenta 29 )
( ------------------------- )

( Spindle on )
M3
S500

( Current depth = -0.700 )

( MoveToStartpoint2 )
F2000 G90 z5.000
F2000 x114.892 y-9.960 z5.000
F2000 x114.892 y-9.960 z0.000

( Loop )
G90 F500
x114.892 y-9.960 z-0.700
F500
x114.892 y-9.960 z-0.700
x115.743 y-9.960 z-0.700
x116.400 y-8.122 z-0.700
x118.953 y-8.122 z-0.700
x119.654 y-9.960 z-0.700
x120.567 y-9.960 z-0.700
x118.099 y-3.897 z-0.700
x117.217 y-3.897 z-0.700
x114.892 y-9.960 z-0.700

( Lift to 5.000 )
F2000 z5.000

( Percurso da ferramenta 3 )
( ------------------------- )

( Spindle on )
M3
S500

( Current depth = -0.700 )

( MoveToStartpoint2 )
F2000 G90 z5.000
F2000 x10.080 y-7.009 z5.000
F2000 x10.080 y-7.009 z0.000

( Loop )
G90 F500
x10.080 y-7.009 z-0.700
F500
x10.080 y-7.009 z-0.700
x10.083 y-7.168 z-0.700
x10.093 y-7.325 z-0.700
x10.111 y-7.480 z-0.700
x10.135 y-7.634 z-0.700
x10.166 y-7.786 z-0.700
x10.205 y-7.936 z-0.700
x10.250 y-8.085 z-0.700
x10.302 y-8.232 z-0.700
x10.361 y-8.377 z-0.700
x10.427 y-8.520 z-0.700
x10.499 y-8.660 z-0.700
x10.579 y-8.794 z-0.700
x10.665 y-8.922 z-0.700
x10.757 y-9.044 z-0.700
x10.856 y-9.160 z-0.700
x10.962 y-9.269 z-0.700
x11.074 y-9.373 z-0.700
x11.192 y-9.471 z-0.700
x11.317 y-9.562 z-0.700
x11.448 y-9.648 z-0.700
x11.585 y-9.726 z-0.700
x11.726 y-9.796 z-0.700
x11.870 y-9.858 z-0.700
x12.017 y-9.912 z-0.700
x12.168 y-9.958 z-0.700
x12.323 y-9.995 z-0.700
x12.482 y-10.024 z-0.700
x12.644 y-10.045 z-0.700
x12.810 y-10.057 z-0.700
x12.979 y-10.061 z-0.700
x13.136 y-10.057 z-0.700
x13.291 y-10.046 z-0.700
x13.444 y-10.028 z-0.700
x13.594 y-10.002 z-0.700
x13.743 y-9.968 z-0.700
x13.889 y-9.927 z-0.700
x14.033 y-9.878 z-0.700
x14.175 y-9.822 z-0.700
x14.315 y-9.758 z-0.700
x14.453 y-9.687 z-0.700
x14.586 y-9.609 z-0.700
x14.713 y-9.524 z-0.700
x14.834 y-9.432 z-0.700
x14.948 y-9.332 z-0.700
x15.057 y-9.226 z-0.700
x15.159 y-9.112 z-0.700
x15.255 y-8.991 z-0.700
x15.345 y-8.864 z-0.700
x15.429 y-8.729 z-0.700
x15.507 y-8.587 z-0.700
x15.578 y-8.439 z-0.700
x15.641 y-8.288 z-0.700
x15.697 y-8.133 z-0.700
x15.745 y-7.974 z-0.700
x15.786 y-7.811 z-0.700
x15.820 y-7.644 z-0.700
x15.846 y-7.474 z-0.700
x15.864 y-7.299 z-0.700
x15.876 y-7.121 z-0.700
x15.879 y-6.938 z-0.700
x15.876 y-6.759 z-0.700
x15.865 y-6.583 z-0.700
x15.847 y-6.411 z-0.700
x15.823 y-6.243 z-0.700
x15.791 y-6.078 z-0.700
x15.752 y-5.918 z-0.700
x15.706 y-5.761 z-0.700
x15.652 y-5.608 z-0.700
x15.592 y-5.459 z-0.700
x15.525 y-5.314 z-0.700
x15.451 y-5.174 z-0.700
x15.371 y-5.040 z-0.700
x15.284 y-4.912 z-0.700
x15.191 y-4.791 z-0.700
x15.091 y-4.676 z-0.700
x14.985 y-4.567 z-0.700
x14.873 y-4.465 z-0.700
x14.754 y-4.369 z-0.700
x14.629 y-4.280 z-0.700
x14.498 y-4.197 z-0.700
x14.361 y-4.121 z-0.700
x14.221 y-4.053 z-0.700
x14.078 y-3.992 z-0.700
x13.932 y-3.940 z-0.700
x13.782 y-3.896 z-0.700
x13.629 y-3.860 z-0.700
x13.473 y-3.832 z-0.700
x13.313 y-3.812 z-0.700
x13.150 y-3.800 z-0.700
x12.984 y-3.796 z-0.700
x12.732 y-3.804 z-0.700
x12.490 y-3.830 z-0.700
x12.257 y-3.872 z-0.700
x12.033 y-3.932 z-0.700
x11.819 y-4.009 z-0.700
x11.615 y-4.102 z-0.700
x11.420 y-4.213 z-0.700
x11.234 y-4.341 z-0.700
x11.058 y-4.486 z-0.700
x10.891 y-4.648 z-0.700
x10.737 y-4.825 z-0.700
x10.599 y-5.016 z-0.700
x10.477 y-5.219 z-0.700
x10.372 y-5.435 z-0.700
x10.283 y-5.665 z-0.700
x10.210 y-5.908 z-0.700
x10.153 y-6.163 z-0.700
x10.112 y-6.432 z-0.700
x10.088 y-6.714 z-0.700
x10.080 y-7.009 z-0.700

( Lift to 5.000 )
F2000 z5.000

( Percurso da ferramenta 30 )
( ------------------------- )

( Spindle on )
M3
S500

( Current depth = -0.700 )

( MoveToStartpoint2 )
F2000 G90 z5.000
F2000 x116.636 y-7.470 z5.000
F2000 x116.636 y-7.470 z0.000

( Loop )
G90 F500
x116.636 y-7.470 z-0.700
F500
x118.702 y-7.470 z-0.700
x118.070 y-5.790 z-0.700
x118.014 y-5.639 z-0.700
x117.961 y-5.494 z-0.700
x117.911 y-5.354 z-0.700
x117.863 y-5.219 z-0.700
x117.818 y-5.090 z-0.700
x117.776 y-4.966 z-0.700
x117.737 y-4.848 z-0.700
x117.700 y-4.734 z-0.700
x117.666 y-4.627 z-0.700
x117.635 y-4.524 z-0.700
x117.609 y-4.642 z-0.700
x117.582 y-4.760 z-0.700
x117.552 y-4.878 z-0.700
x117.522 y-4.995 z-0.700
x117.489 y-5.112 z-0.700
x117.455 y-5.228 z-0.700
x117.419 y-5.344 z-0.700
x117.381 y-5.460 z-0.700
x117.342 y-5.576 z-0.700
x117.301 y-5.691 z-0.700
x116.636 y-7.470 z-0.700
x116.636 y-7.470 z-0.700

( Lift to 5.000 )
F2000 z5.000

( Percurso da ferramenta 31 )
( ------------------------- )

( Spindle on )
M3
S500

( Current depth = -0.700 )

( MoveToStartpoint2 )
F2000 G90 z5.000
F2000 x121.170 y-9.960 z5.000
F2000 x121.170 y-9.960 z0.000

( Loop )
G90 F500
x121.170 y-9.960 z-0.700
F500
x121.170 y-9.960 z-0.700
x123.483 y-9.960 z-0.700
x123.597 y-9.959 z-0.700
x123.707 y-9.956 z-0.700
x123.814 y-9.950 z-0.700
x123.918 y-9.943 z-0.700
x124.017 y-9.934 z-0.700
x124.113 y-9.923 z-0.700
x124.206 y-9.910 z-0.700
x124.295 y-9.895 z-0.700
x124.380 y-9.877 z-0.700
x124.462 y-9.858 z-0.700
x124.540 y-9.837 z-0.700
x124.616 y-9.813 z-0.700
x124.689 y-9.788 z-0.700
x124.759 y-9.761 z-0.700
x124.827 y-9.732 z-0.700
x124.892 y-9.701 z-0.700
x124.954 y-9.669 z-0.700
x125.014 y-9.634 z-0.700
x125.071 y-9.597 z-0.700
x125.125 y-9.559 z-0.700
x125.177 y-9.517 z-0.700
x125.228 y-9.473 z-0.700
x125.276 y-9.425 z-0.700
x125.323 y-9.373 z-0.700
x125.369 y-9.318 z-0.700
x125.412 y-9.260 z-0.700
x125.454 y-9.199 z-0.700
x125.494 y-9.134 z-0.700
x125.533 y-9.066 z-0.700
x125.570 y-8.994 z-0.700
x125.604 y-8.921 z-0.700
x125.635 y-8.846 z-0.700
x125.662 y-8.769 z-0.700
x125.685 y-8.692 z-0.700
x125.705 y-8.613 z-0.700
x125.721 y-8.533 z-0.700
x125.734 y-8.452 z-0.700
x125.743 y-8.370 z-0.700
x125.749 y-8.286 z-0.700
x125.750 y-8.201 z-0.700
x125.747 y-8.097 z-0.700
x125.739 y-7.995 z-0.700
x125.724 y-7.896 z-0.700
x125.703 y-7.800 z-0.700
x125.676 y-7.707 z-0.700
x125.644 y-7.617 z-0.700
x125.605 y-7.529 z-0.700
x125.561 y-7.445 z-0.700
x125.510 y-7.363 z-0.700
x125.454 y-7.284 z-0.700
x125.393 y-7.209 z-0.700
x125.326 y-7.137 z-0.700
x125.254 y-7.071 z-0.700
x125.177 y-7.009 z-0.700
x125.095 y-6.952 z-0.700
x125.008 y-6.899 z-0.700
x124.916 y-6.851 z-0.700
x124.819 y-6.807 z-0.700
x124.716 y-6.768 z-0.700
x124.609 y-6.734 z-0.700
x124.692 y-6.690 z-0.700
x124.770 y-6.644 z-0.700
x124.845 y-6.595 z-0.700
x124.915 y-6.543 z-0.700
x124.980 y-6.489 z-0.700
x125.042 y-6.433 z-0.700
x125.099 y-6.373 z-0.700
x125.151 y-6.311 z-0.700
x125.200 y-6.246 z-0.700
x125.244 y-6.179 z-0.700
x125.284 y-6.110 z-0.700
x125.319 y-6.040 z-0.700
x125.351 y-5.969 z-0.700
x125.378 y-5.898 z-0.700
x125.401 y-5.825 z-0.700
x125.420 y-5.751 z-0.700
x125.435 y-5.677 z-0.700
x125.446 y-5.602 z-0.700
x125.452 y-5.525 z-0.700
x125.454 y-5.448 z-0.700
x125.452 y-5.365 z-0.700
x125.445 y-5.282 z-0.700
x125.433 y-5.200 z-0.700
x125.416 y-5.119 z-0.700
x125.395 y-5.039 z-0.700
x125.368 y-4.959 z-0.700
x125.337 y-4.880 z-0.700
x125.302 y-4.802 z-0.700
x125.261 y-4.725 z-0.700
x125.216 y-4.648 z-0.700
x125.166 y-4.574 z-0.700
x125.113 y-4.503 z-0.700
x125.057 y-4.436 z-0.700
x124.997 y-4.374 z-0.700
x124.933 y-4.315 z-0.700
x124.866 y-4.260 z-0.700
x124.794 y-4.209 z-0.700
x124.720 y-4.163 z-0.700
x124.641 y-4.120 z-0.700
x124.559 y-4.081 z-0.700
x124.472 y-4.046 z-0.700
x124.380 y-4.015 z-0.700
x124.282 y-3.987 z-0.700
x124.179 y-3.963 z-0.700
x124.070 y-3.943 z-0.700
x123.956 y-3.927 z-0.700
x123.836 y-3.914 z-0.700
x123.711 y-3.905 z-0.700
x123.581 y-3.899 z-0.700
x123.445 y-3.897 z-0.700
x121.170 y-3.897 z-0.700
x121.170 y-9.960 z-0.700

( Lift to 5.000 )
F2000 z5.000

( Percurso da ferramenta 32 )
( ------------------------- )

( Spindle on )
M3
S500

( Current depth = -0.700 )

( MoveToStartpoint2 )
F2000 G90 z5.000
F2000 x121.974 y-6.446 z5.000
F2000 x121.974 y-6.446 z0.000

( Loop )
G90 F500
x121.974 y-6.446 z-0.700
F500
x123.285 y-6.446 z-0.700
x123.389 y-6.445 z-0.700
x123.486 y-6.443 z-0.700
x123.578 y-6.439 z-0.700
x123.664 y-6.434 z-0.700
x123.743 y-6.428 z-0.700
x123.817 y-6.420 z-0.700
x123.884 y-6.411 z-0.700
x123.945 y-6.401 z-0.700
x124.001 y-6.389 z-0.700
x124.050 y-6.375 z-0.700
x124.110 y-6.356 z-0.700
x124.167 y-6.334 z-0.700
x124.220 y-6.310 z-0.700
x124.271 y-6.283 z-0.700
x124.319 y-6.254 z-0.700
x124.363 y-6.222 z-0.700
x124.405 y-6.188 z-0.700
x124.444 y-6.152 z-0.700
x124.479 y-6.113 z-0.700
x124.511 y-6.072 z-0.700
x124.541 y-6.029 z-0.700
x124.567 y-5.983 z-0.700
x124.590 y-5.935 z-0.700
x124.611 y-5.886 z-0.700
x124.628 y-5.834 z-0.700
x124.642 y-5.780 z-0.700
x124.653 y-5.723 z-0.700
x124.660 y-5.665 z-0.700
x124.665 y-5.604 z-0.700
x124.667 y-5.541 z-0.700
x124.665 y-5.482 z-0.700
x124.661 y-5.423 z-0.700
x124.654 y-5.366 z-0.700
x124.643 y-5.311 z-0.700
x124.630 y-5.257 z-0.700
x124.614 y-5.204 z-0.700
x124.596 y-5.153 z-0.700
x124.574 y-5.104 z-0.700
x124.549 y-5.056 z-0.700
x124.521 y-5.009 z-0.700
x124.491 y-4.965 z-0.700
x124.459 y-4.923 z-0.700
x124.424 y-4.884 z-0.700
x124.386 y-4.848 z-0.700
x124.346 y-4.815 z-0.700
x124.303 y-4.785 z-0.700
x124.258 y-4.757 z-0.700
x124.210 y-4.733 z-0.700
x124.160 y-4.712 z-0.700
x124.108 y-4.693 z-0.700
x124.050 y-4.677 z-0.700
x123.985 y-4.663 z-0.700
x123.912 y-4.650 z-0.700
x123.831 y-4.639 z-0.700
x123.743 y-4.630 z-0.700
x123.647 y-4.622 z-0.700
x123.543 y-4.616 z-0.700
x123.432 y-4.612 z-0.700
x123.313 y-4.609 z-0.700
x123.186 y-4.609 z-0.700
x121.974 y-4.609 z-0.700
x121.974 y-6.446 z-0.700
x121.974 y-6.446 z-0.700

( Lift to 5.000 )
F2000 z5.000

( Percurso da ferramenta 33 )
( ------------------------- )

( Spindle on )
M3
S500

( Current depth = -0.700 )

( MoveToStartpoint2 )
F2000 G90 z5.000
F2000 x121.974 y-9.248 z5.000
F2000 x121.974 y-9.248 z0.000

( Loop )
G90 F500
x121.974 y-9.248 z-0.700
F500
x123.484 y-9.248 z-0.700
x123.560 y-9.248 z-0.700
x123.631 y-9.247 z-0.700
x123.697 y-9.246 z-0.700
x123.758 y-9.244 z-0.700
x123.816 y-9.241 z-0.700
x123.868 y-9.238 z-0.700
x123.916 y-9.234 z-0.700
x123.959 y-9.229 z-0.700
x123.998 y-9.224 z-0.700
x124.032 y-9.219 z-0.700
x124.086 y-9.208 z-0.700
x124.138 y-9.197 z-0.700
x124.189 y-9.183 z-0.700
x124.238 y-9.169 z-0.700
x124.285 y-9.153 z-0.700
x124.331 y-9.136 z-0.700
x124.374 y-9.117 z-0.700
x124.416 y-9.098 z-0.700
x124.456 y-9.076 z-0.700
x124.495 y-9.054 z-0.700
x124.531 y-9.029 z-0.700
x124.566 y-9.003 z-0.700
x124.600 y-8.974 z-0.700
x124.633 y-8.944 z-0.700
x124.664 y-8.911 z-0.700
x124.694 y-8.876 z-0.700
x124.723 y-8.839 z-0.700
x124.750 y-8.800 z-0.700
x124.776 y-8.758 z-0.700
x124.801 y-8.715 z-0.700
x124.824 y-8.670 z-0.700
x124.844 y-8.623 z-0.700
x124.862 y-8.576 z-0.700
x124.878 y-8.526 z-0.700
x124.891 y-8.476 z-0.700
x124.902 y-8.424 z-0.700
x124.910 y-8.371 z-0.700
x124.916 y-8.316 z-0.700
x124.919 y-8.260 z-0.700
x124.921 y-8.203 z-0.700
x124.919 y-8.136 z-0.700
x124.914 y-8.070 z-0.700
x124.905 y-8.007 z-0.700
x124.893 y-7.945 z-0.700
x124.877 y-7.885 z-0.700
x124.858 y-7.827 z-0.700
x124.835 y-7.770 z-0.700
x124.809 y-7.716 z-0.700
x124.779 y-7.663 z-0.700
x124.746 y-7.612 z-0.700
x124.710 y-7.563 z-0.700
x124.671 y-7.517 z-0.700
x124.629 y-7.474 z-0.700
x124.585 y-7.434 z-0.700
x124.538 y-7.398 z-0.700
x124.489 y-7.364 z-0.700
x124.436 y-7.333 z-0.700
x124.381 y-7.305 z-0.700
x124.323 y-7.281 z-0.700
x124.263 y-7.259 z-0.700
x124.199 y-7.239 z-0.700
x124.129 y-7.222 z-0.700
x124.054 y-7.207 z-0.700
x123.974 y-7.194 z-0.700
x123.888 y-7.183 z-0.700
x123.796 y-7.173 z-0.700
x123.700 y-7.166 z-0.700
x123.597 y-7.161 z-0.700
x123.490 y-7.158 z-0.700
x123.377 y-7.157 z-0.700
x121.974 y-7.157 z-0.700
x121.974 y-9.248 z-0.700
x121.974 y-9.248 z-0.700

( Lift to 5.000 )
F2000 z5.000

( Percurso da ferramenta 4 )
( ------------------------- )

( Spindle on )
M3
S500

( Current depth = -0.700 )

( MoveToStartpoint2 )
F2000 G90 z5.000
F2000 x10.909 y-7.023 z5.000
F2000 x10.909 y-7.023 z0.000

( Loop )
G90 F500
x10.909 y-7.023 z-0.700
F500
x10.915 y-7.237 z-0.700
x10.933 y-7.442 z-0.700
x10.962 y-7.638 z-0.700
x11.003 y-7.824 z-0.700
x11.056 y-8.001 z-0.700
x11.121 y-8.169 z-0.700
x11.198 y-8.327 z-0.700
x11.286 y-8.476 z-0.700
x11.386 y-8.616 z-0.700
x11.498 y-8.746 z-0.700
x11.618 y-8.865 z-0.700
x11.745 y-8.972 z-0.700
x11.878 y-9.067 z-0.700
x12.017 y-9.149 z-0.700
x12.161 y-9.218 z-0.700
x12.312 y-9.275 z-0.700
x12.469 y-9.319 z-0.700
x12.632 y-9.350 z-0.700
x12.800 y-9.369 z-0.700
x12.975 y-9.375 z-0.700
x13.153 y-9.369 z-0.700
x13.325 y-9.350 z-0.700
x13.490 y-9.318 z-0.700
x13.648 y-9.274 z-0.700
x13.800 y-9.217 z-0.700
x13.946 y-9.147 z-0.700
x14.085 y-9.064 z-0.700
x14.218 y-8.969 z-0.700
x14.345 y-8.861 z-0.700
x14.465 y-8.740 z-0.700
x14.576 y-8.608 z-0.700
x14.676 y-8.465 z-0.700
x14.763 y-8.311 z-0.700
x14.839 y-8.147 z-0.700
x14.904 y-7.972 z-0.700
x14.956 y-7.786 z-0.700
x14.997 y-7.590 z-0.700
x15.026 y-7.383 z-0.700
x15.044 y-7.165 z-0.700
x15.050 y-6.937 z-0.700
x15.047 y-6.791 z-0.700
x15.040 y-6.649 z-0.700
x15.027 y-6.511 z-0.700
x15.010 y-6.376 z-0.700
x14.987 y-6.245 z-0.700
x14.960 y-6.118 z-0.700
x14.927 y-5.995 z-0.700
x14.890 y-5.875 z-0.700
x14.847 y-5.759 z-0.700
x14.800 y-5.647 z-0.700
x14.748 y-5.540 z-0.700
x14.691 y-5.437 z-0.700
x14.629 y-5.339 z-0.700
x14.563 y-5.246 z-0.700
x14.492 y-5.158 z-0.700
x14.417 y-5.076 z-0.700
x14.337 y-4.998 z-0.700
x14.252 y-4.925 z-0.700
x14.163 y-4.857 z-0.700
x14.069 y-4.794 z-0.700
x13.971 y-4.736 z-0.700
x13.871 y-4.684 z-0.700
x13.769 y-4.639 z-0.700
x13.664 y-4.600 z-0.700
x13.557 y-4.566 z-0.700
x13.448 y-4.539 z-0.700
x13.337 y-4.517 z-0.700
x13.223 y-4.502 z-0.700
x13.107 y-4.493 z-0.700
x12.988 y-4.490 z-0.700
x12.820 y-4.496 z-0.700
x12.657 y-4.513 z-0.700
x12.499 y-4.543 z-0.700
x12.345 y-4.584 z-0.700
x12.196 y-4.636 z-0.700
x12.052 y-4.700 z-0.700
x11.913 y-4.776 z-0.700
x11.778 y-4.864 z-0.700
x11.648 y-4.963 z-0.700
x11.523 y-5.074 z-0.700
x11.407 y-5.199 z-0.700
x11.302 y-5.339 z-0.700
x11.210 y-5.495 z-0.700
x11.130 y-5.666 z-0.700
x11.063 y-5.853 z-0.700
x11.008 y-6.056 z-0.700
x10.965 y-6.274 z-0.700
x10.934 y-6.508 z-0.700
x10.915 y-6.758 z-0.700
x10.909 y-7.023 z-0.700
x10.909 y-7.023 z-0.700

( Lift to 5.000 )
F2000 z5.000

( Percurso da ferramenta 5 )
( ------------------------- )

( Spindle on )
M3
S500

( Current depth = -0.700 )

( MoveToStartpoint2 )
F2000 G90 z5.000
F2000 x16.911 y-9.960 z5.000
F2000 x16.911 y-9.960 z0.000

( Loop )
G90 F500
x16.911 y-9.960 z-0.700
F500
x16.911 y-9.960 z-0.700
x19.098 y-9.960 z-0.700
x19.207 y-9.959 z-0.700
x19.313 y-9.956 z-0.700
x19.417 y-9.950 z-0.700
x19.518 y-9.943 z-0.700
x19.617 y-9.934 z-0.700
x19.713 y-9.923 z-0.700
x19.807 y-9.909 z-0.700
x19.898 y-9.894 z-0.700
x19.987 y-9.876 z-0.700
x20.073 y-9.857 z-0.700
x20.157 y-9.835 z-0.700
x20.238 y-9.811 z-0.700
x20.316 y-9.786 z-0.700
x20.392 y-9.758 z-0.700
x20.466 y-9.728 z-0.700
x20.537 y-9.697 z-0.700
x20.605 y-9.664 z-0.700
x20.671 y-9.628 z-0.700
x20.735 y-9.591 z-0.700
x20.796 y-9.552 z-0.700
x20.855 y-9.510 z-0.700
x20.914 y-9.466 z-0.700
x20.971 y-9.419 z-0.700
x21.028 y-9.368 z-0.700
x21.084 y-9.315 z-0.700
x21.139 y-9.258 z-0.700
x21.193 y-9.199 z-0.700
x21.245 y-9.137 z-0.700
x21.298 y-9.071 z-0.700
x21.349 y-9.003 z-0.700
x21.398 y-8.931 z-0.700
x21.446 y-8.856 z-0.700
x21.492 y-8.777 z-0.700
x21.536 y-8.694 z-0.700
x21.578 y-8.607 z-0.700
x21.619 y-8.517 z-0.700
x21.657 y-8.423 z-0.700
x21.694 y-8.326 z-0.700
x21.729 y-8.224 z-0.700
x21.762 y-8.119 z-0.700
x21.793 y-8.011 z-0.700
x21.820 y-7.900 z-0.700
x21.844 y-7.785 z-0.700
x21.865 y-7.668 z-0.700
x21.883 y-7.547 z-0.700
x21.897 y-7.423 z-0.700
x21.909 y-7.296 z-0.700
x21.917 y-7.166 z-0.700
x21.921 y-7.033 z-0.700
x21.923 y-6.896 z-0.700
x21.921 y-6.736 z-0.700
x21.914 y-6.579 z-0.700
x21.902 y-6.426 z-0.700
x21.885 y-6.276 z-0.700
x21.864 y-6.130 z-0.700
x21.837 y-5.988 z-0.700
x21.806 y-5.849 z-0.700
x21.771 y-5.713 z-0.700
x21.730 y-5.582 z-0.700
x21.685 y-5.454 z-0.700
x21.635 y-5.330 z-0.700
x21.580 y-5.211 z-0.700
x21.521 y-5.096 z-0.700
x21.456 y-4.986 z-0.700
x21.387 y-4.880 z-0.700
x21.313 y-4.779 z-0.700
x21.234 y-4.682 z-0.700
x21.150 y-4.590 z-0.700
x21.061 y-4.502 z-0.700
x20.968 y-4.418 z-0.700
x20.893 y-4.357 z-0.700
x20.814 y-4.300 z-0.700
x20.733 y-4.247 z-0.700
x20.649 y-4.198 z-0.700
x20.561 y-4.153 z-0.700
x20.471 y-4.111 z-0.700
x20.377 y-4.073 z-0.700
x20.281 y-4.040 z-0.700
x20.181 y-4.010 z-0.700
x20.079 y-3.984 z-0.700
x20.001 y-3.967 z-0.700
x19.916 y-3.952 z-0.700
x19.825 y-3.939 z-0.700
x19.727 y-3.928 z-0.700
x19.623 y-3.919 z-0.700
x19.511 y-3.911 z-0.700
x19.393 y-3.905 z-0.700
x19.269 y-3.901 z-0.700
x19.137 y-3.898 z-0.700
x18.999 y-3.897 z-0.700
x16.911 y-3.897 z-0.700
x16.911 y-9.960 z-0.700

( Lift to 5.000 )
F2000 z5.000

( Percurso da ferramenta 6 )
( ------------------------- )

( Spindle on )
M3
S500

( Current depth = -0.700 )

( MoveToStartpoint2 )
F2000 G90 z5.000
F2000 x17.715 y-9.248 z5.000
F2000 x17.715 y-9.248 z0.000

( Loop )
G90 F500
x17.715 y-9.248 z-0.700
F500
x19.008 y-9.248 z-0.700
x19.125 y-9.247 z-0.700
x19.237 y-9.244 z-0.700
x19.344 y-9.238 z-0.700
x19.446 y-9.231 z-0.700
x19.542 y-9.221 z-0.700
x19.634 y-9.208 z-0.700
x19.720 y-9.194 z-0.700
x19.801 y-9.177 z-0.700
x19.877 y-9.158 z-0.700
x19.948 y-9.137 z-0.700
x20.014 y-9.114 z-0.700
x20.078 y-9.088 z-0.700
x20.139 y-9.062 z-0.700
x20.198 y-9.033 z-0.700
x20.254 y-9.002 z-0.700
x20.307 y-8.970 z-0.700
x20.357 y-8.936 z-0.700
x20.404 y-8.900 z-0.700
x20.449 y-8.862 z-0.700
x20.491 y-8.822 z-0.700
x20.546 y-8.763 z-0.700
x20.599 y-8.700 z-0.700
x20.650 y-8.633 z-0.700
x20.698 y-8.562 z-0.700
x20.744 y-8.487 z-0.700
x20.787 y-8.408 z-0.700
x20.827 y-8.325 z-0.700
x20.865 y-8.238 z-0.700
x20.901 y-8.148 z-0.700
x20.934 y-8.053 z-0.700
x20.964 y-7.955 z-0.700
x20.991 y-7.852 z-0.700
x21.015 y-7.745 z-0.700
x21.036 y-7.634 z-0.700
x21.053 y-7.520 z-0.700
x21.068 y-7.401 z-0.700
x21.079 y-7.277 z-0.700
x21.087 y-7.150 z-0.700
x21.092 y-7.019 z-0.700
x21.093 y-6.883 z-0.700
x21.090 y-6.697 z-0.700
x21.081 y-6.520 z-0.700
x21.065 y-6.352 z-0.700
x21.043 y-6.192 z-0.700
x21.015 y-6.041 z-0.700
x20.981 y-5.899 z-0.700
x20.940 y-5.766 z-0.700
x20.894 y-5.641 z-0.700
x20.841 y-5.525 z-0.700
x20.782 y-5.419 z-0.700
x20.718 y-5.320 z-0.700
x20.652 y-5.227 z-0.700
x20.583 y-5.142 z-0.700
x20.511 y-5.063 z-0.700
x20.437 y-4.991 z-0.700
x20.359 y-4.926 z-0.700
x20.280 y-4.867 z-0.700
x20.197 y-4.816 z-0.700
x20.112 y-4.771 z-0.700
x20.024 y-4.733 z-0.700
x19.956 y-4.709 z-0.700
x19.879 y-4.688 z-0.700
x19.795 y-4.669 z-0.700
x19.703 y-4.653 z-0.700
x19.604 y-4.640 z-0.700
x19.496 y-4.628 z-0.700
x19.380 y-4.620 z-0.700
x19.257 y-4.614 z-0.700
x19.126 y-4.610 z-0.700
x18.987 y-4.609 z-0.700
x17.715 y-4.609 z-0.700
x17.715 y-9.248 z-0.700
x17.715 y-9.248 z-0.700

( Lift to 5.000 )
F2000 z5.000

( Percurso da ferramenta 7 )
( ------------------------- )

( Spindle on )
M3
S500

( Current depth = -0.700 )

( MoveToStartpoint2 )
F2000 G90 z5.000
F2000 x23.042 y-9.960 z5.000
F2000 x23.042 y-9.960 z0.000

( Loop )
G90 F500
x23.042 y-9.960 z-0.700
F500
x23.042 y-9.960 z-0.700
x23.847 y-9.960 z-0.700
x23.847 y-7.267 z-0.700
x24.775 y-7.267 z-0.700
x24.835 y-7.267 z-0.700
x24.892 y-7.268 z-0.700
x24.946 y-7.270 z-0.700
x24.996 y-7.272 z-0.700
x25.042 y-7.274 z-0.700
x25.085 y-7.278 z-0.700
x25.124 y-7.281 z-0.700
x25.160 y-7.285 z-0.700
x25.192 y-7.290 z-0.700
x25.221 y-7.295 z-0.700
x25.258 y-7.305 z-0.700
x25.295 y-7.317 z-0.700
x25.332 y-7.329 z-0.700
x25.369 y-7.344 z-0.700
x25.406 y-7.359 z-0.700
x25.442 y-7.376 z-0.700
x25.479 y-7.394 z-0.700
x25.515 y-7.413 z-0.700
x25.551 y-7.434 z-0.700
x25.586 y-7.456 z-0.700
x25.623 y-7.481 z-0.700
x25.660 y-7.510 z-0.700
x25.699 y-7.541 z-0.700
x25.738 y-7.577 z-0.700
x25.778 y-7.615 z-0.700
x25.819 y-7.658 z-0.700
x25.862 y-7.703 z-0.700
x25.905 y-7.752 z-0.700
x25.949 y-7.805 z-0.700
x25.994 y-7.861 z-0.700
x26.041 y-7.922 z-0.700
x26.090 y-7.987 z-0.700
x26.141 y-8.058 z-0.700
x26.196 y-8.134 z-0.700
x26.252 y-8.215 z-0.700
x26.311 y-8.301 z-0.700
x26.373 y-8.393 z-0.700
x26.436 y-8.489 z-0.700
x26.503 y-8.591 z-0.700
x26.571 y-8.698 z-0.700
x27.373 y-9.960 z-0.700
x28.375 y-9.960 z-0.700
x27.326 y-8.309 z-0.700
x27.264 y-8.213 z-0.700
x27.200 y-8.121 z-0.700
x27.136 y-8.032 z-0.700
x27.071 y-7.947 z-0.700
x27.005 y-7.864 z-0.700
x26.938 y-7.785 z-0.700
x26.870 y-7.709 z-0.700
x26.802 y-7.637 z-0.700
x26.733 y-7.567 z-0.700
x26.663 y-7.501 z-0.700
x26.629 y-7.472 z-0.700
x26.591 y-7.442 z-0.700
x26.550 y-7.412 z-0.700
x26.507 y-7.382 z-0.700
x26.460 y-7.352 z-0.700
x26.410 y-7.321 z-0.700
x26.357 y-7.291 z-0.700
x26.301 y-7.260 z-0.700
x26.241 y-7.230 z-0.700
x26.179 y-7.200 z-0.700
x26.349 y-7.172 z-0.700
x26.510 y-7.138 z-0.700
x26.661 y-7.098 z-0.700
x26.804 y-7.052 z-0.700
x26.937 y-6.999 z-0.700
x27.061 y-6.940 z-0.700
x27.176 y-6.874 z-0.700
x27.282 y-6.802 z-0.700
x27.379 y-6.723 z-0.700
x27.467 y-6.638 z-0.700
x27.547 y-6.547 z-0.700
x27.618 y-6.453 z-0.700
x27.680 y-6.354 z-0.700
x27.735 y-6.251 z-0.700
x27.781 y-6.145 z-0.700
x27.818 y-6.034 z-0.700
x27.847 y-5.919 z-0.700
x27.868 y-5.800 z-0.700
x27.881 y-5.677 z-0.700
x27.885 y-5.550 z-0.700
x27.883 y-5.451 z-0.700
x27.875 y-5.353 z-0.700
x27.863 y-5.258 z-0.700
x27.845 y-5.164 z-0.700
x27.823 y-5.072 z-0.700
x27.795 y-4.981 z-0.700
x27.762 y-4.892 z-0.700
x27.725 y-4.806 z-0.700
x27.682 y-4.720 z-0.700
x27.634 y-4.637 z-0.700
x27.582 y-4.557 z-0.700
x27.526 y-4.482 z-0.700
x27.468 y-4.412 z-0.700
x27.405 y-4.347 z-0.700
x27.340 y-4.287 z-0.700
x27.271 y-4.231 z-0.700
x27.198 y-4.181 z-0.700
x27.123 y-4.136 z-0.700
x27.043 y-4.096 z-0.700
x26.961 y-4.061 z-0.700
x26.873 y-4.030 z-0.700
x26.777 y-4.002 z-0.700
x26.673 y-3.978 z-0.700
x26.562 y-3.957 z-0.700
x26.442 y-3.939 z-0.700
x26.315 y-3.924 z-0.700
x26.180 y-3.912 z-0.700
x26.038 y-3.904 z-0.700
x25.887 y-3.899 z-0.700
x25.729 y-3.897 z-0.700
x23.042 y-3.897 z-0.700
x23.042 y-9.960 z-0.700

( Lift to 5.000 )
F2000 z5.000

( Percurso da ferramenta 8 )
( ------------------------- )

( Spindle on )
M3
S500

( Current depth = -0.700 )

( MoveToStartpoint2 )
F2000 G90 z5.000
F2000 x23.847 y-6.573 z5.000
F2000 x23.847 y-6.573 z0.000

( Loop )
G90 F500
x23.847 y-6.573 z-0.700
F500
x25.568 y-6.573 z-0.700
x25.676 y-6.572 z-0.700
x25.778 y-6.568 z-0.700
x25.876 y-6.563 z-0.700
x25.969 y-6.555 z-0.700
x26.057 y-6.544 z-0.700
x26.141 y-6.532 z-0.700
x26.219 y-6.517 z-0.700
x26.293 y-6.500 z-0.700
x26.362 y-6.480 z-0.700
x26.426 y-6.459 z-0.700
x26.486 y-6.435 z-0.700
x26.544 y-6.408 z-0.700
x26.598 y-6.379 z-0.700
x26.649 y-6.347 z-0.700
x26.698 y-6.312 z-0.700
x26.743 y-6.274 z-0.700
x26.786 y-6.233 z-0.700
x26.825 y-6.190 z-0.700
x26.861 y-6.144 z-0.700
x26.895 y-6.095 z-0.700
x26.925 y-6.044 z-0.700
x26.952 y-5.993 z-0.700
x26.977 y-5.941 z-0.700
x26.997 y-5.888 z-0.700
x27.015 y-5.834 z-0.700
x27.030 y-5.779 z-0.700
x27.041 y-5.724 z-0.700
x27.049 y-5.667 z-0.700
x27.054 y-5.610 z-0.700
x27.055 y-5.551 z-0.700
x27.052 y-5.467 z-0.700
x27.043 y-5.385 z-0.700
x27.028 y-5.307 z-0.700
x27.006 y-5.231 z-0.700
x26.978 y-5.159 z-0.700
x26.944 y-5.090 z-0.700
x26.903 y-5.023 z-0.700
x26.857 y-4.960 z-0.700
x26.804 y-4.900 z-0.700
x26.745 y-4.843 z-0.700
x26.679 y-4.790 z-0.700
x26.606 y-4.743 z-0.700
x26.526 y-4.702 z-0.700
x26.438 y-4.666 z-0.700
x26.344 y-4.635 z-0.700
x26.242 y-4.610 z-0.700
x26.133 y-4.591 z-0.700
x26.017 y-4.577 z-0.700
x25.893 y-4.569 z-0.700
x25.763 y-4.566 z-0.700
x23.847 y-4.566 z-0.700
x23.847 y-6.573 z-0.700
x23.847 y-6.573 z-0.700

( Lift to 5.000 )
F2000 z5.000

( Percurso da ferramenta 9 )
( ------------------------- )

( Spindle on )
M3
S500

( Current depth = -0.700 )

( MoveToStartpoint2 )
F2000 G90 z5.000
F2000 x29.275 y-9.960 z5.000
F2000 x29.275 y-9.960 z0.000

( Loop )
G90 F500
x29.275 y-9.960 z-0.700
F500
x29.275 y-9.960 z-0.700
x30.079 y-9.960 z-0.700
x30.079 y-3.897 z-0.700
x29.275 y-3.897 z-0.700
x29.275 y-9.960 z-0.700

( Lift to 5.000 )
F2000 z5.000

( Program end, back to origin )
G90 F2000 z5.000

( Spindle off )
M5
F2000 x0.000 y0.000 z5.000
